; generated by PrusaSlicer 2.0.0+win64 on 2019-07-25 at 20:11:43

; 

; external perimeters extrusion width = 0.45mm
; perimeters extrusion width = 0.45mm
; infill extrusion width = 0.45mm
; solid infill extrusion width = 0.45mm
; top infill extrusion width = 0.40mm
; first layer extrusion width = 0.42mm

M73 P0 R3
M73 Q0 S3
M201 X1000 Y1000 Z1000 E5000 ; sets maximum accelerations, mm/sec^2
M203 X200 Y200 Z12 E120 ; sets maximum feedrates, mm/sec
M204 P1250 R1250 T1250 ; sets acceleration (P, T) and retract acceleration (R), mm/sec^2
M205 X8.00 Y8.00 Z0.40 E1.50 ; sets the jerk limits, mm/sec
M205 S0 T0 ; sets the minimum extruding and travel feed rate, mm/sec
M107
M115 U3.7.2 ; tell printer latest fw version
G90 ; use absolute coordinates
M83 ; extruder relative mode
M104 S240 ; set extruder temp
M140 S85 ; set bed temp
Tx
M190 S85 ; wait for bed temp
M109 S240 ; wait for extruder temp
G28 W ; home all without mesh bed level
G80 ; mesh bed leveling

G21 ; set units to millimeters

;go outside print area
G1 Y-3.0 F1000.0
G1 Z0.4 F1000.0
; select extruder
Tc
; purge line
G1 X55.0 F2000.0
G1 Z0.3 F1000.0
G92 E0.0
G1 X240.0 E25.0 F2200.0
M73 Q3 S3
M73 P3 R3
G1 Y-2.0 F1000.0
G1 X55.0 E25 F1400.0
G1 Z0.20 F1000.0
G1 X5.0 E4.0 F1000.0

M221 S95
G92 E0.0
M900 K45 ; Filament gcode
G21 ; set units to millimeters
G90 ; use absolute coordinates
M83 ; use relative distances for extrusion
;BEFORE_LAYER_CHANGE
G92 E0.0
;0.2


G1 E-0.80000 F2100.00000
G1 Z0.600 F10800.000
;AFTER_LAYER_CHANGE
;0.2
G1 X119.138 Y100.452
G1 Z0.200
G1 E0.80000 F2100.00000
M204 S1000
G1 F923
G1 X119.753 Y99.754 E0.02916
G1 X120.660 Y98.987 E0.03725
G1 X121.324 Y98.555 E0.02485
G1 X122.159 Y98.145 E0.02916
G1 X123.039 Y97.844 E0.02916
G1 X123.817 Y97.679 E0.02493
G1 X125.003 Y97.580 E0.03732
G1 X125.927 Y97.639 E0.02902
G1 X126.709 Y97.784 E0.02493
G1 X127.838 Y98.145 E0.03718
G1 X128.894 Y98.689 E0.03725
G1 X129.548 Y99.138 E0.02485
G1 X130.246 Y99.753 E0.02916
G1 X131.012 Y100.658 E0.03718
G1 X131.445 Y101.324 E0.02493
G1 X131.855 Y102.159 E0.02916
G1 X132.216 Y103.291 E0.03725
G1 X132.361 Y104.071 E0.02485
G1 X132.420 Y104.999 E0.02916
G1 X132.321 Y106.183 E0.03725
G1 X132.157 Y106.958 E0.02485
G1 X131.855 Y107.838 E0.02916
G1 X131.312 Y108.892 E0.03718
G1 X130.862 Y109.548 E0.02493
G1 X130.247 Y110.246 E0.02916
G1 X129.342 Y111.012 E0.03718
G1 X128.676 Y111.445 E0.02493
G1 X127.841 Y111.855 E0.02916
G1 X126.709 Y112.216 E0.03725
G1 X125.929 Y112.361 E0.02485
G1 X125.001 Y112.420 E0.02916
G1 X123.817 Y112.321 E0.03725
G1 X123.042 Y112.157 E0.02485
G1 X122.162 Y111.855 E0.02916
G1 X121.108 Y111.312 E0.03718
G1 X120.452 Y110.862 E0.02493
G1 X119.754 Y110.247 E0.02916
G1 X118.987 Y109.340 E0.03725
G1 X118.555 Y108.676 E0.02485
G1 X118.145 Y107.841 E0.02916
G1 X117.784 Y106.709 E0.03725
G1 X117.639 Y105.929 E0.02485
G1 X117.580 Y105.001 E0.02916
G1 X117.679 Y103.817 E0.03725
G1 X117.843 Y103.042 E0.02485
G1 X118.145 Y102.162 E0.02916
G1 X118.689 Y101.106 E0.03725
G1 X119.104 Y100.502 E0.02297
G1 X119.400 Y100.752 F10800.000
G1 F923
G1 X120.022 Y100.018 E0.03017
G1 X121.315 Y99.003 E0.05157
G1 X122.307 Y98.492 E0.03497
G1 X123.891 Y98.049 E0.05157
G1 X125.002 Y97.957 E0.03497
G1 X126.635 Y98.154 E0.05157
G1 X127.697 Y98.494 E0.03497
G1 X129.131 Y99.300 E0.05157
G1 X129.982 Y100.022 E0.03497
G1 X130.997 Y101.315 E0.05157
G1 X131.508 Y102.307 E0.03497
G1 X131.951 Y103.891 E0.05157
G1 X132.043 Y105.002 E0.03497
G1 X131.846 Y106.635 E0.05157
G1 X131.506 Y107.697 E0.03497
G1 X130.700 Y109.131 E0.05157
G1 X129.978 Y109.982 E0.03497
G1 X128.685 Y110.997 E0.05157
G1 X127.693 Y111.508 E0.03497
G1 X126.109 Y111.951 E0.05157
G1 X124.998 Y112.043 E0.03497
G1 X123.365 Y111.846 E0.05157
G1 X122.303 Y111.506 E0.03497
G1 X120.869 Y110.700 E0.05157
G1 X120.018 Y109.978 E0.03497
G1 X119.003 Y108.685 E0.05157
G1 X118.492 Y107.693 E0.03497
G1 X118.049 Y106.109 E0.05157
G1 X117.957 Y104.998 E0.03497
G1 X118.154 Y103.365 E0.05157
G1 X118.494 Y102.303 E0.03497
G1 X119.300 Y100.869 E0.05157
G1 X119.361 Y100.798 E0.00292
G1 X119.646 Y101.041 F10800.000
G1 F923
G1 X120.288 Y100.285 E0.03109
G1 X121.525 Y99.316 E0.04925
G1 X122.451 Y98.841 E0.03265
G1 X123.964 Y98.419 E0.04925
G1 X125.002 Y98.334 E0.03265
G1 X126.562 Y98.523 E0.04925
G1 X127.553 Y98.843 E0.03265
G1 X128.921 Y99.614 E0.04925
G1 X129.715 Y100.288 E0.03265
G1 X130.684 Y101.525 E0.04925
G1 X131.159 Y102.451 E0.03265
G1 X131.581 Y103.964 E0.04925
G1 X131.666 Y105.002 E0.03265
G1 X131.477 Y106.562 E0.04925
G1 X131.157 Y107.553 E0.03265
G1 X130.386 Y108.921 E0.04925
G1 X129.712 Y109.715 E0.03265
G1 X128.475 Y110.684 E0.04925
G1 X127.549 Y111.159 E0.03265
G1 X126.036 Y111.581 E0.04925
G1 X124.998 Y111.666 E0.03265
G1 X123.438 Y111.477 E0.04925
G1 X122.447 Y111.157 E0.03265
G1 X121.079 Y110.386 E0.04925
G1 X120.285 Y109.712 E0.03265
G1 X119.316 Y108.475 E0.04925
G1 X118.841 Y107.549 E0.03265
G1 X118.419 Y106.036 E0.04925
G1 X118.334 Y104.998 E0.03265
G1 X118.523 Y103.438 E0.04925
G1 X118.843 Y102.447 E0.03265
G1 X119.609 Y101.088 E0.04893
G1 F8640
G1 X120.288 Y100.285 E-0.24276
G1 X121.525 Y99.316 E-0.36271
G1 X122.120 Y99.011 E-0.15452
G1 E-0.04000 F2100.00000
G1 Z0.800 F10800.000
G1 X120.553 Y100.554
G1 Z0.200
G1 E0.80000 F2100.00000
G1 F923
G1 X121.288 Y99.928 E0.03029
G1 X122.593 Y99.190 E0.04698
G1 X124.038 Y98.789 E0.04703
G1 X125.003 Y98.711 E0.03036
G1 X126.488 Y98.893 E0.04691
G1 X127.406 Y99.190 E0.03024
G1 X128.266 Y99.630 E0.03029
G1 X129.446 Y100.553 E0.04698
G1 X130.072 Y101.288 E0.03029
G1 X130.810 Y102.593 E0.04698
G1 X131.107 Y103.512 E0.03029
G1 X131.289 Y104.999 E0.04698
G1 X131.211 Y105.962 E0.03029
G1 X130.810 Y107.406 E0.04698
G1 X130.370 Y108.266 E0.03029
G1 X129.447 Y109.446 E0.04698
G1 X128.712 Y110.072 E0.03029
G1 X127.407 Y110.810 E0.04698
G1 X126.488 Y111.107 E0.03029
G1 X125.001 Y111.289 E0.04698
G1 X124.038 Y111.211 E0.03029
G1 X122.594 Y110.810 E0.04698
G1 X121.734 Y110.370 E0.03029
G1 X120.554 Y109.447 E0.04698
G1 X119.928 Y108.712 E0.03029
G1 X119.190 Y107.407 E0.04698
G1 X118.893 Y106.488 E0.03029
G1 X118.711 Y105.001 E0.04698
G1 X118.789 Y104.038 E0.03029
G1 X119.190 Y102.594 E0.04698
G1 X119.630 Y101.734 E0.03029
G1 X120.516 Y100.601 E0.04510
G1 F8640
G1 X121.288 Y99.928 E-0.23662
G1 X122.593 Y99.190 E-0.34600
G1 X123.333 Y98.985 E-0.17738
G1 E-0.04000 F2100.00000
G1 Z0.800 F10800.000
G1 X127.169 Y106.664
G1 Z0.200
G1 E0.80000 F2100.00000
G1 F923
G1 X126.933 Y106.933 E0.01121
G1 X126.664 Y107.169 E0.01121
G1 X126.367 Y107.368 E0.01121
G1 X126.046 Y107.526 E0.01121
G1 X125.708 Y107.641 E0.01121
G1 X125.357 Y107.710 E0.01121
G1 X125.096 Y107.728 E0.00821
G1 X124.632 Y107.708 E0.01455
G1 X124.292 Y107.641 E0.01085
G1 X123.954 Y107.526 E0.01121
G1 X123.633 Y107.368 E0.01121
G1 X123.336 Y107.169 E0.01121
G1 X123.067 Y106.933 E0.01121
G1 X122.831 Y106.664 E0.01121
G1 X122.632 Y106.367 E0.01121
G1 X122.474 Y106.046 E0.01121
G1 X122.359 Y105.708 E0.01121
G1 X122.290 Y105.357 E0.01121
G1 X122.266 Y105.000 E0.01121
G1 X122.290 Y104.643 E0.01121
G1 X122.359 Y104.292 E0.01121
G1 X122.474 Y103.954 E0.01121
G1 X122.627 Y103.643 E0.01085
G1 X122.894 Y103.264 E0.01455
G1 X123.067 Y103.067 E0.00821
G1 X123.336 Y102.831 E0.01121
G1 X123.633 Y102.632 E0.01121
G1 X123.954 Y102.474 E0.01121
G1 X124.292 Y102.359 E0.01121
G1 X124.643 Y102.290 E0.01121
G1 X125.000 Y102.266 E0.01121
G1 X125.261 Y102.283 E0.00821
G1 X125.718 Y102.363 E0.01455
G1 X126.046 Y102.474 E0.01085
G1 X126.367 Y102.632 E0.01121
G1 X126.664 Y102.831 E0.01121
G1 X126.933 Y103.067 E0.01121
G1 X127.169 Y103.336 E0.01121
G1 X127.368 Y103.633 E0.01121
G1 X127.526 Y103.954 E0.01121
G1 X127.641 Y104.292 E0.01121
G1 X127.710 Y104.643 E0.01121
G1 X127.734 Y105.000 E0.01121
G1 X127.711 Y105.345 E0.01085
G1 X127.610 Y105.798 E0.01455
G1 X127.526 Y106.046 E0.00821
G1 X127.368 Y106.367 E0.01121
G1 X127.202 Y106.614 E0.00933
G1 X127.452 Y106.913 F10800.000
G1 F923
G1 X127.200 Y107.200 E0.01199
G1 X126.894 Y107.469 E0.01276
G1 X126.556 Y107.695 E0.01276
G1 X126.191 Y107.875 E0.01276
G1 X125.805 Y108.006 E0.01276
G1 X125.406 Y108.085 E0.01276
G1 X125.100 Y108.105 E0.00962
G1 X124.587 Y108.084 E0.01610
G1 X124.195 Y108.006 E0.01254
G1 X123.809 Y107.875 E0.01276
G1 X123.444 Y107.695 E0.01276
G1 X123.106 Y107.469 E0.01276
G1 X122.800 Y107.200 E0.01276
G1 X122.531 Y106.894 E0.01276
G1 X122.305 Y106.556 E0.01276
G1 X122.125 Y106.191 E0.01276
G1 X121.994 Y105.805 E0.01276
G1 X121.915 Y105.406 E0.01276
G1 X121.888 Y105.000 E0.01276
G1 X121.915 Y104.594 E0.01276
G1 X121.994 Y104.195 E0.01276
G1 X122.125 Y103.809 E0.01276
G1 X122.302 Y103.450 E0.01254
G1 X122.597 Y103.030 E0.01610
G1 X122.800 Y102.800 E0.00962
G1 X123.106 Y102.531 E0.01276
G1 X123.444 Y102.305 E0.01276
G1 X123.809 Y102.125 E0.01276
G1 X124.195 Y101.994 E0.01276
G1 X124.594 Y101.915 E0.01276
G1 X125.000 Y101.888 E0.01276
G1 X125.306 Y101.908 E0.00962
G1 X125.812 Y101.997 E0.01610
G1 X126.191 Y102.125 E0.01254
G1 X126.556 Y102.305 E0.01276
G1 X126.894 Y102.531 E0.01276
G1 X127.200 Y102.800 E0.01276
G1 X127.469 Y103.106 E0.01276
G1 X127.695 Y103.444 E0.01276
G1 X127.875 Y103.809 E0.01276
G1 X128.006 Y104.195 E0.01276
G1 X128.085 Y104.594 E0.01276
G1 X128.112 Y105.000 E0.01276
G1 X128.086 Y105.399 E0.01254
G1 X127.973 Y105.900 E0.01610
G1 X127.875 Y106.191 E0.00962
G1 X127.695 Y106.556 E0.01276
G1 X127.488 Y106.865 E0.01166
G1 X127.736 Y107.161 F10800.000
G1 F923
G1 X127.467 Y107.467 E0.01276
G1 X127.124 Y107.768 E0.01431
G1 X126.745 Y108.022 E0.01431
G1 X126.335 Y108.224 E0.01431
G1 X125.903 Y108.371 E0.01431
G1 X125.455 Y108.460 E0.01431
G1 X125.105 Y108.483 E0.01103
G1 X124.542 Y108.459 E0.01765
G1 X124.097 Y108.371 E0.01423
G1 X123.665 Y108.224 E0.01431
G1 X123.255 Y108.022 E0.01431
G1 X122.876 Y107.768 E0.01431
G1 X122.533 Y107.467 E0.01431
G1 X122.232 Y107.124 E0.01431
G1 X121.978 Y106.745 E0.01431
G1 X121.776 Y106.335 E0.01431
G1 X121.629 Y105.903 E0.01431
G1 X121.540 Y105.455 E0.01431
G1 X121.510 Y105.000 E0.01431
G1 X121.540 Y104.545 E0.01431
G1 X121.629 Y104.097 E0.01431
G1 X121.776 Y103.665 E0.01431
G1 X121.977 Y103.257 E0.01423
G1 X122.301 Y102.797 E0.01765
G1 X122.533 Y102.533 E0.01103
G1 X122.876 Y102.232 E0.01431
G1 X123.255 Y101.978 E0.01431
G1 X123.665 Y101.776 E0.01431
G1 X124.097 Y101.629 E0.01431
G1 X124.545 Y101.540 E0.01431
G1 X125.000 Y101.510 E0.01431
G1 X125.351 Y101.533 E0.01103
G1 X125.906 Y101.630 E0.01765
G1 X126.335 Y101.776 E0.01423
G1 X126.745 Y101.978 E0.01431
G1 X127.124 Y102.232 E0.01431
G1 X127.467 Y102.533 E0.01431
G1 X127.768 Y102.876 E0.01431
G1 X128.022 Y103.255 E0.01431
G1 X128.224 Y103.665 E0.01431
G1 X128.371 Y104.097 E0.01431
G1 X128.460 Y104.545 E0.01431
G1 X128.490 Y105.000 E0.01431
G1 X128.460 Y105.453 E0.01423
G1 X128.337 Y106.002 E0.01765
G1 X128.224 Y106.335 E0.01103
G1 X128.022 Y106.745 E0.01431
G1 X127.774 Y107.116 E0.01398
G1 X127.339 Y107.108 F10800.000
G1 F8640
G1 X127.467 Y107.467 E-0.10782
G1 X127.124 Y107.768 E-0.10540
G1 X126.745 Y108.022 E-0.10540
G1 X126.335 Y108.224 E-0.10540
G1 X125.903 Y108.371 E-0.10540
G1 X125.455 Y108.460 E-0.10540
G1 X125.105 Y108.483 E-0.08121
G1 X124.914 Y108.475 E-0.04399
G1 E-0.04000 F2100.00000
G1 Z0.800 F10800.000
G1 X127.603 Y104.732
G1 Z0.200
G1 E0.80000 F2100.00000
G1 F923
G1 X125.480 Y102.608 E0.10138
G1 X125.228 Y102.565 E0.00864
G1 X124.856 Y102.559 E0.01255
G1 X127.441 Y105.144 E0.12343
G1 X127.430 Y105.305 E0.00545
G1 X127.357 Y105.634 E0.01139
G1 X124.358 Y102.636 E0.14317
G1 X123.943 Y102.795 E0.01501
G1 X127.205 Y106.057 E0.15575
G1 X127.122 Y106.225 E0.00634
G1 X126.993 Y106.419 E0.00786
G1 X123.581 Y103.007 E0.16289
G1 X123.267 Y103.267 E0.01377
G1 X126.733 Y106.733 E0.16546
G1 X126.419 Y106.993 E0.01377
G1 X123.013 Y103.587 E0.16262
G1 X122.871 Y103.788 E0.00830
G1 X122.795 Y103.943 E0.00584
G1 X126.057 Y107.205 E0.15575
G1 X125.642 Y107.364 E0.01501
G1 X122.636 Y104.358 E0.14353
G1 X122.571 Y104.680 E0.01108
G1 X122.559 Y104.856 E0.00595
G1 X125.144 Y107.441 E0.12342
G1 X124.666 Y107.427 E0.01616
G1 X124.528 Y107.399 E0.00474
G1 X122.397 Y105.268 E0.10174
G1 X122.600 Y106.046 F10800.000
G1 F923
G1 X123.954 Y107.400 E0.06466
G1 F8640
G1 X122.600 Y106.046 E-0.44217
G1 E-0.35783 F2100.00000
G1 Z0.800 F10800.000
G1 X127.400 Y103.955
G1 Z0.200
G1 E0.80000 F2100.00000
G1 F923
G1 X126.045 Y102.600 E0.06467
;BEFORE_LAYER_CHANGE
G92 E0.0
;0.4


G1 F8640
G1 X127.400 Y103.955 E-0.44230
G1 E-0.35770 F2100.00000
G1 Z0.800 F10800.000
;AFTER_LAYER_CHANGE
;0.4
M104 S250 ; set temperature
M140 S90 ; set bed temperature
G1 X131.855 Y102.159
G1 Z0.400
G1 E0.80000 F2100.00000
G1 F900
G1 X132.216 Y103.291 E0.03725
G1 X132.361 Y104.071 E0.02485
G1 X132.420 Y104.999 E0.02916
G1 X132.321 Y106.183 E0.03725
G1 X132.157 Y106.958 E0.02485
G1 X131.855 Y107.838 E0.02916
G1 X131.312 Y108.892 E0.03718
G1 X130.862 Y109.548 E0.02493
G1 X130.247 Y110.246 E0.02916
G1 X129.342 Y111.012 E0.03718
G1 X128.676 Y111.445 E0.02493
G1 X127.841 Y111.855 E0.02916
G1 X126.709 Y112.216 E0.03725
G1 X125.929 Y112.361 E0.02485
G1 X125.001 Y112.420 E0.02916
G1 X123.817 Y112.321 E0.03725
G1 X123.042 Y112.157 E0.02485
G1 X122.162 Y111.855 E0.02916
G1 X121.108 Y111.312 E0.03718
G1 X120.452 Y110.862 E0.02493
G1 X119.754 Y110.247 E0.02916
G1 X118.987 Y109.340 E0.03725
G1 X118.555 Y108.676 E0.02485
G1 X118.145 Y107.841 E0.02916
G1 X117.784 Y106.709 E0.03725
G1 X117.639 Y105.929 E0.02485
G1 X117.580 Y105.001 E0.02916
G1 X117.679 Y103.817 E0.03725
G1 X117.843 Y103.042 E0.02485
G1 X118.145 Y102.162 E0.02916
G1 X118.689 Y101.106 E0.03725
G1 X119.138 Y100.452 E0.02485
G1 X119.753 Y99.754 E0.02916
G1 X120.660 Y98.987 E0.03725
G1 X121.324 Y98.555 E0.02485
G1 X122.159 Y98.145 E0.02916
G1 X123.039 Y97.844 E0.02916
G1 X123.817 Y97.679 E0.02493
G1 X125.003 Y97.580 E0.03732
G1 X125.927 Y97.639 E0.02902
G1 X126.709 Y97.784 E0.02493
G1 X127.838 Y98.145 E0.03718
G1 X128.894 Y98.689 E0.03725
G1 X129.548 Y99.138 E0.02485
G1 X130.246 Y99.753 E0.02916
G1 X131.012 Y100.658 E0.03718
G1 X131.445 Y101.324 E0.02493
G1 X131.828 Y102.106 E0.02728
G1 F8640
G1 X132.216 Y103.291 E-0.28806
G1 X132.361 Y104.071 E-0.18303
G1 X132.420 Y104.999 E-0.21476
G1 X132.393 Y105.319 E-0.07414
G1 E-0.04000 F2100.00000
G1 Z1.000 F10800.000
G1 X127.268 Y106.740
G1 Z0.400
G1 E0.80000 F2100.00000
M204 S800
G1 F900
G1 X127.021 Y107.021 E0.01266
G1 X126.740 Y107.268 E0.01266
G1 X126.429 Y107.476 E0.01266
G1 X126.094 Y107.641 E0.01266
G1 X125.740 Y107.761 E0.01266
G1 X125.373 Y107.834 E0.01266
G1 X125.000 Y107.859 E0.01266
G1 X124.627 Y107.834 E0.01266
G1 X124.260 Y107.761 E0.01266
G1 X123.906 Y107.641 E0.01266
G1 X123.571 Y107.476 E0.01266
G1 X123.260 Y107.268 E0.01266
G1 X122.979 Y107.021 E0.01266
G1 X122.732 Y106.740 E0.01266
G1 X122.524 Y106.429 E0.01266
G1 X122.359 Y106.094 E0.01266
G1 X122.239 Y105.740 E0.01266
G1 X122.166 Y105.373 E0.01266
G1 X122.141 Y105.000 E0.01266
G1 X122.166 Y104.627 E0.01266
G1 X122.239 Y104.260 E0.01266
G1 X122.359 Y103.906 E0.01266
G1 X122.524 Y103.571 E0.01266
G1 X122.732 Y103.260 E0.01266
G1 X122.979 Y102.979 E0.01266
G1 X123.260 Y102.732 E0.01266
G1 X123.571 Y102.524 E0.01266
G1 X123.906 Y102.359 E0.01266
G1 X124.260 Y102.239 E0.01266
G1 X124.627 Y102.166 E0.01266
G1 X125.120 Y102.149 E0.01670
G1 X125.373 Y102.166 E0.00859
G1 X125.740 Y102.239 E0.01266
G1 X126.094 Y102.359 E0.01266
G1 X126.429 Y102.524 E0.01266
G1 X126.740 Y102.732 E0.01266
G1 X127.021 Y102.979 E0.01266
G1 X127.268 Y103.260 E0.01266
G1 X127.476 Y103.571 E0.01266
G1 X127.641 Y103.906 E0.01266
G1 X127.761 Y104.260 E0.01266
G1 X127.834 Y104.627 E0.01266
G1 X127.859 Y105.000 E0.01266
G1 X127.834 Y105.373 E0.01266
G1 X127.761 Y105.740 E0.01266
G1 X127.641 Y106.094 E0.01266
G1 X127.476 Y106.429 E0.01266
G1 X127.301 Y106.690 E0.01063
M204 S1000
G1 X127.574 Y107.009 F10800.000
M204 S800
G1 F900
G1 X127.310 Y107.310 E0.01356
G1 X126.989 Y107.592 E0.01446
G1 X126.633 Y107.829 E0.01446
G1 X126.250 Y108.018 E0.01446
G1 X125.845 Y108.155 E0.01446
G1 X125.426 Y108.239 E0.01446
G1 X125.000 Y108.267 E0.01446
G1 X124.574 Y108.239 E0.01446
G1 X124.155 Y108.155 E0.01446
