; generated by PrusaSlicer 2.0.0+win64 on 2019-06-17 at 14:18:45

; 

; external perimeters extrusion width = 0.45mm
; perimeters extrusion width = 0.45mm
; infill extrusion width = 0.45mm
; solid infill extrusion width = 0.45mm
; top infill extrusion width = 0.40mm
; first layer extrusion width = 0.42mm

M73 P0 R45
M73 Q0 S45
M201 X1000 Y1000 Z1000 E5000 ; sets maximum accelerations, mm/sec^2
M203 X200 Y200 Z12 E120 ; sets maximum feedrates, mm/sec
M204 P1250 R1250 T1250 ; sets acceleration (P, T) and retract acceleration (R), mm/sec^2
M205 X8.00 Y8.00 Z0.40 E1.50 ; sets the jerk limits, mm/sec
M205 S0 T0 ; sets the minimum extruding and travel feed rate, mm/sec
M107
M115 U3.7.1 ; tell printer latest fw version
G90 ; use absolute coordinates
M83 ; extruder relative mode
M104 S240 ; set extruder temp
M140 S85 ; set bed temp
Tx
M190 S85 ; wait for bed temp
M109 S240 ; wait for extruder temp
G28 W ; home all without mesh bed level
G80 ; mesh bed leveling

G21 ; set units to millimeters

;go outside print area
G1 Y-3.0 F1000.0
G1 Z0.4 F1000.0
; select extruder
Tc
; purge line
G1 X55.0 F2000.0
G1 Z0.3 F1000.0
G92 E0.0
G1 X240.0 E25.0 F2200.0
M73 Q0 S45
M73 P0 R45
G1 Y-2.0 F1000.0
G1 X55.0 E25 F1400.0
G1 Z0.20 F1000.0
G1 X5.0 E4.0 F1000.0

M221 S95
G92 E0.0
M900 K45 ; Filament gcode
G21 ; set units to millimeters
G90 ; use absolute coordinates
M83 ; use relative distances for extrusion
;BEFORE_LAYER_CHANGE
G92 E0.0
;0.2


G1 E-0.80000 F2100.00000
G1 Z0.600 F10800.000
;AFTER_LAYER_CHANGE
;0.2
G1 X111.839 Y84.845
G1 Z0.200
G1 E0.80000 F2100.00000
M204 S1000
G1 F1200
G1 X112.118 Y84.268 E0.02010
G1 X112.455 Y83.880 E0.01612
G1 X112.870 Y83.583 E0.01601
G1 X113.347 Y83.390 E0.01612
G1 X113.855 Y83.313 E0.01612
G1 X141.930 Y83.311 E0.88028
G1 X142.824 Y83.364 E0.02807
G1 X143.700 Y83.515 E0.02787
G1 X145.348 Y84.077 E0.05458
G1 X145.778 Y84.384 E0.01658
G1 X146.125 Y84.788 E0.01669
G1 X146.364 Y85.264 E0.01669
G1 X146.480 Y85.783 E0.01669
G1 X146.491 Y124.022 E1.19896
G1 X146.391 Y124.655 E0.02010
G1 X146.112 Y125.232 E0.02010
G1 X145.512 Y125.824 E0.02642
G1 X144.612 Y126.225 E0.03090
G1 X143.455 Y126.533 E0.03754
G1 X141.998 Y126.687 E0.04592
G1 X113.898 Y126.688 E0.88108
G1 X113.268 Y126.587 E0.01998
G1 X112.695 Y126.309 E0.01998
G1 X112.300 Y125.963 E0.01646
G1 X112.000 Y125.537 E0.01635
G1 X111.808 Y125.048 E0.01646
G1 X111.738 Y124.531 E0.01635
G1 X111.738 Y85.478 E1.22449
G1 X111.829 Y84.904 E0.01821
G1 F8640
G1 X112.118 Y84.268 E-0.16130
G1 X112.455 Y83.880 E-0.11872
G1 X112.870 Y83.583 E-0.11788
G1 X113.347 Y83.390 E-0.11872
G1 X113.855 Y83.313 E-0.11872
G1 X114.395 Y83.313 E-0.12467
G1 E-0.04000 F2100.00000
G1 Z0.800 F10800.000
G1 X142.001 Y123.130
G1 Z0.200
G1 E0.80000 F2100.00000
G1 F1200
G1 X115.291 Y123.136 E0.83747
G1 X115.291 Y86.864 E1.13727
G1 X142.001 Y86.870 E0.83747
G1 X142.001 Y87.130 E0.00816
G1 X141.927 Y87.134 E0.00233
G1 X141.366 Y87.103 E0.01761
G1 X140.969 Y87.036 E0.01262
G1 X115.563 Y87.036 E0.79660
G1 X115.563 Y122.964 E1.12651
G1 X140.969 Y122.964 E0.79660
G1 X141.366 Y122.897 E0.01262
G1 X141.927 Y122.866 E0.01761
G1 X142.001 Y122.870 E0.00233
G1 X142.001 Y123.070 E0.00628
G1 F8640
G1 X138.709 Y123.078 E-0.76000
G1 E-0.04000 F2100.00000
G1 Z0.800 F10800.000
G1 X115.940 Y87.413
G1 Z0.200
G1 E0.80000 F2100.00000
G1 F1200
G1 X115.940 Y122.587 E1.10286
G1 X140.938 Y122.587 E0.78379
G1 X141.324 Y122.522 E0.01229
G1 X141.927 Y122.488 E0.01893
G1 X142.378 Y122.514 E0.01417
G1 X142.378 Y123.486 E0.03051
G1 X141.910 Y123.513 E0.01469
G1 X114.914 Y123.513 E0.84645
G1 X114.914 Y86.487 E1.16092
G1 X141.910 Y86.487 E0.84645
G1 X142.378 Y86.513 E0.01469
G1 X142.378 Y87.486 E0.03051
G1 X141.927 Y87.512 E0.01417
G1 X141.324 Y87.478 E0.01893
G1 X140.938 Y87.413 E0.01229
G1 X116.000 Y87.413 E0.78191
G1 X116.317 Y87.790 F10800.000
G1 F1200
G1 X116.317 Y122.210 E1.07921
G1 X140.906 Y122.210 E0.77098
G1 X141.282 Y122.147 E0.01195
G1 X141.927 Y122.110 E0.02025
G1 X142.572 Y122.147 E0.02025
G1 X142.755 Y122.178 E0.00583
G1 X142.755 Y123.822 E0.05157
G1 X142.572 Y123.853 E0.00583
G1 X141.921 Y123.890 E0.02044
G1 X114.537 Y123.890 E0.85861
G1 X114.537 Y86.110 E1.18457
G1 X141.921 Y86.110 E0.85861
G1 X142.547 Y86.145 E0.01967
G1 X142.755 Y86.179 E0.00660
G1 X142.755 Y87.822 E0.05153
G1 X142.572 Y87.853 E0.00583
G1 X141.927 Y87.890 E0.02025
G1 X141.282 Y87.853 E0.02025
G1 X140.906 Y87.790 E0.01195
G1 X116.377 Y87.790 E0.76910
G1 X115.917 Y87.790 F10800.000
;BEFORE_LAYER_CHANGE
G92 E0.0
;0.4


G1 F8640
G1 X116.371 Y91.081 E-0.76000
G1 E-0.04000 F2100.00000
G1 Z0.800 F10800.000
;AFTER_LAYER_CHANGE
;0.4
M104 S250 ; set temperature
M140 S90 ; set bed temperature
G1 X111.839 Y84.845
G1 Z0.400
G1 E0.80000 F2100.00000
G1 F3000
G1 X112.118 Y84.268 E0.02010
G1 X112.455 Y83.880 E0.01612
G1 X112.870 Y83.583 E0.01601
G1 X113.347 Y83.390 E0.01612
G1 X113.855 Y83.313 E0.01612
G1 X141.930 Y83.311 E0.88028
G1 X142.824 Y83.364 E0.02807
G1 X143.700 Y83.515 E0.02787
G1 X145.348 Y84.077 E0.05458
G1 X145.778 Y84.384 E0.01658
G1 X146.125 Y84.788 E0.01669
G1 X146.364 Y85.264 E0.01669
G1 X146.480 Y85.783 E0.01669
G1 X146.491 Y124.022 E1.19896
G1 X146.391 Y124.655 E0.02010
G1 X146.112 Y125.232 E0.02010
G1 X145.512 Y125.824 E0.02642
G1 X144.612 Y126.225 E0.03090
G1 X143.455 Y126.533 E0.03754
G1 X141.998 Y126.687 E0.04592
G1 X113.898 Y126.688 E0.88108
G1 X113.268 Y126.587 E0.01998
G1 X112.695 Y126.309 E0.01998
G1 X112.300 Y125.963 E0.01646
G1 X112.000 Y125.537 E0.01635
G1 X111.808 Y125.048 E0.01646
G1 X111.738 Y124.531 E0.01635
G1 X111.738 Y85.478 E1.22449
G1 X111.829 Y84.904 E0.01821
G1 F8640
G1 X112.118 Y84.268 E-0.16130
G1 X112.455 Y83.880 E-0.11872
G1 X112.870 Y83.583 E-0.11788
G1 X113.347 Y83.390 E-0.11872
G1 X113.855 Y83.313 E-0.11872
G1 X114.395 Y83.313 E-0.12467
G1 E-0.04000 F2100.00000
G1 Z1.000 F10800.000
G1 X142.742 Y123.181
G1 Z0.400
G1 E0.80000 F2100.00000
M204 S800
G1 F2700
G1 X142.466 Y123.228 E0.00947
G1 X141.897 Y123.261 E0.01930
G1 X115.166 Y123.261 E0.90481
G1 X115.166 Y86.739 E1.23622
G1 X141.898 Y86.739 E0.90484
G1 X142.369 Y86.766 E0.01596
G1 X142.742 Y86.824 E0.01279
G1 X142.742 Y87.181 E0.01209
G1 X142.466 Y87.228 E0.00947
G1 X141.927 Y87.259 E0.01829
G1 X141.387 Y87.228 E0.01829
G1 X140.836 Y87.134 E0.01893
G1 X140.214 Y86.961 E0.02184
G1 X115.688 Y86.961 E0.83020
G1 X115.688 Y123.039 E1.22121
G1 X140.214 Y123.039 E0.83020
G1 X140.836 Y122.866 E0.02184
G1 X141.387 Y122.772 E0.01893
G1 X141.927 Y122.741 E0.01829
G1 X142.466 Y122.772 E0.01829
G1 X142.742 Y122.819 E0.00947
G1 X142.742 Y123.121 E0.01022
M204 S1000
G1 F8640
G1 X142.466 Y123.228 E-0.06831
G1 X141.897 Y123.261 E-0.13166
G1 X139.471 Y123.261 E-0.56003
G1 E-0.04000 F2100.00000
G1 Z1.000 F10800.000
G1 X116.095 Y87.368
G1 Z0.400
G1 E0.80000 F2100.00000
M204 S800
G1 F2700
G1 X116.095 Y122.632 E1.19365
G1 X140.159 Y122.632 E0.81454
M73 Q2 S44
G1 X140.747 Y122.468 E0.02066
G1 X141.341 Y122.367 E0.02041
G1 X141.927 Y122.333 E0.01985
G1 X142.512 Y122.367 E0.01985
G1 X143.149 Y122.480 E0.02189
G1 X143.149 Y123.520 E0.03519
G1 X142.512 Y123.633 E0.02189
G1 X141.909 Y123.668 E0.02047
G1 X114.759 Y123.668 E0.91899
M73 P2 R44
G1 X114.759 Y86.332 E1.26377
G1 X141.909 Y86.332 E0.91900
G1 X142.411 Y86.360 E0.01703
G1 X143.149 Y86.480 E0.02529
G1 X143.149 Y87.520 E0.03519
G1 X142.512 Y87.633 E0.02189
G1 X141.927 Y87.667 E0.01985
G1 X141.341 Y87.633 E0.01985
G1 X140.747 Y87.532 E0.02041
G1 X140.159 Y87.368 E0.02066
G1 X116.155 Y87.368 E0.81251
M204 S1000
G1 X116.502 Y87.775 F10800.000
M204 S800
G1 F1500
G1 X116.502 Y122.225 E1.16609
G1 X140.103 Y122.225 E0.79888
G1 X140.658 Y122.071 E0.01949
G1 X141.295 Y121.962 E0.02189
G1 X141.927 Y121.925 E0.02141
G1 X142.558 Y121.962 E0.02141
G1 X143.196 Y122.071 E0.02189
G1 X143.556 Y122.171 E0.01266
G1 X143.556 Y123.829 E0.05613
G1 X143.196 Y123.929 E0.01266
G1 X142.558 Y124.038 E0.02189
G1 X141.920 Y124.075 E0.02163
G1 X114.352 Y124.075 E0.93316
G1 X114.352 Y85.925 E1.29133
G1 X141.920 Y85.925 E0.93317
G1 X142.454 Y85.955 E0.01810
G1 X143.197 Y86.071 E0.02545
G1 X143.556 Y86.171 E0.01261
G1 X143.556 Y87.829 E0.05613
G1 X143.196 Y87.929 E0.01266
G1 X142.558 Y88.038 E0.02189
G1 X141.927 Y88.075 E0.02141
G1 X141.295 Y88.038 E0.02141
G1 X140.658 Y87.929 E0.02189
G1 X140.103 Y87.775 E0.01949
G1 X116.562 Y87.775 E0.79685
M204 S1000
G1 X116.102 Y87.774 F10800.000
G1 F8640
G1 X116.556 Y91.066 E-0.76000
G1 E-0.04000 F2100.00000
G1 Z1.000 F10800.000
G1 X115.427 Y86.943
G1 Z0.400
G1 E0.80000 F2100.00000
G1 F2400
G1 X115.427 Y123.057 E0.34416
G1 F8640
G1 X115.427 Y119.766 E-0.76000
G1 E-0.04000 F2100.00000
G1 Z1.000 F10800.000
G1 X141.217 Y123.033
G1 Z0.400
G1 E0.80000 F2100.00000
G1 F2400
G1 X141.927 Y123.000 E0.00485
G1 X142.443 Y123.000 E0.00353
G1 F8640
G1 X141.927 Y123.000 E-0.11922
G1 X141.217 Y123.033 E-0.16402
G1 E-0.51677 F2100.00000
G1 Z1.000 F10800.000
G1 X142.413 Y87.003
G1 Z0.400
G1 E0.80000 F2100.00000
G1 F2400
G1 X141.217 Y86.967 E0.00627
;BEFORE_LAYER_CHANGE
G92 E0.0
;0.6


G1 F8640
G1 X142.413 Y87.003 E-0.27630
G1 E-0.52370 F2100.00000
G1 Z1.000 F10800.000
;AFTER_LAYER_CHANGE
;0.6
G1 X145.348 Y84.077
G1 Z0.600
G1 E0.80000 F2100.00000
G1 F3000
G1 X145.778 Y84.384 E0.01658
G1 X146.125 Y84.788 E0.01669
G1 X146.364 Y85.264 E0.01669
G1 X146.480 Y85.783 E0.01669
G1 X146.491 Y124.022 E1.19896
G1 X146.391 Y124.655 E0.02010
G1 X146.112 Y125.232 E0.02010
G1 X145.512 Y125.824 E0.02642
G1 X144.612 Y126.225 E0.03090
G1 X143.455 Y126.533 E0.03754
G1 X141.998 Y126.687 E0.04592
G1 X113.898 Y126.688 E0.88108
G1 X113.268 Y126.587 E0.01998
G1 X112.695 Y126.309 E0.01998
G1 X112.300 Y125.963 E0.01646
G1 X112.000 Y125.537 E0.01635
G1 X111.808 Y125.048 E0.01646
G1 X111.738 Y124.531 E0.01635
G1 X111.738 Y85.478 E1.22449
G1 X111.839 Y84.845 E0.02010
G1 X112.118 Y84.268 E0.02010
G1 X112.455 Y83.880 E0.01612
G1 X112.870 Y83.583 E0.01601
G1 X113.347 Y83.390 E0.01612
G1 X113.855 Y83.313 E0.01612
G1 X141.930 Y83.311 E0.88028
G1 X142.824 Y83.364 E0.02807
G1 X143.700 Y83.515 E0.02787
G1 X145.291 Y84.058 E0.05270
G1 F8640
G1 X145.778 Y84.384 E-0.13540
G1 X146.125 Y84.788 E-0.12291
G1 X146.364 Y85.264 E-0.12291
G1 X146.480 Y85.783 E-0.12291
G1 X146.481 Y86.891 E-0.25588
G1 E-0.04000 F2100.00000
G1 Z1.200 F10800.000
G1 X143.264 Y123.257
G1 Z0.600
G1 E0.80000 F2100.00000
M204 S800
G1 F2700
G1 X142.991 Y123.334 E0.00959
G1 X142.453 Y123.428 E0.01850
G1 X141.896 Y123.461 E0.01886
G1 X114.966 Y123.461 E0.91156
G1 X114.966 Y86.539 E1.24976
G1 X141.898 Y86.539 E0.91161
G1 X142.449 Y86.571 E0.01870
G1 X142.991 Y86.666 E0.01861
G1 X143.264 Y86.743 E0.00959
G1 X143.264 Y87.257 E0.01741
G1 X142.991 Y87.334 E0.00959
G1 X142.453 Y87.428 E0.01850
G1 X141.927 Y87.459 E0.01783
G1 X141.401 Y87.428 E0.01783
G1 X140.863 Y87.334 E0.01850
G1 X140.302 Y87.176 E0.01971
G1 X139.744 Y86.961 E0.02024
G1 X115.888 Y86.961 E0.80751
G1 X115.888 Y123.039 E1.22121
G1 X139.744 Y123.039 E0.80751
G1 X140.302 Y122.824 E0.02024
G1 X140.863 Y122.666 E0.01971
G1 X141.401 Y122.572 E0.01850
G1 X141.927 Y122.541 E0.01783
G1 X142.453 Y122.572 E0.01783
G1 X142.991 Y122.666 E0.01850
G1 X143.264 Y122.743 E0.00959
G1 X143.264 Y123.197 E0.01538
M204 S1000
G1 F8640
G1 X142.991 Y123.334 E-0.07044
G1 X142.453 Y123.428 E-0.12621
G1 X141.896 Y123.461 E-0.12867
G1 X140.014 Y123.461 E-0.43468
G1 E-0.04000 F2100.00000
G1 Z1.200 F10800.000
G1 X116.295 Y87.368
G1 Z0.600
G1 E0.80000 F2100.00000
M204 S800
G1 F2700
G1 X116.295 Y122.632 E1.19365
G1 X139.668 Y122.632 E0.79117
G1 X140.173 Y122.438 E0.01832
G1 X140.772 Y122.268 E0.02106
G1 X141.354 Y122.167 E0.02000
G1 X141.927 Y122.133 E0.01942
G1 X142.500 Y122.167 E0.01942
G1 X143.082 Y122.268 E0.02000
G1 X143.671 Y122.435 E0.02072
G1 X143.671 Y123.565 E0.03826
G1 X143.082 Y123.732 E0.02072
G1 X142.500 Y123.833 E0.02000
G1 X141.908 Y123.868 E0.02005
G1 X114.559 Y123.868 E0.92574
G1 X114.559 Y86.132 E1.27731
G1 X141.909 Y86.132 E0.92577
G1 X142.498 Y86.166 E0.01995
G1 X143.082 Y86.268 E0.02007
G1 X143.671 Y86.435 E0.02072
G1 X143.671 Y87.565 E0.03826
G1 X143.082 Y87.732 E0.02072
G1 X142.500 Y87.833 E0.02000
G1 X141.927 Y87.867 E0.01942
G1 X141.354 Y87.833 E0.01942
G1 X140.772 Y87.732 E0.02000
G1 X140.173 Y87.562 E0.02106
G1 X139.668 Y87.368 E0.01832
G1 X116.355 Y87.368 E0.78914
M204 S1000
G1 X116.702 Y87.775 F10800.000
M204 S800
G1 F1500
G1 X116.702 Y122.225 E1.16609
G1 X139.593 Y122.225 E0.77483
G1 X140.044 Y122.051 E0.01639
G1 X140.681 Y121.871 E0.02240
G1 X141.307 Y121.762 E0.02149
G1 X141.927 Y121.725 E0.02102
G1 X142.547 Y121.762 E0.02102
G1 X143.172 Y121.871 E0.02149
G1 X143.809 Y122.051 E0.02240
G1 X144.078 Y122.154 E0.00974
G1 X144.078 Y123.846 E0.05724
G1 X143.809 Y123.949 E0.00974
G1 X143.172 Y124.129 E0.02240
G1 X142.547 Y124.238 E0.02149
G1 X141.920 Y124.275 E0.02124
G1 X114.152 Y124.275 E0.93993
G1 X114.152 Y85.725 E1.30487
G1 X141.920 Y85.725 E0.93994
G1 X142.546 Y85.762 E0.02121
G1 X143.172 Y85.871 E0.02152
G1 X143.809 Y86.051 E0.02240
G1 X144.078 Y86.154 E0.00974
G1 X144.078 Y87.846 E0.05724
G1 X143.809 Y87.949 E0.00974
G1 X143.172 Y88.129 E0.02240
G1 X142.547 Y88.238 E0.02149
G1 X141.927 Y88.275 E0.02102
G1 X141.307 Y88.238 E0.02102
G1 X140.681 Y88.129 E0.02149
G1 X140.044 Y87.949 E0.02240
G1 X139.593 Y87.775 E0.01639
G1 X116.762 Y87.775 E0.77280
M204 S1000
G1 X116.302 Y87.774 F10800.000
G1 F8640
G1 X116.756 Y91.066 E-0.76000
G1 E-0.04000 F2100.00000
G1 Z1.200 F10800.000
G1 X115.766 Y87.485
G1 Z0.600
G1 E0.80000 F2100.00000
M204 S1250
G1 F4800
G1 X115.271 Y86.990 E0.02367
G1 X115.271 Y87.566 E0.01950
G1 X115.582 Y87.877 E0.01490
G1 X115.582 Y88.453 E0.01950
G1 X115.271 Y88.142 E0.01490
G1 X115.271 Y88.718 E0.01950
G1 X115.582 Y89.029 E0.01490
G1 X115.582 Y89.605 E0.01950
G1 X115.271 Y89.294 E0.01490
G1 X115.271 Y89.870 E0.01950
G1 X115.582 Y90.181 E0.01490
G1 X115.582 Y90.757 E0.01950
G1 X115.271 Y90.446 E0.01490
G1 X115.271 Y91.022 E0.01950
G1 X115.582 Y91.333 E0.01490
G1 X115.582 Y91.909 E0.01950
G1 X115.271 Y91.598 E0.01490
G1 X115.271 Y92.174 E0.01950
G1 X115.582 Y92.485 E0.01490
G1 X115.582 Y93.061 E0.01950
G1 X115.271 Y92.750 E0.01490
G1 X115.271 Y93.326 E0.01950
G1 X115.582 Y93.637 E0.01490
G1 X115.582 Y94.213 E0.01950
G1 X115.271 Y93.902 E0.01490
G1 X115.271 Y94.478 E0.01950
G1 X115.582 Y94.789 E0.01490
G1 X115.582 Y95.365 E0.01950
G1 X115.271 Y95.053 E0.01490
G1 X115.271 Y95.629 E0.01950
G1 X115.582 Y95.941 E0.01490
G1 X115.582 Y96.516 E0.01950
G1 X115.271 Y96.205 E0.01490
G1 X115.271 Y96.781 E0.01950
G1 X115.582 Y97.092 E0.01490
G1 X115.582 Y97.668 E0.01950
G1 X115.271 Y97.357 E0.01490
G1 X115.271 Y97.933 E0.01950
G1 X115.582 Y98.244 E0.01490
G1 X115.582 Y98.820 E0.01950
G1 X115.271 Y98.509 E0.01490
G1 X115.271 Y99.085 E0.01950
G1 X115.582 Y99.396 E0.01490
G1 X115.582 Y99.972 E0.01950
G1 X115.271 Y99.661 E0.01490
G1 X115.271 Y100.237 E0.01950
G1 X115.582 Y100.548 E0.01490
G1 X115.582 Y101.124 E0.01950
G1 X115.271 Y100.813 E0.01490
G1 X115.271 Y101.389 E0.01950
G1 X115.582 Y101.700 E0.01490
G1 X115.582 Y102.276 E0.01950
G1 X115.271 Y101.965 E0.01490
G1 X115.271 Y102.541 E0.01950
G1 X115.582 Y102.852 E0.01490
G1 X115.582 Y103.428 E0.01950
G1 X115.271 Y103.117 E0.01490
G1 X115.271 Y103.693 E0.01950
G1 X115.582 Y104.004 E0.01490
G1 X115.582 Y104.580 E0.01950
G1 X115.271 Y104.269 E0.01490
G1 X115.271 Y104.844 E0.01950
G1 X115.582 Y105.156 E0.01490
G1 X115.582 Y105.732 E0.01950
G1 X115.271 Y105.420 E0.01490
G1 X115.271 Y105.996 E0.01950
G1 X115.582 Y106.307 E0.01490
G1 X115.582 Y106.883 E0.01950
G1 X115.271 Y106.572 E0.01490
G1 X115.271 Y107.148 E0.01950
G1 X115.582 Y107.459 E0.01490
G1 X115.582 Y108.035 E0.01950
G1 X115.271 Y107.724 E0.01490
G1 X115.271 Y108.300 E0.01950
G1 X115.582 Y108.611 E0.01490
G1 X115.582 Y109.187 E0.01950
G1 X115.271 Y108.876 E0.01490
G1 X115.271 Y109.452 E0.01950
G1 X115.582 Y109.763 E0.01490
G1 X115.582 Y110.339 E0.01950
G1 X115.271 Y110.028 E0.01490
G1 X115.271 Y110.604 E0.01950
G1 X115.582 Y110.915 E0.01490
G1 X115.582 Y111.491 E0.01950
G1 X115.271 Y111.180 E0.01490
G1 X115.271 Y111.756 E0.01950
G1 X115.582 Y112.067 E0.01490
G1 X115.582 Y112.643 E0.01950
G1 X115.271 Y112.332 E0.01490
