; generated by PrusaSlicer 2.0.0+win64 on 2019-06-26 at 07:11:01

; 

; external perimeters extrusion width = 0.45mm
; perimeters extrusion width = 0.45mm
; infill extrusion width = 0.45mm
; solid infill extrusion width = 0.45mm
; top infill extrusion width = 0.40mm
; first layer extrusion width = 0.42mm

M73 P0 R13
M73 Q0 S13
M201 X1000 Y1000 Z1000 E5000 ; sets maximum accelerations, mm/sec^2
M203 X200 Y200 Z12 E120 ; sets maximum feedrates, mm/sec
M204 P1250 R1250 T1250 ; sets acceleration (P, T) and retract acceleration (R), mm/sec^2
M205 X8.00 Y8.00 Z0.40 E1.50 ; sets the jerk limits, mm/sec
M205 S0 T0 ; sets the minimum extruding and travel feed rate, mm/sec
M107
M115 U3.7.1 ; tell printer latest fw version
G90 ; use absolute coordinates
M83 ; extruder relative mode
M104 S240 ; set extruder temp
M140 S85 ; set bed temp
Tx
M190 S85 ; wait for bed temp
M109 S240 ; wait for extruder temp
G28 W ; home all without mesh bed level
G80 ; mesh bed leveling

G21 ; set units to millimeters

;go outside print area
G1 Y-3.0 F1000.0
G1 Z0.4 F1000.0
; select extruder
Tc
; purge line
G1 X55.0 F2000.0
G1 Z0.3 F1000.0
G92 E0.0
G1 X240.0 E25.0 F2200.0
M73 Q0 S13
M73 P0 R13
G1 Y-2.0 F1000.0
G1 X55.0 E25 F1400.0
G1 Z0.20 F1000.0
G1 X5.0 E4.0 F1000.0

M221 S95
G92 E0.0
M900 K45 ; Filament gcode
G21 ; set units to millimeters
G90 ; use absolute coordinates
M83 ; use relative distances for extrusion
;BEFORE_LAYER_CHANGE
G92 E0.0
;0.2


G1 E-0.80000 F2100.00000
G1 Z0.600 F10800.000
;AFTER_LAYER_CHANGE
;0.2
G1 X125.057 Y79.059
G1 Z0.200
G1 E0.80000 F2100.00000
M204 S1000
G1 F1200
G1 X125.829 Y78.839 E0.02516
G1 X129.200 Y78.568 E0.10604
G1 X129.787 Y78.637 E0.01854
G1 X130.265 Y78.789 E0.01571
G1 X133.180 Y80.167 E0.10110
G1 X133.747 Y80.564 E0.02172
G1 X134.116 Y80.970 E0.01719
G1 X135.974 Y83.659 E0.10248
G1 X136.239 Y84.252 E0.02036
G1 X136.352 Y84.798 E0.01750
G1 X136.614 Y88.115 E0.10432
G1 X135.733 Y129.367 E1.29371
G1 X135.552 Y130.123 E0.02439
G1 X135.117 Y130.769 E0.02439
G1 X134.485 Y131.221 E0.02439
G1 X133.733 Y131.424 E0.02439
G1 X132.137 Y131.269 E0.05030
G1 X130.075 Y130.845 E0.06600
G1 X128.086 Y130.235 E0.06521
G1 X126.164 Y129.443 E0.06521
G1 X124.327 Y128.475 E0.06509
G1 X123.089 Y127.691 E0.04594
G1 X121.440 Y126.453 E0.06465
G1 X119.901 Y125.055 E0.06521
G1 X118.504 Y123.524 E0.06497
G1 X117.606 Y122.366 E0.04595
G1 X116.475 Y120.642 E0.06465
G1 X115.497 Y118.794 E0.06555
G1 X114.695 Y116.859 E0.06567
G1 X114.089 Y114.889 E0.06463
G1 X113.770 Y113.460 E0.04593
G1 X113.481 Y111.403 E0.06512
G1 X113.386 Y109.329 E0.06509
G1 X113.484 Y107.267 E0.06474
G1 X113.669 Y105.817 E0.04583
G1 X114.094 Y103.788 E0.06500
G1 X119.818 Y85.138 E0.61169
G1 X121.256 Y82.052 E0.10674
G1 X121.550 Y81.586 E0.01726
G1 X121.999 Y81.129 E0.02011
G1 X125.007 Y79.093 E0.11389
G1 F8640
G1 X125.829 Y78.839 E-0.19850
G1 X128.253 Y78.644 E-0.56149
G1 E-0.04000 F2100.00000
G1 Z0.800 F10800.000
G1 X129.723 Y88.039
G1 Z0.200
G1 E0.80000 F2100.00000
G1 F1200
G1 X129.503 Y88.322 E0.01126
G1 X129.202 Y88.578 E0.01238
G1 X128.887 Y88.751 E0.01126
G1 X128.552 Y88.859 E0.01103
G1 X128.203 Y88.902 E0.01103
G1 X127.852 Y88.879 E0.01103
G1 X127.512 Y88.791 E0.01103
G1 X127.187 Y88.638 E0.01127
G1 X126.871 Y88.400 E0.01239
G1 X126.634 Y88.130 E0.01127
G1 X126.452 Y87.820 E0.01127
G1 X126.325 Y87.446 E0.01239
G1 X126.280 Y87.090 E0.01127
G1 X126.303 Y86.739 E0.01103
G1 X126.391 Y86.398 E0.01103
G1 X126.545 Y86.073 E0.01127
G1 X126.787 Y85.752 E0.01263
G1 X127.094 Y85.491 E0.01262
G1 X127.409 Y85.318 E0.01127
G1 X127.743 Y85.210 E0.01103
G1 X128.100 Y85.166 E0.01127
G1 X128.494 Y85.198 E0.01239
G1 X128.839 Y85.298 E0.01127
G1 X129.152 Y85.459 E0.01103
G1 X129.429 Y85.675 E0.01103
G1 X129.662 Y85.939 E0.01103
G1 X129.844 Y86.249 E0.01127
G1 X129.971 Y86.623 E0.01239
G1 X130.015 Y86.979 E0.01127
G1 X129.992 Y87.338 E0.01126
G1 X129.887 Y87.719 E0.01239
G1 X129.751 Y87.985 E0.00939
G1 X129.404 Y87.835 F10800.000
G1 F1200
G1 X129.229 Y88.060 E0.00894
G1 X128.987 Y88.266 E0.00996
G1 X128.737 Y88.403 E0.00894
G1 X128.470 Y88.489 E0.00879
G1 X128.192 Y88.524 E0.00879
G1 X127.912 Y88.505 E0.00879
G1 X127.641 Y88.435 E0.00879
G1 X127.383 Y88.313 E0.00894
G1 X127.129 Y88.122 E0.00997
G1 X126.941 Y87.908 E0.00894
G1 X126.796 Y87.662 E0.00894
G1 X126.694 Y87.361 E0.00996
G1 X126.659 Y87.078 E0.00894
G1 X126.677 Y86.799 E0.00879
G1 X126.747 Y86.527 E0.00879
G1 X126.869 Y86.270 E0.00894
G1 X127.063 Y86.012 E0.01011
G1 X127.309 Y85.803 E0.01010
G1 X127.559 Y85.666 E0.00894
G1 X127.825 Y85.580 E0.00879
G1 X128.108 Y85.545 E0.00894
G1 X128.425 Y85.570 E0.00996
G1 X128.699 Y85.650 E0.00894
G1 X128.948 Y85.778 E0.00879
G1 X129.170 Y85.950 E0.00879
G1 X129.355 Y86.161 E0.00880
G1 X129.499 Y86.407 E0.00894
G1 X129.602 Y86.708 E0.00997
G1 X129.637 Y86.991 E0.00894
G1 X129.618 Y87.275 E0.00894
G1 X129.534 Y87.581 E0.00997
G1 X129.431 Y87.782 E0.00706
G1 X129.085 Y87.632 F10800.000
G1 F1200
G1 X128.955 Y87.798 E0.00661
G1 X128.772 Y87.954 E0.00754
G1 X128.587 Y88.055 E0.00661
G1 X128.388 Y88.119 E0.00656
G1 X128.181 Y88.145 E0.00656
G1 X127.972 Y88.131 E0.00656
G1 X127.770 Y88.079 E0.00656
G1 X127.579 Y87.989 E0.00661
G1 X127.387 Y87.844 E0.00754
G1 X127.248 Y87.686 E0.00661
G1 X127.141 Y87.504 E0.00661
G1 X127.063 Y87.276 E0.00754
G1 X127.037 Y87.067 E0.00661
G1 X127.051 Y86.859 E0.00656
G1 X127.103 Y86.656 E0.00656
G1 X127.193 Y86.466 E0.00661
G1 X127.339 Y86.272 E0.00759
G1 X127.524 Y86.115 E0.00759
G1 X127.708 Y86.014 E0.00661
G1 X127.907 Y85.950 E0.00656
G1 X128.117 Y85.924 E0.00661
G1 X128.356 Y85.943 E0.00754
G1 X128.559 Y86.002 E0.00661
G1 X128.745 Y86.098 E0.00656
G1 X128.910 Y86.226 E0.00656
G1 X129.048 Y86.383 E0.00656
G1 X129.155 Y86.565 E0.00661
G1 X129.232 Y86.793 E0.00754
G1 X129.258 Y87.002 E0.00661
G1 X129.245 Y87.212 E0.00661
G1 X129.181 Y87.444 E0.00754
G1 X129.112 Y87.578 E0.00473
G1 X129.183 Y87.818 F10800.000
G1 F8640
G1 X128.955 Y87.798 E-0.06233
G1 X128.772 Y87.954 E-0.05550
G1 X128.587 Y88.055 E-0.04866
G1 X128.388 Y88.119 E-0.04828
G1 X128.181 Y88.145 E-0.04829
G1 X127.972 Y88.131 E-0.04828
G1 X127.770 Y88.079 E-0.04828
G1 X127.579 Y87.989 E-0.04867
G1 X127.387 Y87.844 E-0.05554
G1 X127.248 Y87.686 E-0.04871
G1 X127.141 Y87.504 E-0.04867
G1 X127.063 Y87.276 E-0.05554
G1 X127.037 Y87.067 E-0.04867
G1 X127.051 Y86.859 E-0.04828
G1 X127.101 Y86.664 E-0.04631
G1 E-0.04000 F2100.00000
G1 Z0.800 F10800.000
G1 X131.540 Y87.677
G1 Z0.200
G1 E0.80000 F2100.00000
G1 F1200
G1 X131.227 Y87.942 E0.01287
G1 X130.837 Y88.760 E0.02842
G1 X130.776 Y89.146 E0.01226
G1 X130.845 Y89.453 E0.00984
G1 X123.464 Y102.526 E0.47073
G1 X122.858 Y103.823 E0.04488
G1 X122.537 Y104.631 E0.02729
G1 X122.266 Y105.461 E0.02736
G1 X122.047 Y106.306 E0.02736
G1 X121.883 Y107.163 E0.02736
G1 X121.773 Y108.021 E0.02712
G1 X121.738 Y108.463 E0.01392
G1 X121.717 Y108.907 E0.01392
G1 X121.716 Y109.772 E0.02712
G1 X121.770 Y110.645 E0.02742
G1 X121.894 Y111.597 E0.03010
G1 X122.142 Y112.784 E0.03802
G1 X122.386 Y113.628 E0.02757
G1 X122.679 Y114.442 E0.02712
G1 X122.853 Y114.861 E0.01422
G1 X123.262 Y115.721 E0.02986
G1 X123.865 Y116.773 E0.03803
G1 X124.356 Y117.496 E0.02740
G1 X124.677 Y117.919 E0.01665
G1 X125.178 Y118.522 E0.02458
G1 X125.770 Y119.151 E0.02710
G1 X126.094 Y119.466 E0.01416
G1 X126.743 Y120.037 E0.02712
G1 X127.429 Y120.568 E0.02720
G1 X127.865 Y120.871 E0.01665
G1 X128.528 Y121.289 E0.02458
G1 X129.288 Y121.706 E0.02717
G1 X129.767 Y121.937 E0.01665
G1 X130.482 Y122.244 E0.02441
G1 X130.979 Y122.428 E0.01662
G1 X131.732 Y122.670 E0.02481
G1 X132.184 Y122.778 E0.01455
G1 X132.184 Y127.671 E0.15339
G1 X130.973 Y127.407 E0.03884
G1 X129.832 Y127.077 E0.03725
G1 X129.291 Y126.893 E0.01791
G1 X128.193 Y126.460 E0.03701
G1 X127.133 Y125.963 E0.03671
G1 X125.998 Y125.334 E0.04069
G1 X125.107 Y124.767 E0.03313
G1 X124.638 Y124.438 E0.01794
G1 X123.699 Y123.710 E0.03725
G1 X123.266 Y123.341 E0.01785
G1 X122.318 Y122.444 E0.04093
G1 X121.595 Y121.673 E0.03313
G1 X120.857 Y120.780 E0.03633
G1 X120.163 Y119.825 E0.03701
G1 X119.530 Y118.829 E0.03701
G1 X119.247 Y118.332 E0.01791
G1 X118.709 Y117.276 E0.03717
G1 X118.426 Y116.640 E0.02183
G1 X118.036 Y115.649 E0.03338
G1 X117.851 Y115.108 E0.01794
G1 X117.521 Y113.969 E0.03717
G1 X117.362 Y113.291 E0.02183
G1 X117.166 Y112.252 E0.03314
G1 X117.020 Y111.088 E0.03680
G1 X116.947 Y109.910 E0.03701
G1 X116.939 Y109.339 E0.01791
G1 X116.977 Y108.151 E0.03725
G1 X117.087 Y106.999 E0.03630
G1 X117.275 Y105.825 E0.03725
G1 X117.391 Y105.266 E0.01791
G1 X117.688 Y104.118 E0.03717
G1 X117.897 Y103.454 E0.02183
G1 X118.261 Y102.454 E0.03338
G1 X118.482 Y101.923 E0.01803
G1 X119.152 Y100.482 E0.04982
G1 X124.563 Y86.497 E0.47018
G1 X124.715 Y86.466 E0.00486
G1 X125.108 Y86.052 E0.01791
G1 X125.492 Y85.236 E0.02826
G1 X125.492 Y84.778 E0.01437
G1 X125.642 Y84.787 E0.00472
G1 X126.020 Y84.655 E0.01256
G1 X126.795 Y84.108 E0.02975
G1 X126.970 Y83.754 E0.01237
G1 X127.398 Y83.916 E0.01435
G1 X128.297 Y83.844 E0.02827
G1 X128.758 Y83.649 E0.01569
G1 X129.138 Y83.998 E0.01618
G1 X129.947 Y84.379 E0.02804
G1 X130.405 Y84.378 E0.01438
G1 X130.437 Y84.756 E0.01189
G1 X130.971 Y85.548 E0.02996
G1 X131.260 Y85.797 E0.01195
G1 X131.429 Y85.855 E0.00562
G1 X131.266 Y86.284 E0.01438
G1 X131.338 Y87.175 E0.02803
G1 X131.518 Y87.621 E0.01508
G1 F8640
G1 X131.227 Y87.942 E-0.09995
G1 X130.837 Y88.760 E-0.20930
G1 X130.776 Y89.146 E-0.09028
G1 X130.845 Y89.453 E-0.07247
G1 X130.232 Y90.539 E-0.28799
G1 E-0.04000 F2100.00000
G1 Z0.800 F10800.000
G1 X131.810 Y85.913
G1 Z0.200
G1 E0.80000 F2100.00000
G1 F1200
G1 X131.649 Y86.339 E0.01426
G1 X131.709 Y87.088 E0.02357
G1 X131.850 Y87.437 E0.01179
G1 X132.226 Y87.688 E0.01418
G1 X133.013 Y87.720 E0.02471
G1 X133.148 Y87.763 E0.00443
G1 X133.359 Y87.871 E0.00743
G1 X133.567 Y88.020 E0.00802
G1 X133.229 Y88.100 E0.01088
G1 X132.932 Y88.103 E0.00930
G1 X132.221 Y87.864 E0.02352
G1 X131.824 Y87.931 E0.01263
G1 X131.532 Y88.177 E0.01198
G1 X131.201 Y88.873 E0.02415
G1 X131.160 Y89.134 E0.00829
G1 X131.230 Y89.447 E0.01005
G1 X131.446 Y89.707 E0.01062
G1 X132.062 Y90.101 E0.02292
G1 X132.149 Y90.214 E0.00446
G1 X132.293 Y90.461 E0.00898
G1 X132.350 Y90.601 E0.00472
G1 X132.102 Y90.531 E0.00807
G1 X131.917 Y90.453 E0.00630
G1 X131.768 Y90.361 E0.00550
G1 X131.133 Y89.709 E0.02853
G1 X123.799 Y102.699 E0.46772
G1 X123.205 Y103.972 E0.04407
G1 X122.891 Y104.760 E0.02657
G1 X122.628 Y105.567 E0.02662
G1 X122.416 Y106.389 E0.02661
G1 X122.255 Y107.222 E0.02661
G1 X122.149 Y108.060 E0.02647
G1 X122.094 Y108.916 E0.02690
G1 X122.093 Y109.760 E0.02647
G1 X122.146 Y110.609 E0.02665
G1 X122.266 Y111.534 E0.02925
G1 X122.508 Y112.692 E0.03712
G1 X122.745 Y113.512 E0.02674
G1 X123.031 Y114.306 E0.02647
G1 X123.197 Y114.708 E0.01364
G1 X123.596 Y115.546 E0.02910
G1 X124.185 Y116.573 E0.03712
G1 X124.662 Y117.276 E0.02664
G1 X124.973 Y117.684 E0.01608
G1 X125.461 Y118.272 E0.02396
G1 X126.039 Y118.887 E0.02645
G1 X126.350 Y119.188 E0.01360
G1 X126.984 Y119.746 E0.02647
G1 X127.652 Y120.264 E0.02652
G1 X128.074 Y120.557 E0.01608
G1 X128.720 Y120.964 E0.02396
G1 X129.461 Y121.371 E0.02650
G1 X129.923 Y121.594 E0.01608
G1 X130.622 Y121.894 E0.02386
G1 X131.102 Y122.072 E0.01606
G1 X131.834 Y122.307 E0.02410
G1 X132.561 Y122.481 E0.02343
G1 X132.561 Y128.111 E0.17654
G1 X132.036 Y128.029 E0.01664
G1 X131.455 Y127.910 E0.01862
G1 X130.877 Y127.772 E0.01862
G1 X129.719 Y127.437 E0.03781
G1 X129.161 Y127.247 E0.01847
G1 X128.044 Y126.806 E0.03766
G1 X126.962 Y126.299 E0.03748
G1 X125.805 Y125.658 E0.04145
G1 X124.897 Y125.080 E0.03376
G1 X124.414 Y124.741 E0.01849
G1 X123.461 Y124.003 E0.03781
G1 X123.014 Y123.622 E0.01843
G1 X122.050 Y122.710 E0.04159
G1 X121.314 Y121.924 E0.03376
G1 X120.557 Y121.009 E0.03725
G1 X119.851 Y120.037 E0.03766
G1 X119.207 Y119.023 E0.03766
G1 X118.915 Y118.512 E0.01847
G1 X118.368 Y117.438 E0.03776
G1 X118.078 Y116.786 E0.02240
G1 X117.682 Y115.779 E0.03391
G1 X117.491 Y115.221 E0.01849
G1 X117.156 Y114.065 E0.03776
G1 X116.993 Y113.369 E0.02240
G1 X116.794 Y112.311 E0.03376
G1 X116.644 Y111.123 E0.03753
G1 X116.570 Y109.924 E0.03766
G1 X116.561 Y109.335 E0.01847
G1 X116.600 Y108.130 E0.03781
G1 X116.713 Y106.948 E0.03723
G1 X116.904 Y105.757 E0.03781
G1 X117.024 Y105.181 E0.01847
G1 X117.325 Y104.015 E0.03776
G1 X117.540 Y103.333 E0.02240
G1 X117.909 Y102.317 E0.03391
G1 X118.137 Y101.771 E0.01855
G1 X118.805 Y100.334 E0.04967
G1 X124.186 Y86.425 E0.46762
G1 X123.280 Y86.348 E0.02852
G1 X123.114 Y86.292 E0.00550
G1 X122.936 Y86.198 E0.00630
G1 X122.723 Y86.049 E0.00816
G1 X123.067 Y85.969 E0.01109
G1 X123.237 Y85.956 E0.00535
G1 X123.363 Y85.966 E0.00397
G1 X124.084 Y86.209 E0.02383
G1 X124.523 Y86.120 E0.01407
G1 X124.793 Y85.836 E0.01227
G1 X125.115 Y85.152 E0.02371
G1 X125.115 Y84.703 E0.01409
G1 X124.868 Y84.375 E0.01285
G1 X124.262 Y83.994 E0.02245
G1 X124.053 Y83.705 E0.01118
G1 X123.948 Y83.471 E0.00802
G1 X124.145 Y83.522 E0.00638
G1 X124.483 Y83.674 E0.01161
G1 X124.972 Y84.216 E0.02291
G1 X125.264 Y84.387 E0.01061
G1 X125.589 Y84.406 E0.01020
G1 X125.846 Y84.316 E0.00855
G1 X126.500 Y83.855 E0.02509
G1 X126.672 Y83.506 E0.01219
G1 X126.656 Y83.132 E0.01176
G1 X126.315 Y82.497 E0.02260
G1 X126.286 Y82.393 E0.00339
G1 X126.269 Y82.238 E0.00489
G1 X126.291 Y81.852 E0.01211
G1 X126.507 Y82.073 E0.00968
G1 X126.675 Y82.344 E0.01003
G1 X126.809 Y83.017 E0.02149
G1 X127.027 Y83.372 E0.01308
G1 X127.452 Y83.533 E0.01426
G1 X128.206 Y83.473 E0.02371
G1 X128.567 Y83.320 E0.01227
G1 X128.805 Y82.940 E0.01407
G1 X128.831 Y82.180 E0.02384
G1 X128.938 Y81.904 E0.00930
G1 X129.132 Y81.615 E0.01088
G1 X129.198 Y81.862 E0.00802
G1 X129.225 Y82.098 E0.00743
G1 X129.217 Y82.239 E0.00443
G1 X128.971 Y82.987 E0.02469
G1 X129.073 Y83.427 E0.01416
G1 X129.351 Y83.682 E0.01181
G1 X130.031 Y84.002 E0.02357
G1 X130.485 Y84.001 E0.01425
G1 X130.814 Y83.745 E0.01307
G1 X131.176 Y83.162 E0.02151
G1 X131.430 Y82.967 E0.01003
G1 X131.709 Y82.837 E0.00968
G1 X131.595 Y83.206 E0.01211
G1 X131.523 Y83.344 E0.00489
G1 X131.460 Y83.432 E0.00338
G1 X130.918 Y83.905 E0.02257
G1 X130.773 Y84.245 E0.01158
G1 X130.804 Y84.627 E0.01201
G1 X131.255 Y85.295 E0.02529
G1 X131.451 Y85.464 E0.00811
G1 X131.759 Y85.570 E0.01020
G1 X132.108 Y85.516 E0.01107
G1 X132.761 Y85.178 E0.02307
G1 X133.131 Y85.155 E0.01161
G1 X133.333 Y85.177 E0.00638
G1 X133.152 Y85.358 E0.00802
G1 X132.855 Y85.555 E0.01118
G1 X132.164 Y85.697 E0.02212
G1 X131.861 Y85.882 E0.01112
G1 X132.117 Y86.168 F10800.000
G1 F1200
G1 X132.032 Y86.393 E0.00756
G1 X132.081 Y87.000 E0.01910
G1 X132.156 Y87.188 E0.00635
G1 X132.347 Y87.316 E0.00721
G1 X133.079 Y87.346 E0.02295
G1 X133.291 Y87.413 E0.00700
G1 X133.556 Y87.548 E0.00931
G1 X133.888 Y87.787 E0.01284
G1 X134.205 Y88.091 E0.01378
G1 X134.199 Y88.172 E0.00255
G1 X133.937 Y88.293 E0.00904
G1 X133.577 Y88.414 E0.01192
G1 X133.280 Y88.474 E0.00948
G1 X133.058 Y88.491 E0.00700
G1 X132.856 Y88.475 E0.00634
G1 X132.191 Y88.251 E0.02202
G1 X131.989 Y88.285 E0.00643
G1 X131.838 Y88.413 E0.00619
G1 X131.565 Y88.985 E0.01988
G1 X131.544 Y89.121 E0.00432
G1 X131.578 Y89.276 E0.00495
G1 X131.697 Y89.419 E0.00582
G1 X132.253 Y89.761 E0.02047
G1 X132.463 Y90.002 E0.01003
G1 X132.632 Y90.295 E0.01060
G1 X132.770 Y90.631 E0.01138
G1 X132.862 Y90.992 E0.01168
G1 X132.818 Y91.044 E0.00214
G1 X132.616 Y91.030 E0.00636
G1 X132.299 Y90.978 E0.01006
G1 X131.977 Y90.887 E0.01048
G1 X131.744 Y90.789 E0.00795
G1 X131.530 Y90.657 E0.00787
G1 X131.214 Y90.333 E0.01420
G1 X124.135 Y102.871 E0.45148
G1 X123.551 Y104.122 E0.04327
G1 X123.246 Y104.888 E0.02585
G1 X122.990 Y105.673 E0.02587
G1 X122.784 Y106.471 E0.02587
G1 X122.628 Y107.282 E0.02587
G1 X122.524 Y108.099 E0.02582
G1 X122.471 Y108.925 E0.02597
G1 X122.470 Y109.749 E0.02582
G1 X122.521 Y110.573 E0.02588
G1 X122.638 Y111.471 E0.02839
G1 X122.874 Y112.601 E0.03621
G1 X123.104 Y113.395 E0.02592
G1 X123.383 Y114.170 E0.02582
G1 X123.542 Y114.555 E0.01305
G1 X123.930 Y115.371 E0.02834
G1 X124.505 Y116.373 E0.03621
G1 X124.969 Y117.056 E0.02588
G1 X125.268 Y117.450 E0.01551
