; generated by PrusaSlicer 2.0.0+win64 on 2019-06-26 at 07:11:34

; 

; external perimeters extrusion width = 0.45mm
; perimeters extrusion width = 0.45mm
; infill extrusion width = 0.45mm
; solid infill extrusion width = 0.45mm
; top infill extrusion width = 0.40mm
; first layer extrusion width = 0.42mm

M73 P0 R13
M73 Q0 S13
M201 X1000 Y1000 Z1000 E5000 ; sets maximum accelerations, mm/sec^2
M203 X200 Y200 Z12 E120 ; sets maximum feedrates, mm/sec
M204 P1250 R1250 T1250 ; sets acceleration (P, T) and retract acceleration (R), mm/sec^2
M205 X8.00 Y8.00 Z0.40 E1.50 ; sets the jerk limits, mm/sec
M205 S0 T0 ; sets the minimum extruding and travel feed rate, mm/sec
M107
M115 U3.7.1 ; tell printer latest fw version
G90 ; use absolute coordinates
M83 ; extruder relative mode
M104 S240 ; set extruder temp
M140 S85 ; set bed temp
Tx
M190 S85 ; wait for bed temp
M109 S240 ; wait for extruder temp
G28 W ; home all without mesh bed level
G80 ; mesh bed leveling

G21 ; set units to millimeters

;go outside print area
G1 Y-3.0 F1000.0
G1 Z0.4 F1000.0
; select extruder
Tc
; purge line
G1 X55.0 F2000.0
G1 Z0.3 F1000.0
G92 E0.0
G1 X240.0 E25.0 F2200.0
M73 Q0 S13
M73 P0 R12
G1 Y-2.0 F1000.0
G1 X55.0 E25 F1400.0
G1 Z0.20 F1000.0
G1 X5.0 E4.0 F1000.0

M221 S95
G92 E0.0
M900 K45 ; Filament gcode
G21 ; set units to millimeters
G90 ; use absolute coordinates
M83 ; use relative distances for extrusion
;BEFORE_LAYER_CHANGE
G92 E0.0
;0.2


G1 E-0.80000 F2100.00000
G1 Z0.600 F10800.000
;AFTER_LAYER_CHANGE
;0.2
G1 X122.348 Y78.531
G1 Z0.200
G1 E0.80000 F2100.00000
M204 S1000
G1 F1200
G1 X123.209 Y78.665 E0.02734
G1 X126.206 Y79.738 E0.09981
G1 X126.705 Y79.999 E0.01765
G1 X127.221 Y80.435 E0.02120
G1 X129.276 Y82.857 E0.09956
G1 X129.692 Y83.562 E0.02567
G1 X135.753 Y103.135 E0.64244
G1 X136.104 Y104.489 E0.04389
G1 X136.468 Y106.544 E0.06543
G1 X136.608 Y108.000 E0.04586
G1 X136.641 Y110.065 E0.06474
G1 X136.481 Y112.131 E0.06498
G1 X136.127 Y114.180 E0.06521
G1 X135.763 Y115.599 E0.04594
G1 X135.094 Y117.550 E0.06465
G1 X134.234 Y119.456 E0.06555
G1 X133.212 Y121.250 E0.06475
G1 X132.391 Y122.459 E0.04582
G1 X131.100 Y124.067 E0.06466
G1 X129.658 Y125.555 E0.06497
G1 X128.077 Y126.906 E0.06521
G1 X126.891 Y127.766 E0.04594
G1 X125.131 Y128.841 E0.06465
G1 X123.266 Y129.753 E0.06509
G1 X121.324 Y130.486 E0.06509
G1 X119.923 Y130.891 E0.04572
G1 X117.889 Y131.308 E0.06510
G1 X116.236 Y131.454 E0.05201
G1 X115.508 Y131.237 E0.02383
G1 X114.901 Y130.786 E0.02372
G1 X114.483 Y130.155 E0.02372
G1 X114.305 Y129.420 E0.02372
G1 X113.374 Y86.232 E1.35445
G1 X113.485 Y85.744 E0.01568
G1 X114.590 Y82.669 E0.10244
G1 X114.916 Y82.112 E0.02026
G1 X115.290 Y81.707 E0.01729
G1 X117.717 Y79.650 E0.09974
G1 X118.320 Y79.295 E0.02195
G1 X118.853 Y79.126 E0.01753
G1 X122.289 Y78.541 E0.10927
G1 F8640
G1 X123.209 Y78.665 E-0.21450
G1 X125.434 Y79.461 E-0.54550
G1 E-0.04000 F2100.00000
G1 Z0.800 F10800.000
G1 X123.637 Y88.177
G1 Z0.200
G1 E0.80000 F2100.00000
G1 F1200
G1 X123.399 Y88.485 E0.01221
G1 X123.102 Y88.748 E0.01245
G1 X122.721 Y88.966 E0.01377
G1 X122.344 Y89.089 E0.01245
G1 X121.958 Y89.139 E0.01220
G1 X121.569 Y89.115 E0.01221
G1 X121.184 Y89.017 E0.01245
G1 X120.790 Y88.824 E0.01376
G1 X120.470 Y88.577 E0.01269
G1 X120.184 Y88.244 E0.01377
G1 X119.992 Y87.896 E0.01245
G1 X119.871 Y87.526 E0.01221
G1 X119.822 Y87.140 E0.01221
G1 X119.845 Y86.751 E0.01221
G1 X119.943 Y86.367 E0.01245
G1 X120.136 Y85.972 E0.01376
G1 X120.383 Y85.652 E0.01269
G1 X120.717 Y85.366 E0.01376
G1 X121.064 Y85.174 E0.01245
G1 X121.434 Y85.053 E0.01221
G1 X121.820 Y85.004 E0.01221
G1 X122.217 Y85.028 E0.01245
G1 X122.640 Y85.143 E0.01376
G1 X122.994 Y85.323 E0.01245
G1 X123.308 Y85.566 E0.01245
G1 X123.594 Y85.899 E0.01376
G1 X123.786 Y86.247 E0.01245
G1 X123.907 Y86.617 E0.01221
G1 X123.957 Y87.010 E0.01245
G1 X123.924 Y87.448 E0.01376
G1 X123.814 Y87.829 E0.01245
G1 X123.665 Y88.123 E0.01032
G1 X123.317 Y87.974 F10800.000
G1 F1200
G1 X123.123 Y88.226 E0.00997
G1 X122.881 Y88.440 E0.01012
G1 X122.567 Y88.619 E0.01134
G1 X122.260 Y88.720 E0.01012
G1 X121.945 Y88.760 E0.00997
G1 X121.628 Y88.741 E0.00997
G1 X121.315 Y88.661 E0.01012
G1 X120.990 Y88.502 E0.01134
G1 X120.731 Y88.302 E0.01026
G1 X120.495 Y88.028 E0.01134
G1 X120.339 Y87.745 E0.01012
G1 X120.241 Y87.443 E0.00997
G1 X120.200 Y87.127 E0.00997
G1 X120.220 Y86.810 E0.00997
G1 X120.299 Y86.497 E0.01012
G1 X120.458 Y86.172 E0.01134
G1 X120.658 Y85.913 E0.01026
G1 X120.933 Y85.678 E0.01134
G1 X121.215 Y85.522 E0.01012
G1 X121.518 Y85.423 E0.00997
G1 X121.833 Y85.383 E0.00997
G1 X122.155 Y85.402 E0.01012
G1 X122.504 Y85.497 E0.01134
G1 X122.792 Y85.643 E0.01012
G1 X123.047 Y85.840 E0.01012
G1 X123.283 Y86.115 E0.01134
G1 X123.439 Y86.398 E0.01012
G1 X123.537 Y86.700 E0.00997
G1 X123.578 Y87.020 E0.01012
G1 X123.551 Y87.381 E0.01134
G1 X123.461 Y87.691 E0.01012
G1 X123.344 Y87.921 E0.00809
G1 X122.997 Y87.772 F10800.000
G1 F1200
G1 X122.846 Y87.967 E0.00774
G1 X122.660 Y88.132 E0.00779
G1 X122.413 Y88.273 E0.00892
G1 X122.177 Y88.350 E0.00779
G1 X121.932 Y88.382 E0.00774
G1 X121.686 Y88.366 E0.00774
G1 X121.445 Y88.305 E0.00779
G1 X121.190 Y88.180 E0.00892
G1 X120.992 Y88.028 E0.00784
G1 X120.807 Y87.812 E0.00892
G1 X120.687 Y87.594 E0.00779
G1 X120.610 Y87.360 E0.00774
G1 X120.579 Y87.115 E0.00774
G1 X120.594 Y86.868 E0.00774
G1 X120.655 Y86.628 E0.00779
G1 X120.780 Y86.372 E0.00892
G1 X120.933 Y86.174 E0.00784
G1 X121.149 Y85.989 E0.00892
G1 X121.366 Y85.869 E0.00779
G1 X121.601 Y85.792 E0.00774
G1 X121.845 Y85.761 E0.00774
G1 X122.093 Y85.776 E0.00779
G1 X122.368 Y85.851 E0.00892
G1 X122.589 Y85.963 E0.00779
G1 X122.786 Y86.115 E0.00779
G1 X122.971 Y86.331 E0.00892
G1 X123.091 Y86.549 E0.00779
G1 X123.168 Y86.783 E0.00774
G1 X123.199 Y87.029 E0.00779
G1 X123.178 Y87.313 E0.00892
G1 X123.109 Y87.552 E0.00779
G1 X123.024 Y87.718 E0.00585
G1 X123.112 Y87.990 F10800.000
G1 F8640
G1 X122.846 Y87.967 E-0.07063
G1 X122.660 Y88.132 E-0.05737
G1 X122.413 Y88.273 E-0.06568
G1 X122.177 Y88.350 E-0.05736
G1 X121.932 Y88.382 E-0.05696
G1 X121.686 Y88.366 E-0.05698
G1 X121.445 Y88.305 E-0.05735
G1 X121.190 Y88.180 E-0.06568
G1 X120.992 Y88.028 E-0.05774
G1 X120.807 Y87.812 E-0.06569
G1 X120.687 Y87.594 E-0.05736
G1 X120.610 Y87.360 E-0.05697
G1 X120.591 Y87.212 E-0.03423
G1 E-0.04000 F2100.00000
G1 Z0.800 F10800.000
G1 X124.966 Y87.998
G1 Z0.200
G1 E0.80000 F2100.00000
G1 F1200
G1 X131.305 Y101.407 E0.46506
G1 X131.778 Y102.497 E0.03725
G1 X132.178 Y103.601 E0.03680
G1 X132.476 Y104.615 E0.03314
G1 X132.643 Y105.291 E0.02183
G1 X132.865 Y106.447 E0.03693
G1 X133.013 Y107.611 E0.03677
G1 X133.088 Y108.781 E0.03677
G1 X133.089 Y109.962 E0.03701
G1 X133.063 Y110.532 E0.01791
G1 X132.953 Y111.708 E0.03701
G1 X132.770 Y112.866 E0.03678
G1 X132.513 Y114.018 E0.03701
G1 X132.363 Y114.570 E0.01791
G1 X131.998 Y115.693 E0.03704
G1 X131.611 Y116.677 E0.03315
G1 X131.328 Y117.313 E0.02183
G1 X130.790 Y118.369 E0.03717
G1 X130.506 Y118.866 E0.01794
G1 X129.937 Y119.766 E0.03338
G1 X129.540 Y120.338 E0.02183
G1 X128.813 Y121.274 E0.03717
G1 X128.442 Y121.709 E0.01791
G1 X127.628 Y122.574 E0.03725
G1 X127.218 Y122.972 E0.01791
G1 X126.332 Y123.752 E0.03701
G1 X125.399 Y124.475 E0.03701
G1 X124.930 Y124.803 E0.01794
G1 X124.039 Y125.370 E0.03313
G1 X122.903 Y125.999 E0.04069
G1 X121.844 Y126.497 E0.03671
G1 X120.746 Y126.930 E0.03701
G1 X120.205 Y127.114 E0.01791
G1 X119.064 Y127.444 E0.03725
G1 X117.853 Y127.707 E0.03884
G1 X117.853 Y122.815 E0.15339
G1 X118.305 Y122.707 E0.01458
G1 X119.149 Y122.434 E0.02779
G1 X120.271 Y121.974 E0.03803
G1 X121.134 Y121.540 E0.03030
G1 X122.172 Y120.908 E0.03809
G1 X122.951 Y120.348 E0.03010
G1 X123.625 Y119.791 E0.02742
G1 X124.256 Y119.199 E0.02712
G1 X124.575 Y118.870 E0.01436
G1 X125.360 Y117.956 E0.03779
G1 X125.928 Y117.182 E0.03009
G1 X126.396 Y116.444 E0.02740
G1 X126.775 Y115.758 E0.02458
G1 X127.011 Y115.282 E0.01665
G1 X127.355 Y114.486 E0.02720
G1 X127.648 Y113.672 E0.02712
G1 X127.780 Y113.240 E0.01416
G1 X127.995 Y112.402 E0.02712
G1 X128.157 Y111.553 E0.02712
G1 X128.220 Y111.106 E0.01413
G1 X128.294 Y110.334 E0.02434
G1 X128.321 Y109.803 E0.01665
G1 X128.320 Y108.936 E0.02720
G1 X128.264 Y108.065 E0.02736
G1 X128.154 Y107.199 E0.02736
G1 X127.989 Y106.343 E0.02736
G1 X127.771 Y105.498 E0.02736
G1 X127.503 Y104.675 E0.02712
G1 X127.342 Y104.253 E0.01416
G1 X127.004 Y103.474 E0.02665
G1 X120.648 Y90.029 E0.46627
G1 X120.109 Y89.700 E0.01981
G1 X119.876 Y89.526 E0.00914
G1 X119.576 Y89.245 E0.01286
G1 X119.176 Y88.771 E0.01945
G1 X118.750 Y88.546 E0.01513
G1 X118.855 Y88.101 E0.01434
G1 X118.696 Y87.221 E0.02803
G1 X118.460 Y86.803 E0.01505
G1 X118.773 Y86.375 E0.01660
G1 X119.070 Y85.541 E0.02778
G1 X119.025 Y85.085 E0.01437
G1 X119.411 Y85.008 E0.01234
G1 X120.141 Y84.401 E0.02976
G1 X120.366 Y84.070 E0.01254
G1 X120.396 Y83.924 E0.00469
G1 X120.853 Y84.039 E0.01475
G1 X121.719 Y83.882 E0.02761
G1 X122.206 Y83.628 E0.01723
G1 X122.429 Y83.891 E0.01083
G1 X123.321 Y84.220 E0.02979
G1 X123.699 Y84.253 E0.01190
G1 X123.869 Y84.203 E0.00554
G1 X123.996 Y84.657 E0.01478
G1 X124.566 Y85.329 E0.02762
G1 X125.008 Y85.610 E0.01643
G1 X124.928 Y86.075 E0.01478
G1 X125.038 Y86.672 E0.01904
G1 X125.062 Y86.966 E0.00925
G1 X125.058 Y87.258 E0.00914
G1 X124.973 Y87.938 E0.02150
G1 X125.354 Y87.936 F10800.000
G1 F1200
G1 X131.648 Y101.252 E0.46181
G1 X132.129 Y102.357 E0.03781
G1 X132.536 Y103.483 E0.03753
G1 X132.840 Y104.516 E0.03376
G1 X133.011 Y105.210 E0.02240
G1 X133.238 Y106.388 E0.03761
G1 X133.389 Y107.575 E0.03752
G1 X133.465 Y108.769 E0.03752
G1 X133.467 Y109.970 E0.03766
G1 X133.439 Y110.559 E0.01847
G1 X133.327 Y111.755 E0.03766
G1 X133.141 Y112.937 E0.03752
G1 X132.879 Y114.109 E0.03766
G1 X132.724 Y114.677 E0.01847
G1 X132.353 Y115.820 E0.03768
G1 X131.959 Y116.823 E0.03377
G1 X131.668 Y117.475 E0.02240
G1 X131.122 Y118.548 E0.03776
G1 X130.830 Y119.061 E0.01849
G1 X130.252 Y119.975 E0.03391
G1 X129.844 Y120.561 E0.02240
G1 X129.106 Y121.513 E0.03776
G1 X128.723 Y121.961 E0.01847
G1 X127.897 Y122.839 E0.03781
G1 X127.474 Y123.249 E0.01847
G1 X126.572 Y124.043 E0.03766
G1 X125.623 Y124.778 E0.03766
G1 X125.140 Y125.117 E0.01849
G1 X124.231 Y125.695 E0.03376
G1 X123.075 Y126.335 E0.04145
G1 X121.993 Y126.843 E0.03748
G1 X120.876 Y127.284 E0.03766
G1 X120.318 Y127.474 E0.01847
G1 X119.160 Y127.809 E0.03781
G1 X118.582 Y127.947 E0.01862
G1 X118.000 Y128.066 E0.01862
G1 X117.476 Y128.148 E0.01664
G1 X117.476 Y122.518 E0.17654
G1 X118.203 Y122.344 E0.02344
G1 X119.019 Y122.080 E0.02688
G1 X120.114 Y121.631 E0.03712
G1 X120.951 Y121.210 E0.02937
G1 X121.963 Y120.594 E0.03716
G1 X122.721 Y120.049 E0.02924
G1 X123.376 Y119.508 E0.02665
G1 X123.992 Y118.930 E0.02647
G1 X124.296 Y118.616 E0.01372
G1 X125.065 Y117.721 E0.03697
G1 X125.616 Y116.969 E0.02924
G1 X126.071 Y116.252 E0.02664
G1 X126.441 Y115.583 E0.02395
G1 X126.669 Y115.123 E0.01608
G1 X127.004 Y114.347 E0.02652
G1 X127.290 Y113.553 E0.02647
G1 X127.417 Y113.138 E0.01360
G1 X127.627 Y112.320 E0.02647
G1 X127.785 Y111.491 E0.02647
G1 X127.845 Y111.062 E0.01358
G1 X127.917 Y110.306 E0.02381
G1 X127.944 Y109.794 E0.01608
G1 X127.943 Y108.948 E0.02652
G1 X127.889 Y108.101 E0.02661
G1 X127.781 Y107.259 E0.02662
G1 X127.621 Y106.425 E0.02661
G1 X127.409 Y105.604 E0.02661
G1 X127.147 Y104.801 E0.02647
G1 X126.993 Y104.396 E0.01360
G1 X126.660 Y103.630 E0.02618
G1 X120.356 Y90.293 E0.46255
G1 X119.897 Y90.013 E0.01683
G1 X119.633 Y89.815 E0.01035
G1 X119.302 Y89.506 E0.01421
G1 X118.935 Y89.071 E0.01785
G1 X118.573 Y88.879 E0.01286
G1 X118.125 Y88.950 E0.01421
G1 X117.479 Y89.369 E0.02415
G1 X117.113 Y89.428 E0.01161
G1 X116.910 Y89.426 E0.00638
G1 X117.072 Y89.228 E0.00802
G1 X117.349 Y89.003 E0.01118
G1 X118.037 Y88.790 E0.02259
G1 X118.367 Y88.524 E0.01330
G1 X118.470 Y88.090 E0.01397
G1 X118.336 Y87.351 E0.02357
G1 X118.147 Y87.015 E0.01209
G1 X117.749 Y86.817 E0.01392
G1 X116.991 Y86.865 E0.02383
G1 X116.705 Y86.785 E0.00930
G1 X116.400 Y86.623 E0.01086
G1 X116.590 Y86.545 E0.00644
G1 X116.838 Y86.486 E0.00800
G1 X116.998 Y86.475 E0.00503
G1 X117.798 Y86.649 E0.02567
G1 X118.224 Y86.489 E0.01425
G1 X118.436 Y86.197 E0.01132
G1 X118.687 Y85.494 E0.02341
G1 X118.642 Y85.042 E0.01425
G1 X118.355 Y84.738 E0.01309
G1 X117.740 Y84.435 E0.02150
G1 X117.521 Y84.202 E0.01003
G1 X117.364 Y83.936 E0.00968
G1 X117.742 Y84.015 E0.01211
G1 X117.887 Y84.072 E0.00489
G1 X117.980 Y84.126 E0.00338
G1 X118.505 Y84.620 E0.02258
G1 X118.862 Y84.733 E0.01175
G1 X119.244 Y84.657 E0.01220
G1 X119.859 Y84.145 E0.02510
G1 X120.012 Y83.920 E0.00853
G1 X120.078 Y83.601 E0.01020
G1 X119.989 Y83.275 E0.01062
G1 X119.591 Y82.661 E0.02292
G1 X119.532 Y82.296 E0.01162
G1 X119.534 Y82.092 E0.00638
G1 X119.732 Y82.254 E0.00802
G1 X119.957 Y82.531 E0.01118
G1 X120.169 Y83.215 E0.02244
G1 X120.424 Y83.542 E0.01300
G1 X120.866 Y83.653 E0.01429
G1 X121.595 Y83.521 E0.02324
G1 X121.933 Y83.345 E0.01194
G1 X122.143 Y82.937 E0.01439
G1 X122.095 Y82.173 E0.02399
G1 X122.175 Y81.888 E0.00930
G1 X122.339 Y81.582 E0.01088
G1 X122.431 Y81.824 E0.00812
G1 X122.489 Y82.173 E0.01107
G1 X122.323 Y82.887 E0.02298
G1 X122.387 Y83.259 E0.01184
G1 X122.653 Y83.571 E0.01285
G1 X123.404 Y83.849 E0.02512
G1 X123.661 Y83.871 E0.00807
G1 X123.973 Y83.779 E0.01019
G1 X124.225 Y83.532 E0.01107
G1 X124.559 Y82.876 E0.02308
G1 X124.846 Y82.642 E0.01161
G1 X125.024 Y82.543 E0.00638
G1 X124.982 Y82.795 E0.00802
G1 X124.855 Y83.128 E0.01118
G1 X124.376 Y83.645 E0.02210
G1 X124.212 Y84.032 E0.01317
G1 X124.337 Y84.476 E0.01445
G1 X124.816 Y85.042 E0.02324
G1 X125.134 Y85.243 E0.01180
G1 X125.585 Y85.229 E0.01417
G1 X126.244 Y84.797 E0.02470
G1 X126.378 Y84.753 E0.00443
G1 X126.613 Y84.718 E0.00743
G1 X126.868 Y84.718 E0.00799
G1 X126.610 Y85.008 E0.01217
G1 X126.483 Y85.109 E0.00506
G1 X126.421 Y85.146 E0.00227
G1 X125.778 Y85.341 E0.02107
G1 X125.561 Y85.475 E0.00802
G1 X125.370 Y85.731 E0.01003
G1 X125.311 Y86.072 E0.01085
G1 X125.413 Y86.622 E0.01754
G1 X125.439 Y86.954 E0.01042
G1 X125.435 Y87.284 E0.01035
G1 X125.361 Y87.876 E0.01872
G1 X125.741 Y87.873 F10800.000
G1 F1200
G1 X131.992 Y101.096 E0.45856
G1 X132.479 Y102.218 E0.03837
G1 X132.895 Y103.366 E0.03827
G1 X133.204 Y104.418 E0.03438
G1 X133.380 Y105.129 E0.02297
G1 X133.610 Y106.328 E0.03830
G1 X133.764 Y107.539 E0.03826
G1 X133.842 Y108.757 E0.03826
G1 X133.844 Y109.979 E0.03832
G1 X133.816 Y110.585 E0.01903
G1 X133.701 Y111.802 E0.03831
G1 X133.511 Y113.007 E0.03826
G1 X133.245 Y114.200 E0.03831
G1 X133.086 Y114.785 E0.01903
G1 X132.708 Y115.948 E0.03832
G1 X132.307 Y116.968 E0.03439
G1 X132.009 Y117.638 E0.02297
G1 X131.454 Y118.727 E0.03835
G1 X131.153 Y119.255 E0.01904
G1 X130.566 Y120.183 E0.03444
G1 X130.148 Y120.785 E0.02297
G1 X129.398 Y121.751 E0.03835
G1 X129.004 Y122.212 E0.01903
G1 X128.166 Y123.104 E0.03837
G1 X127.730 Y123.526 E0.01903
G1 X126.812 Y124.334 E0.03832
G1 X125.846 Y125.082 E0.03831
G1 X125.349 Y125.431 E0.01904
G1 X124.424 Y126.019 E0.03438
G1 X123.247 Y126.671 E0.04220
G1 X122.142 Y127.190 E0.03825
G1 X121.006 Y127.638 E0.03831
G1 X120.431 Y127.834 E0.01903
G1 X119.256 Y128.174 E0.03837
G1 X118.664 Y128.315 E0.01908
G1 X118.068 Y128.437 E0.01908
G1 X117.099 Y128.589 E0.03074
G1 X117.099 Y122.220 E0.19969
G1 X118.101 Y121.980 E0.03231
G1 X118.889 Y121.726 E0.02596
G1 X119.958 Y121.287 E0.03621
G1 X120.768 Y120.880 E0.02844
G1 X121.755 Y120.279 E0.03623
G1 X122.490 Y119.750 E0.02839
G1 X123.127 Y119.225 E0.02588
G1 X123.727 Y118.661 E0.02582
G1 X124.018 Y118.362 E0.01309
G1 X124.769 Y117.486 E0.03616
G1 X125.305 Y116.756 E0.02839
G1 X125.747 Y116.059 E0.02588
G1 X126.106 Y115.408 E0.02333
G1 X126.326 Y114.965 E0.01551
G1 X126.653 Y114.208 E0.02583
G1 X126.932 Y113.433 E0.02582
G1 X127.054 Y113.036 E0.01304
G1 X127.259 Y112.238 E0.02582
G1 X127.412 Y111.429 E0.02582
G1 X127.471 Y111.018 E0.01303
G1 X127.541 Y110.278 E0.02328
G1 X127.567 Y109.784 E0.01551
G1 X127.566 Y108.960 E0.02584
G1 X127.513 Y108.137 E0.02587
G1 X127.409 Y107.318 E0.02587
G1 X127.253 Y106.508 E0.02587
G1 X127.047 Y105.709 E0.02587
