; generated by PrusaSlicer 2.0.0+win64 on 2019-08-19 at 22:00:38

; 

; external perimeters extrusion width = 0.45mm
; perimeters extrusion width = 0.45mm
; infill extrusion width = 0.45mm
; solid infill extrusion width = 0.45mm
; top infill extrusion width = 0.40mm
; first layer extrusion width = 0.42mm

M73 P0 R38
M73 Q0 S38
M201 X1000 Y1000 Z1000 E5000 ; sets maximum accelerations, mm/sec^2
M203 X200 Y200 Z12 E120 ; sets maximum feedrates, mm/sec
M204 P1250 R1250 T1250 ; sets acceleration (P, T) and retract acceleration (R), mm/sec^2
M205 X8.00 Y8.00 Z0.40 E1.50 ; sets the jerk limits, mm/sec
M205 S0 T0 ; sets the minimum extruding and travel feed rate, mm/sec
M107
M115 U3.7.2 ; tell printer latest fw version
G90 ; use absolute coordinates
M83 ; extruder relative mode
M104 S240 ; set extruder temp
M140 S85 ; set bed temp
Tx
M190 S85 ; wait for bed temp
M109 S240 ; wait for extruder temp
G28 W ; home all without mesh bed level
G80 ; mesh bed leveling

G21 ; set units to millimeters

;go outside print area
G1 Y-3.0 F1000.0
G1 Z0.4 F1000.0
; select extruder
Tc
; purge line
G1 X55.0 F2000.0
G1 Z0.3 F1000.0
G92 E0.0
G1 X240.0 E25.0 F2200.0
M73 Q0 S38
M73 P0 R38
G1 Y-2.0 F1000.0
G1 X55.0 E25 F1400.0
G1 Z0.20 F1000.0
G1 X5.0 E4.0 F1000.0

M221 S95
G92 E0.0
M900 K45 ; Filament gcode
G21 ; set units to millimeters
G90 ; use absolute coordinates
M83 ; use relative distances for extrusion
;BEFORE_LAYER_CHANGE
G92 E0.0
;0.2


G1 E-0.80000 F2100.00000
G1 Z0.600 F10800.000
;AFTER_LAYER_CHANGE
;0.2
G1 X112.178 Y88.008
G1 Z0.200
G1 E0.80000 F2100.00000
M204 S1000
G1 F1200
G1 X112.546 Y87.438 E0.02128
G1 X113.050 Y86.983 E0.02128
G1 X113.656 Y86.677 E0.02128
G1 X114.320 Y86.541 E0.02128
G1 X133.404 Y86.534 E0.59835
G1 X134.347 Y86.715 E0.03010
G1 X135.160 Y87.233 E0.03022
G1 X135.723 Y88.010 E0.03010
G1 X135.961 Y88.944 E0.03022
G1 X135.966 Y123.016 E1.06830
G1 X135.903 Y123.565 E0.01734
G1 X135.722 Y124.092 E0.01746
G1 X135.352 Y124.665 E0.02140
G1 X134.840 Y125.123 E0.02152
G1 X134.226 Y125.429 E0.02152
G1 X133.552 Y125.561 E0.02152
G1 X116.218 Y125.565 E0.54348
G1 X115.673 Y125.500 E0.01721
G1 X115.158 Y125.322 E0.01709
G1 X114.594 Y124.959 E0.02103
G1 X114.140 Y124.460 E0.02116
G1 X113.833 Y123.859 E0.02116
G1 X113.692 Y123.203 E0.02103
G1 X111.937 Y90.112 E1.03901
G1 X111.951 Y88.808 E0.04090
G1 X112.162 Y88.066 E0.02418
G1 X112.521 Y88.168 F10800.000
G1 F1200
G1 X112.842 Y87.671 E0.01854
G1 X113.278 Y87.284 E0.01828
G1 X113.801 Y87.026 E0.01828
G1 X114.370 Y86.915 E0.01817
G1 X133.404 Y86.911 E0.59679
G1 X134.213 Y87.068 E0.02586
G1 X134.907 Y87.513 E0.02586
G1 X135.388 Y88.184 E0.02586
G1 X135.585 Y88.985 E0.02586
G1 X135.588 Y123.015 E1.06699
G1 X135.533 Y123.489 E0.01498
G1 X135.376 Y123.941 E0.01498
G1 X135.055 Y124.432 E0.01839
G1 X134.616 Y124.820 E0.01839
G1 X134.088 Y125.077 E0.01839
G1 X133.512 Y125.186 E0.01839
G1 X116.224 Y125.188 E0.54203
G1 X115.757 Y125.132 E0.01475
G1 X115.309 Y124.976 E0.01487
G1 X114.829 Y124.665 E0.01794
G1 X114.446 Y124.240 E0.01794
G1 X114.186 Y123.726 E0.01805
G1 X114.068 Y123.167 E0.01794
G1 X112.314 Y90.098 E1.03831
G1 X112.324 Y88.863 E0.03872
G1 X112.505 Y88.226 E0.02077
G1 F8640
G1 X112.842 Y87.671 E-0.14985
G1 X113.278 Y87.284 E-0.13462
G1 X113.801 Y87.026 E-0.13462
G1 X114.370 Y86.915 E-0.13379
G1 X115.267 Y86.915 E-0.20711
G1 E-0.04000 F2100.00000
G1 Z0.800 F10800.000
G1 X132.036 Y121.636
G1 Z0.200
G1 E0.80000 F2100.00000
G1 F1200
G1 X117.214 Y121.636 E0.46472
G1 X117.214 Y118.974 E0.08347
G1 X132.036 Y118.964 E0.46472
G1 X132.036 Y121.576 E0.08188
G1 X132.413 Y122.013 F10800.000
G1 F1200
G1 X116.837 Y122.013 E0.48837
G1 X116.837 Y118.597 E0.10711
G1 X132.413 Y118.587 E0.48837
G1 X132.413 Y121.953 E0.10554
G1 F8640
G1 X129.122 Y121.966 E-0.76000
G1 E-0.04000 F2100.00000
G1 Z0.800 F10800.000
G1 X132.036 Y94.026
G1 Z0.200
G1 E0.80000 F2100.00000
G1 F1200
G1 X117.214 Y94.026 E0.46472
G1 X117.214 Y90.464 E0.11167
G1 X132.036 Y90.464 E0.46472
G1 X132.036 Y93.966 E0.10979
G1 X132.413 Y94.403 F10800.000
G1 F1200
G1 X116.837 Y94.403 E0.48837
G1 X116.837 Y90.087 E0.13532
G1 X132.413 Y90.087 E0.48837
G1 X132.413 Y94.343 E0.13344
G1 X132.413 Y94.780 F10800.000
G1 F1200
G1 X116.460 Y94.780 E0.50019
G1 X116.460 Y89.790 E0.15646
G1 X115.110 Y89.790 E0.04233
G1 X115.110 Y89.710 E0.00251
G1 X132.790 Y89.710 E0.55434
G1 X132.790 Y122.390 E1.02466
G1 X116.460 Y122.390 E0.51202
G1 X116.460 Y118.220 E0.13075
G1 X132.470 Y118.210 E0.50198
G1 X132.470 Y94.783 E0.73454
G1 X132.492 Y94.388 F10800.000
G1 F8640
G1 X129.179 Y94.782 E-0.76000
G1 E-0.04000 F2100.00000
G1 Z0.800 F10800.000
G1 X131.923 Y91.358
G1 Z0.200
G1 E0.80000 F2100.00000
G1 F1200
G1 X131.312 Y90.747 E0.02773
G1 X130.766 Y90.747 E0.01751
G1 X131.753 Y91.734 E0.04479
G1 X131.753 Y92.280 E0.01751
G1 X130.220 Y90.747 E0.06954
G1 X129.675 Y90.747 E0.01751
G1 X131.753 Y92.825 E0.09430
G1 X131.753 Y93.371 E0.01751
G1 X129.129 Y90.747 E0.11906
G1 X128.583 Y90.747 E0.01751
G1 X131.579 Y93.743 E0.13594
G1 X131.034 Y93.743 E0.01751
G1 X128.038 Y90.747 E0.13594
G1 X127.492 Y90.747 E0.01751
G1 X130.488 Y93.743 E0.13594
G1 X129.943 Y93.743 E0.01751
G1 X126.946 Y90.747 E0.13594
G1 X126.401 Y90.747 E0.01751
G1 X129.397 Y93.743 E0.13594
G1 X128.851 Y93.743 E0.01751
G1 X125.855 Y90.747 E0.13594
G1 X125.309 Y90.747 E0.01751
G1 X128.306 Y93.743 E0.13594
G1 X127.760 Y93.743 E0.01751
G1 X124.764 Y90.747 E0.13594
G1 X124.218 Y90.747 E0.01751
G1 X127.214 Y93.743 E0.13594
G1 X126.669 Y93.743 E0.01751
G1 X123.673 Y90.747 E0.13594
G1 X123.127 Y90.747 E0.01751
G1 X126.123 Y93.743 E0.13594
G1 X125.577 Y93.743 E0.01751
G1 X122.581 Y90.747 E0.13594
G1 X122.036 Y90.747 E0.01751
G1 X125.032 Y93.743 E0.13594
G1 X124.486 Y93.743 E0.01751
G1 X121.490 Y90.747 E0.13594
G1 X120.944 Y90.747 E0.01751
G1 X123.940 Y93.743 E0.13594
G1 X123.395 Y93.743 E0.01751
G1 X120.399 Y90.747 E0.13594
G1 X119.853 Y90.747 E0.01751
G1 X122.849 Y93.743 E0.13594
G1 X122.303 Y93.743 E0.01751
G1 X119.307 Y90.747 E0.13594
G1 X118.762 Y90.747 E0.01751
G1 X121.758 Y93.743 E0.13594
G1 X121.212 Y93.743 E0.01751
G1 X118.216 Y90.747 E0.13594
G1 X117.670 Y90.747 E0.01751
G1 X120.667 Y93.743 E0.13594
G1 X120.121 Y93.743 E0.01751
G1 X117.497 Y91.119 E0.11905
G1 X117.497 Y91.665 E0.01751
G1 X119.575 Y93.743 E0.09429
G1 X119.030 Y93.743 E0.01751
G1 X117.497 Y92.210 E0.06954
G1 X117.497 Y92.756 E0.01751
G1 X118.484 Y93.743 E0.04478
G1 X117.938 Y93.743 E0.01751
G1 X117.327 Y93.132 E0.02772
G1 F8640
G1 X117.938 Y93.743 E-0.19953
G1 X118.484 Y93.743 E-0.12599
G1 X117.497 Y92.756 E-0.32230
G1 X117.497 Y92.270 E-0.11218
G1 E-0.04000 F2100.00000
G1 Z0.800 F10800.000
G1 X118.092 Y121.523
G1 Z0.200
G1 E0.80000 F2100.00000
G1 F1200
G1 X117.497 Y120.928 E0.02646
G1 X117.497 Y120.393 E0.01682
G1 X118.457 Y121.353 E0.04270
G1 X118.992 Y121.353 E0.01682
G1 X117.497 Y119.858 E0.06649
G1 X117.497 Y119.323 E0.01682
G1 X119.527 Y121.353 E0.09028
G1 X120.062 Y121.353 E0.01682
G1 X117.964 Y119.256 E0.09327
G1 X118.499 Y119.256 E0.01681
G1 X120.597 Y121.353 E0.09329
G1 X121.131 Y121.353 E0.01682
G1 X119.034 Y119.255 E0.09330
G1 X119.568 Y119.255 E0.01681
G1 X121.666 Y121.353 E0.09332
G1 X122.201 Y121.353 E0.01682
G1 X120.103 Y119.255 E0.09333
G1 X120.637 Y119.254 E0.01681
G1 X122.736 Y121.353 E0.09335
G1 X123.271 Y121.353 E0.01682
G1 X121.172 Y119.254 E0.09336
G1 X121.706 Y119.254 E0.01681
G1 X123.806 Y121.353 E0.09338
G1 X124.341 Y121.353 E0.01682
G1 X122.241 Y119.253 E0.09339
G1 X122.775 Y119.253 E0.01681
G1 X124.876 Y121.353 E0.09341
G1 X125.410 Y121.353 E0.01682
G1 X123.310 Y119.253 E0.09342
G1 X123.844 Y119.252 E0.01681
G1 X125.945 Y121.353 E0.09344
G1 X126.480 Y121.353 E0.01682
G1 X124.379 Y119.252 E0.09345
G1 X124.914 Y119.252 E0.01681
G1 X127.015 Y121.353 E0.09347
G1 X127.550 Y121.353 E0.01682
G1 X125.448 Y119.251 E0.09348
G1 X125.983 Y119.251 E0.01681
G1 X128.085 Y121.353 E0.09350
G1 X128.620 Y121.353 E0.01682
G1 X126.517 Y119.251 E0.09351
G1 X127.052 Y119.250 E0.01681
G1 X129.155 Y121.353 E0.09353
G1 X129.689 Y121.353 E0.01682
G1 X127.586 Y119.250 E0.09354
G1 X128.121 Y119.250 E0.01681
G1 X130.224 Y121.353 E0.09356
G1 X130.759 Y121.353 E0.01682
G1 X128.655 Y119.249 E0.09357
G1 X129.190 Y119.249 E0.01681
G1 X131.294 Y121.353 E0.09358
G1 X131.753 Y121.353 E0.01443
G1 X131.753 Y121.277 E0.00239
G1 X129.724 Y119.249 E0.09022
G1 X130.259 Y119.248 E0.01681
G1 X131.753 Y120.742 E0.06645
G1 X131.753 Y120.207 E0.01682
G1 X130.794 Y119.248 E0.04267
G1 X131.328 Y119.248 E0.01681
G1 X131.923 Y119.842 E0.02645
;BEFORE_LAYER_CHANGE
G92 E0.0
;0.4


G1 F8640
G1 X131.328 Y119.248 E-0.19417
G1 X130.794 Y119.248 E-0.12343
G1 X131.753 Y120.207 E-0.31331
G1 X131.753 Y120.742 E-0.12351
G1 X131.736 Y120.725 E-0.00559
G1 E-0.04000 F2100.00000
G1 Z0.800 F10800.000
;AFTER_LAYER_CHANGE
;0.4
M104 S250 ; set temperature
M140 S90 ; set bed temperature
G1 X134.347 Y86.715
G1 Z0.400
G1 E0.80000 F2100.00000
G1 F2950
G1 X135.160 Y87.233 E0.03022
G1 X135.723 Y88.010 E0.03010
G1 X135.961 Y88.944 E0.03022
G1 X135.966 Y123.016 E1.06830
G1 X135.903 Y123.565 E0.01734
G1 X135.722 Y124.092 E0.01746
G1 X135.352 Y124.665 E0.02140
G1 X134.840 Y125.123 E0.02152
G1 X134.226 Y125.429 E0.02152
G1 X133.552 Y125.561 E0.02152
G1 X116.218 Y125.565 E0.54348
G1 X115.673 Y125.500 E0.01721
G1 X115.158 Y125.322 E0.01709
G1 X114.594 Y124.959 E0.02103
G1 X114.140 Y124.460 E0.02116
G1 X113.833 Y123.859 E0.02116
G1 X113.692 Y123.203 E0.02103
G1 X111.937 Y90.112 E1.03901
G1 X111.951 Y88.808 E0.04090
G1 X112.178 Y88.008 E0.02606
G1 X112.546 Y87.438 E0.02128
G1 X113.050 Y86.983 E0.02128
G1 X113.656 Y86.677 E0.02128
G1 X114.320 Y86.541 E0.02128
G1 X133.404 Y86.534 E0.59835
G1 X134.288 Y86.704 E0.02821
G1 F8640
G1 X135.160 Y87.233 E-0.23547
G1 X135.723 Y88.010 E-0.22164
G1 X135.961 Y88.944 E-0.22253
G1 X135.961 Y89.292 E-0.08036
G1 E-0.04000 F2100.00000
G1 Z1.000 F10800.000
G1 X132.161 Y121.761
G1 Z0.400
G1 E0.80000 F2100.00000
M204 S800
G1 F1500
G1 X117.289 Y121.761 E0.50339
G1 X117.289 Y119.049 E0.09181
G1 X132.161 Y119.039 E0.50339
G1 X132.161 Y121.701 E0.09009
M204 S1000
G1 X132.568 Y122.168 F10800.000
M204 S800
G1 F1500
G1 X116.882 Y122.168 E0.53095
G1 X116.882 Y118.642 E0.11936
G1 X132.568 Y118.632 E0.53095
M73 Q2 S37
G1 X132.568 Y122.108 E0.11766
M204 S1000
G1 F8640
G1 X129.277 Y122.121 E-0.76000
G1 E-0.04000 F2100.00000
G1 Z1.000 F10800.000
G1 X132.161 Y93.951
G1 Z0.400
G1 E0.80000 F2100.00000
M73 P2 R37
M204 S800
G1 F1500
G1 X117.289 Y93.951 E0.50339
G1 X117.289 Y90.339 E0.12225
G1 X132.161 Y90.339 E0.50339
G1 X132.161 Y93.891 E0.12022
M204 S1000
G1 X132.568 Y94.358 F10800.000
M204 S800
G1 F1500
G1 X116.882 Y94.358 E0.53095
G1 X116.882 Y89.932 E0.14981
G1 X132.568 Y89.932 E0.53095
G1 X132.568 Y94.298 E0.14778
M204 S1000
G1 F8640
G1 X129.277 Y94.311 E-0.76000
G1 E-0.04000 F2100.00000
G1 Z1.000 F10800.000
G1 X132.485 Y118.225
G1 Z0.400
G1 E0.80000 F2100.00000
M204 S800
G1 F1500
G1 X132.485 Y94.765 E0.79409
G1 X116.475 Y94.765 E0.54192
G1 X116.475 Y89.775 E0.16891
G1 X114.925 Y89.775 E0.05247
G1 X114.925 Y89.525 E0.00846
G1 X132.975 Y89.525 E0.61097
G1 X132.975 Y122.575 E1.11870
G1 X116.475 Y122.575 E0.55851
G1 X116.475 Y118.235 E0.14691
G1 X132.425 Y118.225 E0.53989
M204 S1000
G1 X132.883 Y118.190 F10800.000
G1 X132.730 Y118.428
G1 F2400
G1 X132.730 Y94.561 E0.16457
G1 F8640
G1 X132.730 Y97.853 E-0.76000
G1 E-0.04000 F2100.00000
G1 Z1.000 F10800.000
G1 X131.205 Y93.829
G1 Z0.400
G1 E0.80000 F2100.00000
M204 S1250
G1 F2950
G1 X131.856 Y93.178 E0.03156
G1 X131.856 Y92.595 E0.01999
G1 X130.805 Y93.646 E0.05095
G1 X130.222 Y93.646 E0.01999
G1 X131.856 Y92.012 E0.07922
G1 X131.856 Y91.429 E0.01999
G1 X129.639 Y93.646 E0.10749
G1 X129.055 Y93.646 E0.01999
G1 X131.856 Y90.845 E0.13576
G1 X131.856 Y90.644 E0.00689
G1 X131.473 Y90.644 E0.01310
G1 X128.472 Y93.646 E0.14551
G1 X127.889 Y93.646 E0.01999
G1 X130.890 Y90.644 E0.14551
G1 X130.307 Y90.644 E0.01999
G1 X127.306 Y93.646 E0.14551
G1 X126.723 Y93.646 E0.01999
G1 X129.724 Y90.644 E0.14551
G1 X129.141 Y90.644 E0.01999
G1 X126.140 Y93.646 E0.14551
G1 X125.557 Y93.646 E0.01999
G1 X128.558 Y90.644 E0.14551
G1 X127.975 Y90.644 E0.01999
G1 X124.974 Y93.646 E0.14551
G1 X124.391 Y93.646 E0.01999
G1 X127.392 Y90.644 E0.14551
G1 X126.809 Y90.644 E0.01999
G1 X123.807 Y93.646 E0.14551
G1 X123.224 Y93.646 E0.01999
G1 X126.225 Y90.644 E0.14551
G1 X125.642 Y90.644 E0.01999
G1 X122.641 Y93.646 E0.14551
G1 X122.058 Y93.646 E0.01999
G1 X125.059 Y90.644 E0.14551
G1 X124.476 Y90.644 E0.01999
G1 X121.475 Y93.646 E0.14551
G1 X120.892 Y93.646 E0.01999
G1 X123.893 Y90.644 E0.14551
G1 X123.310 Y90.644 E0.01999
G1 X120.309 Y93.646 E0.14551
G1 X119.726 Y93.646 E0.01999
G1 X122.727 Y90.644 E0.14551
G1 X122.144 Y90.644 E0.01999
G1 X119.143 Y93.646 E0.14551
G1 X118.560 Y93.646 E0.01999
G1 X121.561 Y90.644 E0.14551
G1 X120.978 Y90.644 E0.01999
G1 X117.976 Y93.646 E0.14551
G1 X117.594 Y93.646 E0.01310
G1 X117.594 Y93.444 E0.00690
G1 X120.394 Y90.644 E0.13576
G1 X119.811 Y90.644 E0.01999
G1 X117.594 Y92.861 E0.10749
G1 X117.594 Y92.278 E0.01999
G1 X119.228 Y90.644 E0.07921
G1 X118.645 Y90.644 E0.01999
G1 X117.594 Y91.695 E0.05094
G1 X117.594 Y91.112 E0.01999
G1 X118.245 Y90.461 E0.03155
M204 S1000
G1 F8640
G1 X117.594 Y91.112 E-0.21249
G1 X117.594 Y91.695 E-0.13464
G1 X118.645 Y90.644 E-0.34308
G1 X118.947 Y90.644 E-0.06979
G1 E-0.04000 F2100.00000
G1 Z1.000 F10800.000
G1 X118.260 Y119.170
G1 Z0.400
G1 E0.80000 F2100.00000
M204 S1250
G1 F2950
G1 X117.594 Y119.835 E0.03276
G1 X117.594 Y120.427 E0.02063
G1 X118.669 Y119.353 E0.05292
G1 X119.262 Y119.353 E0.02064
G1 X117.594 Y121.020 E0.08211
G1 X117.594 Y121.456 E0.01518
G1 X117.751 Y121.456 E0.00545
G1 X119.854 Y119.352 E0.10359
G1 X120.447 Y119.352 E0.02064
G1 X118.343 Y121.456 E0.10361
G1 X118.936 Y121.456 E0.02063
G1 X121.040 Y119.351 E0.10363
G1 X121.632 Y119.351 E0.02064
G1 X119.528 Y121.456 E0.10365
G1 X120.120 Y121.456 E0.02063
G1 X122.225 Y119.351 E0.10366
G1 X122.818 Y119.350 E0.02064
G1 X120.712 Y121.456 E0.10368
G1 X121.305 Y121.456 E0.02063
G1 X123.410 Y119.350 E0.10370
G1 X124.003 Y119.350 E0.02064
G1 X121.897 Y121.456 E0.10372
G1 X122.489 Y121.456 E0.02063
G1 X124.596 Y119.349 E0.10374
G1 X125.188 Y119.349 E0.02064
G1 X123.082 Y121.456 E0.10376
G1 X123.674 Y121.456 E0.02063
G1 X125.781 Y119.349 E0.10377
G1 X126.374 Y119.348 E0.02064
G1 X124.266 Y121.456 E0.10379
G1 X124.859 Y121.456 E0.02063
G1 X126.966 Y119.348 E0.10381
G1 X127.559 Y119.347 E0.02064
G1 X125.451 Y121.456 E0.10383
G1 X126.043 Y121.456 E0.02063
G1 X128.152 Y119.347 E0.10385
G1 X128.744 Y119.347 E0.02064
G1 X126.636 Y121.456 E0.10386
G1 X127.228 Y121.456 E0.02063
G1 X129.337 Y119.346 E0.10388
G1 X129.930 Y119.346 E0.02064
G1 X127.820 Y121.456 E0.10390
G1 X128.413 Y121.456 E0.02063
G1 X130.523 Y119.346 E0.10392
G1 X131.115 Y119.345 E0.02064
G1 X129.005 Y121.456 E0.10394
G1 X129.597 Y121.456 E0.02063
G1 X131.708 Y119.345 E0.10396
G1 X131.856 Y119.345 E0.00514
G1 X131.856 Y119.789 E0.01549
G1 X130.189 Y121.456 E0.08206
G1 X130.782 Y121.456 E0.02063
G1 X131.856 Y120.382 E0.05288
G1 X131.856 Y120.974 E0.02063
G1 X131.191 Y121.639 E0.03273
M204 S1000
;BEFORE_LAYER_CHANGE
G92 E0.0
;0.6


G1 F8640
G1 X131.856 Y120.974 E-0.21704
G1 X131.856 Y120.382 E-0.13677
G1 X130.782 Y121.456 E-0.35064
G1 X130.541 Y121.456 E-0.05556
G1 E-0.04000 F2100.00000
G1 Z1.000 F10800.000
;AFTER_LAYER_CHANGE
;0.6
G1 X134.347 Y86.715
G1 Z0.600
G1 E0.80000 F2100.00000
G1 F2899
G1 X135.160 Y87.233 E0.03022
G1 X135.723 Y88.010 E0.03010
G1 X135.961 Y88.944 E0.03022
G1 X135.966 Y123.016 E1.06830
G1 X135.903 Y123.565 E0.01734
G1 X135.722 Y124.092 E0.01746
G1 X135.352 Y124.665 E0.02140
G1 X134.840 Y125.123 E0.02152
G1 X134.226 Y125.429 E0.02152
G1 X133.552 Y125.561 E0.02152
G1 X116.218 Y125.565 E0.54348
G1 X115.673 Y125.500 E0.01721
G1 X115.158 Y125.322 E0.01709
G1 X114.594 Y124.959 E0.02103
G1 X114.140 Y124.460 E0.02116
G1 X113.833 Y123.859 E0.02116
G1 X113.692 Y123.203 E0.02103
G1 X111.937 Y90.112 E1.03901
G1 X111.951 Y88.808 E0.04090
G1 X112.178 Y88.008 E0.02606
G1 X112.546 Y87.438 E0.02128
G1 X113.050 Y86.983 E0.02128
G1 X113.656 Y86.677 E0.02128
