; generated by PrusaSlicer 2.0.0+win64 on 2019-08-18 at 09:31:23

; 

; external perimeters extrusion width = 0.45mm
; perimeters extrusion width = 0.45mm
; infill extrusion width = 0.45mm
; solid infill extrusion width = 0.45mm
; top infill extrusion width = 0.40mm
; first layer extrusion width = 0.42mm

M73 P0 R39
M73 Q0 S39
M201 X1000 Y1000 Z1000 E5000 ; sets maximum accelerations, mm/sec^2
M203 X200 Y200 Z12 E120 ; sets maximum feedrates, mm/sec
M204 P1250 R1250 T1250 ; sets acceleration (P, T) and retract acceleration (R), mm/sec^2
M205 X8.00 Y8.00 Z0.40 E1.50 ; sets the jerk limits, mm/sec
M205 S0 T0 ; sets the minimum extruding and travel feed rate, mm/sec
M107
M115 U3.7.2 ; tell printer latest fw version
G90 ; use absolute coordinates
M83 ; extruder relative mode
M104 S240 ; set extruder temp
M140 S85 ; set bed temp
Tx
M190 S85 ; wait for bed temp
M109 S240 ; wait for extruder temp
G28 W ; home all without mesh bed level
G80 ; mesh bed leveling

G21 ; set units to millimeters

;go outside print area
G1 Y-3.0 F1000.0
G1 Z0.4 F1000.0
; select extruder
Tc
; purge line
G1 X55.0 F2000.0
G1 Z0.3 F1000.0
G92 E0.0
G1 X240.0 E25.0 F2200.0
M73 Q0 S39
M73 P0 R38
G1 Y-2.0 F1000.0
G1 X55.0 E25 F1400.0
G1 Z0.20 F1000.0
G1 X5.0 E4.0 F1000.0

M221 S95
G92 E0.0
M900 K45 ; Filament gcode
G21 ; set units to millimeters
G90 ; use absolute coordinates
M83 ; use relative distances for extrusion
;BEFORE_LAYER_CHANGE
G92 E0.0
;0.2


G1 E-0.80000 F2100.00000
G1 Z0.600 F10800.000
;AFTER_LAYER_CHANGE
;0.2
G1 X112.580 Y85.299
G1 Z0.200
G1 E0.80000 F2100.00000
M204 S1000
G1 F1200
G1 X113.083 Y84.861 E0.02091
G1 X113.686 Y84.567 E0.02103
G1 X114.344 Y84.439 E0.02103
G1 X135.504 Y84.434 E0.66345
G1 X136.450 Y84.617 E0.03022
G1 X137.263 Y85.136 E0.03022
G1 X137.826 Y85.917 E0.03022
G1 X138.061 Y86.852 E0.03022
G1 X138.066 Y123.020 E1.13402
G1 X137.995 Y123.596 E0.01820
G1 X137.796 Y124.145 E0.01832
G1 X137.415 Y124.707 E0.02128
G1 X136.904 Y125.147 E0.02116
G1 X136.296 Y125.439 E0.02116
G1 X135.628 Y125.562 E0.02128
G1 X116.218 Y125.565 E0.60858
G1 X115.646 Y125.494 E0.01808
G1 X115.105 Y125.296 E0.01808
G1 X114.555 Y124.926 E0.02079
G1 X114.118 Y124.427 E0.02079
G1 X113.823 Y123.833 E0.02079
G1 X113.691 Y123.187 E0.02066
G1 X111.936 Y90.100 E1.03888
G1 X111.940 Y86.838 E0.10229
G1 X112.023 Y86.331 E0.01610
G1 X112.204 Y85.855 E0.01598
G1 X112.546 Y85.349 E0.01915
G1 X112.546 Y86.014 F10800.000
G1 F1200
G1 X112.869 Y85.541 E0.01794
G1 X113.306 Y85.166 E0.01805
G1 X113.822 Y84.919 E0.01794
G1 X114.385 Y84.815 E0.01794
G1 X135.504 Y84.811 E0.66217
G1 X136.317 Y84.970 E0.02597
G1 X137.010 Y85.416 E0.02586
G1 X137.491 Y86.091 E0.02597
G1 X137.686 Y86.892 E0.02586
G1 X137.688 Y123.015 E1.13260
G1 X137.627 Y123.514 E0.01578
G1 X137.454 Y123.986 E0.01578
G1 X137.126 Y124.465 E0.01817
G1 X136.688 Y124.838 E0.01805
G1 X136.164 Y125.085 E0.01817
G1 X135.594 Y125.187 E0.01817
G1 X116.224 Y125.188 E0.60731
G1 X115.732 Y125.126 E0.01555
G1 X115.264 Y124.954 E0.01567
G1 X114.796 Y124.636 E0.01771
G1 X114.426 Y124.209 E0.01771
G1 X114.177 Y123.702 E0.01771
G1 X114.067 Y123.152 E0.01760
G1 X112.313 Y90.090 E1.03808
G1 X112.315 Y86.876 E0.10079
G1 X112.531 Y86.071 E0.02611
G1 F8640
G1 X112.869 Y85.541 E-0.14526
G1 X113.306 Y85.166 E-0.13295
G1 X113.822 Y84.919 E-0.13211
G1 X114.385 Y84.815 E-0.13211
G1 X115.327 Y84.814 E-0.21755
G1 E-0.04000 F2100.00000
G1 Z0.800 F10800.000
G1 X134.136 Y121.636
G1 Z0.200
G1 E0.80000 F2100.00000
G1 F1200
G1 X133.224 Y121.636 E0.02859
G1 X133.224 Y94.026 E0.86569
G1 X117.214 Y94.026 E0.50198
G1 X117.214 Y89.036 E0.15646
G1 X115.864 Y89.036 E0.04233
G1 X115.864 Y88.364 E0.02106
G1 X134.136 Y88.364 E0.57290
G1 X134.136 Y121.576 E1.04133
G1 F8640
G1 X133.224 Y121.636 E-0.21097
G1 X133.224 Y119.258 E-0.54903
G1 E-0.04000 F2100.00000
G1 Z0.800 F10800.000
G1 X123.276 Y121.636
G1 Z0.200
G1 E0.80000 F2100.00000
G1 F1200
G1 X117.214 Y121.636 E0.19006
G1 X117.214 Y118.974 E0.08346
G1 X123.276 Y118.974 E0.19006
G1 X123.276 Y121.576 E0.08157
G1 X123.653 Y121.597 F10800.000
G1 F1200
G1 X132.847 Y121.597 E0.28828
G1 X132.847 Y94.403 E0.85265
G1 X116.837 Y94.403 E0.50198
G1 X116.837 Y89.413 E0.15646
G1 X115.487 Y89.413 E0.04233
G1 X115.487 Y87.987 E0.04471
G1 X134.513 Y87.987 E0.59654
G1 X134.513 Y122.013 E1.06686
G1 X116.837 Y122.013 E0.55421
G1 X116.837 Y118.597 E0.10710
G1 X123.653 Y118.597 E0.21371
G1 X123.653 Y121.537 E0.09218
G1 X124.030 Y121.220 F10800.000
G1 F1200
G1 X132.470 Y121.220 E0.26463
G1 X132.470 Y94.780 E0.82901
G1 X116.460 Y94.780 E0.50198
G1 X116.460 Y89.790 E0.15646
G1 X115.110 Y89.790 E0.04233
G1 X115.110 Y87.610 E0.06835
G1 X134.890 Y87.610 E0.62019
G1 X134.890 Y122.390 E1.09050
G1 X116.460 Y122.390 E0.57786
G1 X116.460 Y118.220 E0.13075
G1 X124.030 Y118.220 E0.23735
G1 X124.030 Y121.160 E0.09218
G1 X124.185 Y121.589 F10800.000
G1 F8640
G1 X127.321 Y121.183 E-0.76000
G1 E-0.04000 F2100.00000
G1 Z0.800 F10800.000
G1 X123.163 Y119.884
G1 Z0.200
G1 E0.80000 F2100.00000
G1 F1200
G1 X122.535 Y119.257 E0.02902
G1 X121.979 Y119.257 E0.01820
G1 X122.993 Y120.271 E0.04692
G1 X122.993 Y120.827 E0.01820
G1 X121.423 Y119.257 E0.07266
G1 X120.866 Y119.257 E0.01820
G1 X122.962 Y121.353 E0.09698
G1 X122.406 Y121.353 E0.01820
G1 X120.310 Y119.257 E0.09698
G1 X119.753 Y119.257 E0.01820
G1 X121.849 Y121.353 E0.09698
G1 X121.293 Y121.353 E0.01820
G1 X119.197 Y119.257 E0.09698
G1 X118.640 Y119.257 E0.01820
G1 X120.737 Y121.353 E0.09698
G1 X120.180 Y121.353 E0.01820
G1 X118.084 Y119.257 E0.09698
G1 X117.528 Y119.257 E0.01820
G1 X119.624 Y121.353 E0.09698
G1 X119.067 Y121.353 E0.01820
G1 X117.497 Y119.783 E0.07266
G1 X117.497 Y120.339 E0.01820
G1 X118.511 Y121.353 E0.04691
G1 X117.954 Y121.353 E0.01820
G1 X117.327 Y120.726 E0.02902
G1 F8640
G1 X117.954 Y121.353 E-0.20481
G1 X118.511 Y121.353 E-0.12848
G1 X117.497 Y120.339 E-0.33110
G1 X117.497 Y119.925 E-0.09562
G1 E-0.04000 F2100.00000
G1 Z0.800 F10800.000
G1 X133.337 Y120.756
G1 Z0.200
G1 E0.80000 F2100.00000
G1 F1200
G1 X133.853 Y121.271 E0.02301
G1 X133.853 Y120.735 E0.01693
G1 X133.507 Y120.389 E0.01544
G1 X133.507 Y119.852 E0.01693
G1 X133.853 Y120.198 E0.01544
G1 X133.853 Y119.661 E0.01693
G1 X133.507 Y119.315 E0.01544
G1 X133.507 Y118.779 E0.01693
G1 X133.853 Y119.125 E0.01544
G1 X133.853 Y118.588 E0.01693
G1 X133.507 Y118.242 E0.01544
G1 X133.507 Y117.706 E0.01693
G1 X133.853 Y118.052 E0.01544
G1 X133.853 Y117.515 E0.01693
G1 X133.507 Y117.169 E0.01544
G1 X133.507 Y116.632 E0.01693
G1 X133.853 Y116.978 E0.01544
G1 X133.853 Y116.442 E0.01693
G1 X133.507 Y116.096 E0.01544
G1 X133.507 Y115.559 E0.01693
G1 X133.853 Y115.905 E0.01544
G1 X133.853 Y115.369 E0.01693
G1 X133.507 Y115.023 E0.01544
G1 X133.507 Y114.486 E0.01693
G1 X133.853 Y114.832 E0.01544
G1 X133.853 Y114.295 E0.01693
G1 X133.507 Y113.949 E0.01544
G1 X133.507 Y113.413 E0.01693
G1 X133.853 Y113.759 E0.01544
G1 X133.853 Y113.222 E0.01693
G1 X133.507 Y112.876 E0.01544
G1 X133.507 Y112.339 E0.01693
G1 X133.853 Y112.686 E0.01544
G1 X133.853 Y112.149 E0.01693
G1 X133.507 Y111.803 E0.01544
G1 X133.507 Y111.266 E0.01693
G1 X133.853 Y111.612 E0.01544
G1 X133.853 Y111.076 E0.01693
G1 X133.507 Y110.730 E0.01544
G1 X133.507 Y110.193 E0.01693
G1 X133.853 Y110.539 E0.01544
G1 X133.853 Y110.003 E0.01693
G1 X133.507 Y109.656 E0.01544
G1 X133.507 Y109.120 E0.01693
G1 X133.853 Y109.466 E0.01544
G1 X133.853 Y108.929 E0.01693
G1 X133.507 Y108.583 E0.01544
G1 X133.507 Y108.047 E0.01693
G1 X133.853 Y108.393 E0.01544
G1 X133.853 Y107.856 E0.01693
G1 X133.507 Y107.510 E0.01544
G1 X133.507 Y106.973 E0.01693
G1 X133.853 Y107.320 E0.01544
G1 X133.853 Y106.783 E0.01693
G1 X133.507 Y106.437 E0.01544
G1 X133.507 Y105.900 E0.01693
G1 X133.853 Y106.246 E0.01544
G1 X133.853 Y105.710 E0.01693
G1 X133.507 Y105.364 E0.01544
G1 X133.507 Y104.827 E0.01693
G1 X133.853 Y105.173 E0.01544
G1 X133.853 Y104.636 E0.01693
G1 X133.507 Y104.290 E0.01544
G1 X133.507 Y103.754 E0.01693
G1 X133.853 Y104.100 E0.01544
G1 X133.853 Y103.563 E0.01693
G1 X133.507 Y103.217 E0.01544
G1 X133.507 Y102.681 E0.01693
G1 X133.853 Y103.027 E0.01544
G1 X133.853 Y102.490 E0.01693
G1 X133.507 Y102.144 E0.01544
G1 X133.507 Y101.607 E0.01693
G1 X133.853 Y101.953 E0.01544
G1 X133.853 Y101.417 E0.01693
G1 X133.507 Y101.071 E0.01544
G1 X133.507 Y100.534 E0.01693
G1 X133.853 Y100.880 E0.01544
G1 X133.853 Y100.344 E0.01693
G1 X133.507 Y99.998 E0.01544
G1 X133.507 Y99.461 E0.01693
G1 X133.853 Y99.807 E0.01544
G1 X133.853 Y99.270 E0.01693
G1 X133.507 Y98.924 E0.01544
G1 X133.507 Y98.388 E0.01693
G1 X133.853 Y98.734 E0.01544
G1 X133.853 Y98.197 E0.01693
G1 X133.507 Y97.851 E0.01544
G1 X133.507 Y97.314 E0.01693
G1 X133.853 Y97.661 E0.01544
G1 X133.853 Y97.124 E0.01693
G1 X133.507 Y96.778 E0.01544
G1 X133.507 Y96.241 E0.01693
G1 X133.853 Y96.587 E0.01544
G1 X133.853 Y96.051 E0.01693
G1 X133.507 Y95.705 E0.01544
G1 X133.507 Y95.168 E0.01693
G1 X133.853 Y95.514 E0.01544
G1 X133.853 Y94.978 E0.01693
G1 X133.507 Y94.631 E0.01544
G1 X133.507 Y94.095 E0.01693
G1 X133.853 Y94.441 E0.01544
G1 X133.853 Y93.904 E0.01693
G1 X128.596 Y88.647 E0.23458
G1 X129.132 Y88.647 E0.01693
G1 X133.853 Y93.368 E0.21064
G1 X133.853 Y92.831 E0.01693
G1 X129.669 Y88.647 E0.18669
G1 X130.206 Y88.647 E0.01693
G1 X133.853 Y92.294 E0.16275
G1 X133.853 Y91.758 E0.01693
G1 X130.742 Y88.647 E0.13881
G1 X131.279 Y88.647 E0.01693
G1 X133.853 Y91.221 E0.11486
G1 X133.853 Y90.685 E0.01693
G1 X131.815 Y88.647 E0.09092
G1 X132.352 Y88.647 E0.01693
G1 X133.853 Y90.148 E0.06698
G1 X133.853 Y89.611 E0.01693
G1 X132.889 Y88.647 E0.04304
G1 X133.425 Y88.647 E0.01693
G1 X134.023 Y89.245 E0.02666
G1 F8640
G1 X133.425 Y88.647 E-0.19514
G1 X132.889 Y88.647 E-0.12390
G1 X133.853 Y89.611 E-0.31496
G1 X133.853 Y90.148 E-0.12390
G1 X133.847 Y90.142 E-0.00209
G1 E-0.04000 F2100.00000
G1 Z0.800 F10800.000
G1 X133.325 Y93.913
G1 Z0.200
G1 E0.80000 F2100.00000
G1 F1200
G1 X128.059 Y88.647 E0.23496
G1 X127.522 Y88.647 E0.01693
G1 X132.619 Y93.743 E0.22738
G1 X132.082 Y93.743 E0.01693
G1 X126.986 Y88.647 E0.22738
G1 X126.449 Y88.647 E0.01693
G1 X131.545 Y93.743 E0.22738
G1 X131.009 Y93.743 E0.01693
G1 X125.913 Y88.647 E0.22738
G1 X125.376 Y88.647 E0.01693
G1 X130.472 Y93.743 E0.22738
G1 X129.936 Y93.743 E0.01693
G1 X124.839 Y88.647 E0.22738
G1 X124.303 Y88.647 E0.01693
G1 X129.399 Y93.743 E0.22738
G1 X128.862 Y93.743 E0.01693
G1 X123.766 Y88.647 E0.22738
M73 Q2 S38
G1 X123.230 Y88.647 E0.01693
G1 X128.326 Y93.743 E0.22738
M73 P2 R37
G1 X127.789 Y93.743 E0.01693
G1 X122.693 Y88.647 E0.22738
G1 X122.156 Y88.647 E0.01693
G1 X127.252 Y93.743 E0.22738
G1 X126.716 Y93.743 E0.01693
G1 X121.620 Y88.647 E0.22738
G1 X121.083 Y88.647 E0.01693
G1 X126.179 Y93.743 E0.22738
G1 X125.643 Y93.743 E0.01693
G1 X120.547 Y88.647 E0.22738
G1 X120.010 Y88.647 E0.01693
G1 X125.106 Y93.743 E0.22738
G1 X124.569 Y93.743 E0.01693
G1 X119.473 Y88.647 E0.22738
G1 X118.937 Y88.647 E0.01693
G1 X124.033 Y93.743 E0.22738
G1 X123.496 Y93.743 E0.01693
G1 X118.400 Y88.647 E0.22738
G1 X117.864 Y88.647 E0.01693
G1 X122.960 Y93.743 E0.22738
G1 X122.423 Y93.743 E0.01693
G1 X117.685 Y89.006 E0.21139
G1 X117.685 Y89.152 E0.00461
G1 X117.497 Y89.152 E0.00595
G1 X117.497 Y89.354 E0.00637
G1 X121.886 Y93.743 E0.19585
G1 X121.350 Y93.743 E0.01693
G1 X117.497 Y89.890 E0.17191
G1 X117.497 Y90.427 E0.01693
G1 X120.813 Y93.743 E0.14797
G1 X120.277 Y93.743 E0.01693
G1 X117.497 Y90.963 E0.12403
G1 X117.497 Y91.500 E0.01693
G1 X119.740 Y93.743 E0.10008
G1 X119.203 Y93.743 E0.01693
G1 X117.497 Y92.037 E0.07614
G1 X117.497 Y92.573 E0.01693
G1 X118.667 Y93.743 E0.05220
G1 X118.130 Y93.743 E0.01693
G1 X117.497 Y93.110 E0.02825
G1 X117.497 Y93.646 E0.01693
G1 X117.763 Y93.913 E0.01188
G1 F8640
G1 X117.497 Y93.646 E-0.08696
G1 X117.497 Y93.110 E-0.12390
G1 X118.130 Y93.743 E-0.20678
G1 X118.667 Y93.743 E-0.12390
G1 X117.998 Y93.074 E-0.21846
G1 E-0.04000 F2100.00000
G1 Z0.800 F10800.000
G1 X117.403 Y88.700
G1 Z0.200
G1 E0.80000 F2100.00000
G1 F1200
G1 X116.053 Y88.700 E0.03307
;BEFORE_LAYER_CHANGE
G92 E0.0
;0.4


G1 F8640
G1 X117.403 Y88.700 E-0.31172
G1 E-0.48828 F2100.00000
G1 Z0.800 F10800.000
;AFTER_LAYER_CHANGE
;0.4
M104 S250 ; set temperature
M140 S90 ; set bed temperature
G1 X136.450 Y84.617
G1 Z0.400
G1 E0.80000 F2100.00000
G1 F3000
G1 X137.263 Y85.136 E0.03022
G1 X137.826 Y85.917 E0.03022
G1 X138.061 Y86.852 E0.03022
G1 X138.066 Y123.020 E1.13402
G1 X137.995 Y123.596 E0.01820
G1 X137.796 Y124.145 E0.01832
G1 X137.415 Y124.707 E0.02128
G1 X136.904 Y125.147 E0.02116
G1 X136.296 Y125.439 E0.02116
G1 X135.628 Y125.562 E0.02128
G1 X116.218 Y125.565 E0.60858
G1 X115.646 Y125.494 E0.01808
G1 X115.105 Y125.296 E0.01808
G1 X114.555 Y124.926 E0.02079
G1 X114.118 Y124.427 E0.02079
G1 X113.823 Y123.833 E0.02079
G1 X113.691 Y123.187 E0.02066
G1 X111.936 Y90.100 E1.03888
G1 X111.940 Y86.838 E0.10229
G1 X112.023 Y86.331 E0.01610
G1 X112.204 Y85.855 E0.01598
G1 X112.580 Y85.299 E0.02103
G1 X113.083 Y84.861 E0.02091
G1 X113.686 Y84.567 E0.02103
G1 X114.344 Y84.439 E0.02103
G1 X135.504 Y84.434 E0.66345
G1 X136.391 Y84.605 E0.02834
G1 F8640
G1 X137.263 Y85.136 E-0.23547
G1 X137.826 Y85.917 E-0.22253
G1 X138.061 Y86.852 E-0.22253
G1 X138.061 Y87.196 E-0.07947
G1 E-0.04000 F2100.00000
G1 Z1.000 F10800.000
G1 X134.261 Y121.761
G1 Z0.400
G1 E0.80000 F2100.00000
M204 S800
G1 F2700
G1 X133.299 Y121.761 E0.03255
G1 X133.299 Y93.951 E0.94134
G1 X117.289 Y93.951 E0.54192
G1 X117.289 Y88.961 E0.16891
G1 X115.739 Y88.961 E0.05247
G1 X115.739 Y88.239 E0.02443
G1 X134.261 Y88.239 E0.62694
G1 X134.261 Y121.701 E1.13264
M204 S1000
G1 F8640
G1 X133.299 Y121.761 E-0.22249
G1 X133.299 Y119.433 E-0.53751
G1 E-0.04000 F2100.00000
G1 Z1.000 F10800.000
G1 X123.201 Y121.761
G1 Z0.400
G1 E0.80000 F2100.00000
M204 S800
G1 F1500
G1 X117.289 Y121.761 E0.20010
G1 X117.289 Y119.049 E0.09179
G1 X123.201 Y119.049 E0.20010
G1 X123.201 Y121.701 E0.08976
M204 S1000
G1 X123.608 Y121.642 F10800.000
M204 S800
G1 F2700
G1 X132.892 Y121.642 E0.31426
G1 X132.892 Y94.358 E0.92354
G1 X116.882 Y94.358 E0.54192
G1 X116.882 Y89.368 E0.16891
G1 X115.332 Y89.368 E0.05247
G1 X115.332 Y87.832 E0.05199
G1 X134.668 Y87.832 E0.65450
G1 X134.668 Y122.168 E1.16223
G1 X116.882 Y122.168 E0.60203
G1 X116.882 Y118.642 E0.11935
G1 X123.608 Y118.642 E0.22766
G1 X123.608 Y121.582 E0.09952
M204 S1000
G1 X124.015 Y121.235 F10800.000
M204 S800
G1 F1500
G1 X132.485 Y121.235 E0.28670
G1 X132.485 Y94.765 E0.89598
G1 X116.475 Y94.765 E0.54192
G1 X116.475 Y89.775 E0.16891
G1 X114.925 Y89.775 E0.05247
G1 X114.925 Y87.425 E0.07954
G1 X135.075 Y87.425 E0.68205
G1 X135.075 Y122.575 E1.18979
G1 X116.475 Y122.575 E0.62959
G1 X116.475 Y118.235 E0.14690
G1 X124.015 Y118.235 E0.25522
G1 X124.015 Y121.175 E0.09952
M204 S1000
G1 X124.170 Y121.604 F10800.000
G1 X123.404 Y121.905
G1 F2400
G1 X133.096 Y121.905 E0.09570
G1 X133.421 Y121.527 F10800.000
M204 S1250
G1 F4493
G1 X133.956 Y120.993 E0.02577
G1 X133.956 Y120.412 E0.01978
G1 X133.604 Y120.764 E0.01693
G1 X133.604 Y120.184 E0.01978
G1 X133.956 Y119.832 E0.01693
G1 X133.956 Y119.252 E0.01978
G1 X133.604 Y119.603 E0.01693
G1 X133.604 Y119.023 E0.01978
G1 X133.956 Y118.672 E0.01693
G1 X133.956 Y118.092 E0.01978
G1 X133.604 Y118.443 E0.01693
G1 X133.604 Y117.863 E0.01978
G1 X133.956 Y117.512 E0.01693
G1 X133.956 Y116.932 E0.01978
G1 X133.604 Y117.283 E0.01693
G1 X133.604 Y116.703 E0.01978
G1 X133.956 Y116.352 E0.01693
G1 X133.956 Y115.772 E0.01978
G1 X133.604 Y116.123 E0.01693
G1 X133.604 Y115.543 E0.01978
G1 X133.956 Y115.192 E0.01693
G1 X133.956 Y114.612 E0.01978
G1 X133.604 Y114.963 E0.01693
G1 X133.604 Y114.383 E0.01978
G1 X133.956 Y114.032 E0.01693
G1 X133.956 Y113.452 E0.01978
G1 X133.604 Y113.803 E0.01693
G1 X133.604 Y113.223 E0.01978
G1 X133.956 Y112.872 E0.01693
G1 X133.956 Y112.292 E0.01978
G1 X133.604 Y112.643 E0.01693
G1 X133.604 Y112.063 E0.01978
G1 X133.956 Y111.712 E0.01693
G1 X133.956 Y111.132 E0.01978
G1 X133.604 Y111.483 E0.01693
G1 X133.604 Y110.903 E0.01978
G1 X133.956 Y110.552 E0.01693
G1 X133.956 Y109.972 E0.01978
G1 X133.604 Y110.323 E0.01693
G1 X133.604 Y109.743 E0.01978
G1 X133.956 Y109.392 E0.01693
