; generated by PrusaSlicer 2.0.0+win64 on 2019-08-18 at 09:46:31

; 

; external perimeters extrusion width = 0.45mm
; perimeters extrusion width = 0.45mm
; infill extrusion width = 0.45mm
; solid infill extrusion width = 0.45mm
; top infill extrusion width = 0.40mm
; first layer extrusion width = 0.42mm

M73 P0 R39
M73 Q0 S39
M201 X1000 Y1000 Z1000 E5000 ; sets maximum accelerations, mm/sec^2
M203 X200 Y200 Z12 E120 ; sets maximum feedrates, mm/sec
M204 P1250 R1250 T1250 ; sets acceleration (P, T) and retract acceleration (R), mm/sec^2
M205 X8.00 Y8.00 Z0.40 E1.50 ; sets the jerk limits, mm/sec
M205 S0 T0 ; sets the minimum extruding and travel feed rate, mm/sec
M107
M115 U3.7.2 ; tell printer latest fw version
G90 ; use absolute coordinates
M83 ; extruder relative mode
M104 S240 ; set extruder temp
M140 S85 ; set bed temp
Tx
M190 S85 ; wait for bed temp
M109 S240 ; wait for extruder temp
G28 W ; home all without mesh bed level
G80 ; mesh bed leveling

G21 ; set units to millimeters

;go outside print area
G1 Y-3.0 F1000.0
G1 Z0.4 F1000.0
; select extruder
Tc
; purge line
G1 X55.0 F2000.0
G1 Z0.3 F1000.0
G92 E0.0
G1 X240.0 E25.0 F2200.0
M73 Q0 S39
M73 P0 R39
G1 Y-2.0 F1000.0
G1 X55.0 E25 F1400.0
G1 Z0.20 F1000.0
G1 X5.0 E4.0 F1000.0

M221 S95
G92 E0.0
M900 K45 ; Filament gcode
G21 ; set units to millimeters
G90 ; use absolute coordinates
M83 ; use relative distances for extrusion
;BEFORE_LAYER_CHANGE
G92 E0.0
;0.2


G1 E-0.80000 F2100.00000
G1 Z0.600 F10800.000
;AFTER_LAYER_CHANGE
;0.2
G1 X114.376 Y85.248
G1 Z0.200
G1 E0.80000 F2100.00000
M204 S1000
G1 F1200
G1 X114.870 Y84.837 E0.02017
G1 X115.456 Y84.560 E0.02029
G1 X116.092 Y84.439 E0.02029
G1 X135.504 Y84.434 E0.60866
G1 X136.450 Y84.617 E0.03022
G1 X137.265 Y85.138 E0.03034
G1 X137.828 Y85.921 E0.03022
G1 X138.062 Y86.856 E0.03022
G1 X138.066 Y123.020 E1.13389
G1 X137.984 Y123.642 E0.01968
G1 X137.754 Y124.226 E0.01968
G1 X137.367 Y124.760 E0.02066
G1 X136.857 Y125.177 E0.02066
G1 X136.258 Y125.451 E0.02066
G1 X135.608 Y125.563 E0.02066
G1 X114.464 Y125.565 E0.66296
G1 X113.850 Y125.482 E0.01943
G1 X113.274 Y125.254 E0.01943
G1 X112.838 Y124.954 E0.01660
G1 X112.472 Y124.571 E0.01660
G1 X112.194 Y124.125 E0.01647
G1 X112.013 Y123.628 E0.01660
G1 X111.935 Y123.053 E0.01820
G1 X111.935 Y119.953 E0.09722
G1 X113.689 Y86.844 E1.03954
G1 X113.784 Y86.292 E0.01758
G1 X113.997 Y85.773 E0.01758
G1 X114.341 Y85.297 E0.01841
G1 F8640
G1 X114.870 Y84.837 E-0.16200
G1 X115.456 Y84.560 E-0.14945
G1 X116.092 Y84.439 E-0.14945
G1 X117.387 Y84.439 E-0.29910
G1 E-0.04000 F2100.00000
G1 Z0.800 F10800.000
G1 X112.754 Y124.320
G1 Z0.200
G1 E0.80000 F2100.00000
G1 F1200
G1 X112.367 Y123.488 E0.02878
G1 X112.312 Y119.949 E0.11098
G1 X114.065 Y86.870 E1.03863
G1 X114.147 Y86.395 E0.01510
G1 X114.332 Y85.947 E0.01521
G1 X114.658 Y85.499 E0.01737
G1 X115.086 Y85.147 E0.01737
G1 X115.588 Y84.914 E0.01737
G1 X116.134 Y84.815 E0.01737
G1 X135.504 Y84.811 E0.60734
G1 X136.317 Y84.970 E0.02597
G1 X137.010 Y85.416 E0.02586
G1 X137.491 Y86.091 E0.02597
G1 X137.686 Y86.892 E0.02586
G1 X137.688 Y123.015 E1.13260
G1 X137.618 Y123.550 E0.01692
G1 X137.418 Y124.054 E0.01703
G1 X137.084 Y124.510 E0.01771
G1 X136.648 Y124.863 E0.01760
G1 X136.133 Y125.095 E0.01771
G1 X135.579 Y125.187 E0.01760
G1 X114.474 Y125.188 E0.66172
G1 X113.943 Y125.117 E0.01680
G1 X113.446 Y124.918 E0.01680
G1 X112.800 Y124.359 E0.02678
G1 F8640
G1 X112.367 Y123.488 E-0.22464
G1 X112.331 Y121.170 E-0.53536
G1 E-0.04000 F2100.00000
G1 Z0.800 F10800.000
G1 X134.136 Y121.636
G1 Z0.200
G1 E0.80000 F2100.00000
G1 F1200
G1 X115.864 Y121.636 E0.57290
G1 X115.864 Y120.964 E0.02106
G1 X117.214 Y120.964 E0.04233
G1 X117.214 Y115.974 E0.15646
G1 X133.224 Y115.974 E0.50198
G1 X133.224 Y88.364 E0.86569
G1 X134.136 Y88.364 E0.02859
G1 X134.136 Y121.576 E1.04133
G1 F8640
G1 X130.844 Y121.587 E-0.76000
G1 E-0.04000 F2100.00000
G1 Z0.800 F10800.000
G1 X123.276 Y91.026
G1 Z0.200
G1 E0.80000 F2100.00000
G1 F1200
G1 X117.214 Y91.026 E0.19006
G1 X117.214 Y88.364 E0.08346
G1 X123.276 Y88.364 E0.19006
G1 X123.276 Y90.966 E0.08157
G1 F8640
G1 X119.985 Y90.998 E-0.76000
G1 E-0.04000 F2100.00000
G1 Z0.800 F10800.000
G1 X116.837 Y120.587
G1 Z0.200
G1 E0.80000 F2100.00000
G1 F1200
G1 X116.837 Y115.597 E0.15646
G1 X132.847 Y115.597 E0.50198
G1 X132.847 Y88.403 E0.85265
G1 X123.653 Y88.403 E0.28828
G1 X123.653 Y91.403 E0.09406
G1 X116.837 Y91.403 E0.21371
G1 X116.837 Y87.987 E0.10710
G1 X134.513 Y87.987 E0.55421
G1 X134.513 Y122.013 E1.06686
G1 X115.487 Y122.013 E0.59654
G1 X115.487 Y120.587 E0.04471
G1 X116.777 Y120.587 E0.04045
G1 X116.460 Y120.210 F10800.000
G1 F1200
G1 X116.460 Y115.220 E0.15646
G1 X132.470 Y115.220 E0.50198
G1 X132.470 Y88.780 E0.82901
G1 X124.030 Y88.780 E0.26463
G1 X124.030 Y91.780 E0.09406
G1 X116.460 Y91.780 E0.23735
G1 X116.460 Y87.610 E0.13075
G1 X134.890 Y87.610 E0.57786
G1 X134.890 Y122.390 E1.09050
G1 X115.110 Y122.390 E0.62019
G1 X115.110 Y120.210 E0.06835
G1 X116.400 Y120.210 E0.04045
G1 X116.837 Y120.077 F10800.000
G1 X117.327 Y120.571
G1 F1200
G1 X118.109 Y121.353 E0.03468
G1 X118.642 Y121.353 E0.01674
G1 X117.497 Y120.208 E0.05083
G1 X117.497 Y119.674 E0.01674
G1 X119.176 Y121.353 E0.07451
G1 X119.710 Y121.353 E0.01674
G1 X117.497 Y119.140 E0.09818
G1 X117.497 Y118.607 E0.01674
G1 X120.243 Y121.353 E0.12186
G1 X120.777 Y121.353 E0.01674
G1 X117.497 Y118.073 E0.14554
G1 X117.497 Y117.539 E0.01674
G1 X121.311 Y121.353 E0.16922
G1 X121.844 Y121.353 E0.01674
G1 X117.497 Y117.006 E0.19290
G1 X117.497 Y116.472 E0.01674
G1 X122.378 Y121.353 E0.21658
G1 X122.912 Y121.353 E0.01674
G1 X117.815 Y116.257 E0.22612
G1 X118.349 Y116.257 E0.01674
G1 X123.445 Y121.353 E0.22612
G1 X123.979 Y121.353 E0.01674
G1 X118.883 Y116.257 E0.22612
G1 X119.416 Y116.257 E0.01674
G1 X124.512 Y121.353 E0.22612
G1 X125.046 Y121.353 E0.01674
G1 X119.950 Y116.257 E0.22612
G1 X120.484 Y116.257 E0.01674
G1 X125.580 Y121.353 E0.22612
G1 X126.113 Y121.353 E0.01674
G1 X121.017 Y116.257 E0.22612
G1 X121.551 Y116.257 E0.01674
G1 X126.647 Y121.353 E0.22612
G1 X127.181 Y121.353 E0.01674
G1 X122.084 Y116.257 E0.22612
G1 X122.618 Y116.257 E0.01674
G1 X127.714 Y121.353 E0.22612
G1 X128.248 Y121.353 E0.01674
G1 X123.152 Y116.257 E0.22612
G1 X123.685 Y116.257 E0.01674
G1 X128.781 Y121.353 E0.22612
G1 X129.315 Y121.353 E0.01674
G1 X124.219 Y116.257 E0.22612
G1 X124.753 Y116.257 E0.01674
G1 X129.849 Y121.353 E0.22612
G1 X130.382 Y121.353 E0.01674
G1 X125.286 Y116.257 E0.22612
G1 X125.820 Y116.257 E0.01674
G1 X130.916 Y121.353 E0.22612
G1 X131.450 Y121.353 E0.01674
G1 X126.354 Y116.257 E0.22612
G1 X126.887 Y116.257 E0.01674
G1 X131.983 Y121.353 E0.22612
G1 X132.517 Y121.353 E0.01674
G1 X127.421 Y116.257 E0.22612
G1 X127.954 Y116.257 E0.01674
G1 X133.051 Y121.353 E0.22612
G1 X133.584 Y121.353 E0.01674
G1 X128.488 Y116.257 E0.22612
G1 X129.022 Y116.257 E0.01674
G1 X133.853 Y121.088 E0.21438
G1 X133.853 Y120.555 E0.01674
G1 X129.555 Y116.257 E0.19070
M73 Q2 S38
G1 X130.089 Y116.257 E0.01674
G1 X133.853 Y120.021 E0.16702
G1 X133.853 Y119.487 E0.01674
G1 X130.623 Y116.257 E0.14334
M73 P2 R38
G1 X131.156 Y116.257 E0.01674
G1 X133.853 Y118.954 E0.11966
G1 X133.853 Y118.420 E0.01674
G1 X131.690 Y116.257 E0.09599
G1 X132.223 Y116.257 E0.01674
G1 X133.853 Y117.887 E0.07231
G1 X133.853 Y117.353 E0.01674
G1 X132.757 Y116.257 E0.04863
G1 X133.291 Y116.257 E0.01674
G1 X133.853 Y116.819 E0.02495
G1 X133.853 Y116.286 E0.01674
G1 X133.507 Y115.940 E0.01536
G1 X133.507 Y115.406 E0.01674
G1 X133.853 Y115.752 E0.01536
G1 X133.853 Y115.218 E0.01674
G1 X133.507 Y114.872 E0.01536
G1 X133.507 Y114.339 E0.01674
G1 X133.853 Y114.685 E0.01536
G1 X133.853 Y114.151 E0.01674
G1 X133.507 Y113.805 E0.01536
G1 X133.507 Y113.271 E0.01674
G1 X133.853 Y113.617 E0.01536
G1 X133.853 Y113.084 E0.01674
G1 X133.507 Y112.738 E0.01536
G1 X133.507 Y112.204 E0.01674
G1 X133.853 Y112.550 E0.01536
G1 X133.853 Y112.017 E0.01674
G1 X133.507 Y111.670 E0.01536
G1 X133.507 Y111.137 E0.01674
G1 X133.853 Y111.483 E0.01536
G1 X133.853 Y110.949 E0.01674
G1 X133.507 Y110.603 E0.01536
G1 X133.507 Y110.070 E0.01674
G1 X133.853 Y110.416 E0.01536
G1 X133.853 Y109.882 E0.01674
G1 X133.507 Y109.536 E0.01536
G1 X133.507 Y109.002 E0.01674
G1 X133.853 Y109.348 E0.01536
G1 X133.853 Y108.815 E0.01674
G1 X133.507 Y108.469 E0.01536
G1 X133.507 Y107.935 E0.01674
G1 X133.853 Y108.281 E0.01536
G1 X133.853 Y107.748 E0.01674
G1 X133.507 Y107.401 E0.01536
G1 X133.507 Y106.868 E0.01674
G1 X133.853 Y107.214 E0.01536
G1 X133.853 Y106.680 E0.01674
G1 X133.507 Y106.334 E0.01536
G1 X133.507 Y105.801 E0.01674
G1 X133.853 Y106.147 E0.01536
G1 X133.853 Y105.613 E0.01674
G1 X133.507 Y105.267 E0.01536
G1 X133.507 Y104.733 E0.01674
G1 X133.853 Y105.079 E0.01536
G1 X133.853 Y104.546 E0.01674
G1 X133.507 Y104.200 E0.01536
G1 X133.507 Y103.666 E0.01674
G1 X133.853 Y104.012 E0.01536
G1 X133.853 Y103.478 E0.01674
G1 X133.507 Y103.132 E0.01536
G1 X133.507 Y102.599 E0.01674
G1 X133.853 Y102.945 E0.01536
G1 X133.853 Y102.411 E0.01674
G1 X133.507 Y102.065 E0.01536
G1 X133.507 Y101.531 E0.01674
G1 X133.853 Y101.878 E0.01536
G1 X133.853 Y101.344 E0.01674
G1 X133.507 Y100.998 E0.01536
G1 X133.507 Y100.464 E0.01674
G1 X133.853 Y100.810 E0.01536
G1 X133.853 Y100.277 E0.01674
G1 X133.507 Y99.931 E0.01536
G1 X133.507 Y99.397 E0.01674
G1 X133.853 Y99.743 E0.01536
G1 X133.853 Y99.209 E0.01674
G1 X133.507 Y98.863 E0.01536
G1 X133.507 Y98.330 E0.01674
G1 X133.853 Y98.676 E0.01536
G1 X133.853 Y98.142 E0.01674
G1 X133.507 Y97.796 E0.01536
G1 X133.507 Y97.262 E0.01674
G1 X133.853 Y97.609 E0.01536
G1 X133.853 Y97.075 E0.01674
G1 X133.507 Y96.729 E0.01536
G1 X133.507 Y96.195 E0.01674
G1 X133.853 Y96.541 E0.01536
G1 X133.853 Y96.008 E0.01674
G1 X133.507 Y95.661 E0.01536
G1 X133.507 Y95.128 E0.01674
G1 X133.853 Y95.474 E0.01536
G1 X133.853 Y94.940 E0.01674
G1 X133.507 Y94.594 E0.01536
G1 X133.507 Y94.061 E0.01674
G1 X133.853 Y94.407 E0.01536
G1 X133.853 Y93.873 E0.01674
G1 X133.507 Y93.527 E0.01536
G1 X133.507 Y92.993 E0.01674
G1 X133.853 Y93.339 E0.01536
G1 X133.853 Y92.806 E0.01674
G1 X133.507 Y92.460 E0.01536
G1 X133.507 Y91.926 E0.01674
G1 X133.853 Y92.272 E0.01536
G1 X133.853 Y91.739 E0.01674
G1 X133.507 Y91.392 E0.01536
G1 X133.507 Y90.859 E0.01674
G1 X133.853 Y91.205 E0.01536
G1 X133.853 Y90.671 E0.01674
G1 X133.507 Y90.325 E0.01536
G1 X133.507 Y89.792 E0.01674
G1 X133.853 Y90.138 E0.01536
G1 X133.853 Y89.604 E0.01674
G1 X133.507 Y89.258 E0.01536
G1 X133.507 Y88.724 E0.01674
G1 X134.023 Y89.240 E0.02289
G1 F8640
G1 X133.507 Y88.724 E-0.16843
G1 X133.507 Y89.258 E-0.12322
G1 X133.853 Y89.604 E-0.11302
G1 X133.853 Y90.138 E-0.12322
G1 X133.507 Y89.792 E-0.11302
G1 X133.507 Y90.307 E-0.11909
G1 E-0.04000 F2100.00000
G1 Z0.800 F10800.000
G1 X123.163 Y89.274
G1 Z0.200
G1 E0.80000 F2100.00000
G1 F1200
G1 X122.535 Y88.647 E0.02902
G1 X121.979 Y88.647 E0.01820
G1 X122.993 Y89.661 E0.04692
G1 X122.993 Y90.217 E0.01820
G1 X121.423 Y88.647 E0.07266
G1 X120.866 Y88.647 E0.01820
G1 X122.962 Y90.743 E0.09698
G1 X122.406 Y90.743 E0.01820
G1 X120.310 Y88.647 E0.09698
G1 X119.753 Y88.647 E0.01820
G1 X121.849 Y90.743 E0.09698
G1 X121.293 Y90.743 E0.01820
G1 X119.197 Y88.647 E0.09698
G1 X118.640 Y88.647 E0.01820
G1 X120.737 Y90.743 E0.09698
G1 X120.180 Y90.743 E0.01820
G1 X118.084 Y88.647 E0.09698
G1 X117.528 Y88.647 E0.01820
G1 X119.624 Y90.743 E0.09698
G1 X119.067 Y90.743 E0.01820
G1 X117.497 Y89.173 E0.07266
G1 X117.497 Y89.729 E0.01820
G1 X118.511 Y90.743 E0.04691
G1 X117.954 Y90.743 E0.01820
G1 X117.327 Y90.116 E0.02902
G1 F8640
G1 X117.954 Y90.743 E-0.20481
G1 X118.511 Y90.743 E-0.12848
G1 X117.497 Y89.729 E-0.33109
G1 X117.497 Y89.315 E-0.09562
G1 E-0.04000 F2100.00000
G1 Z0.800 F10800.000
G1 X117.403 Y121.300
G1 Z0.200
G1 E0.80000 F2100.00000
G1 F1200
G1 X116.053 Y121.300 E0.03307
;BEFORE_LAYER_CHANGE
G92 E0.0
;0.4


G1 F8640
G1 X117.403 Y121.300 E-0.31172
G1 E-0.48828 F2100.00000
G1 Z0.800 F10800.000
;AFTER_LAYER_CHANGE
;0.4
M104 S250 ; set temperature
M140 S90 ; set bed temperature
G1 X136.450 Y84.617
G1 Z0.400
G1 E0.80000 F2100.00000
G1 F3000
G1 X137.265 Y85.138 E0.03034
G1 X137.828 Y85.921 E0.03022
G1 X138.062 Y86.856 E0.03022
G1 X138.066 Y123.020 E1.13389
G1 X137.984 Y123.642 E0.01968
G1 X137.754 Y124.226 E0.01968
G1 X137.367 Y124.760 E0.02066
G1 X136.857 Y125.177 E0.02066
G1 X136.258 Y125.451 E0.02066
G1 X135.608 Y125.563 E0.02066
G1 X114.464 Y125.565 E0.66296
G1 X113.850 Y125.482 E0.01943
G1 X113.274 Y125.254 E0.01943
G1 X112.838 Y124.954 E0.01660
G1 X112.472 Y124.571 E0.01660
G1 X112.194 Y124.125 E0.01647
G1 X112.013 Y123.628 E0.01660
G1 X111.935 Y123.053 E0.01820
G1 X111.935 Y119.953 E0.09722
G1 X113.689 Y86.844 E1.03954
G1 X113.784 Y86.292 E0.01758
G1 X113.997 Y85.773 E0.01758
G1 X114.376 Y85.248 E0.02029
G1 X114.870 Y84.837 E0.02017
G1 X115.456 Y84.560 E0.02029
G1 X116.092 Y84.439 E0.02029
G1 X135.504 Y84.434 E0.60866
G1 X136.391 Y84.605 E0.02834
G1 F8640
G1 X137.265 Y85.138 E-0.23636
G1 X137.828 Y85.921 E-0.22253
G1 X138.062 Y86.856 E-0.22253
G1 X138.062 Y87.196 E-0.07858
G1 E-0.04000 F2100.00000
G1 Z1.000 F10800.000
G1 X134.261 Y121.761
G1 Z0.400
G1 E0.80000 F2100.00000
M204 S800
G1 F2700
G1 X115.739 Y121.761 E0.62694
G1 X115.739 Y121.039 E0.02443
G1 X117.289 Y121.039 E0.05247
G1 X117.289 Y116.049 E0.16891
G1 X133.299 Y116.049 E0.54192
G1 X133.299 Y88.239 E0.94134
G1 X134.261 Y88.239 E0.03255
G1 X134.261 Y121.701 E1.13264
M204 S1000
G1 F8640
G1 X130.969 Y121.712 E-0.76000
G1 E-0.04000 F2100.00000
G1 Z1.000 F10800.000
G1 X123.201 Y90.951
G1 Z0.400
G1 E0.80000 F2100.00000
M204 S800
G1 F1500
G1 X117.289 Y90.951 E0.20010
G1 X117.289 Y88.239 E0.09179
G1 X123.201 Y88.239 E0.20010
G1 X123.201 Y90.891 E0.08976
M204 S1000
G1 F8640
G1 X119.910 Y90.924 E-0.76000
G1 E-0.04000 F2100.00000
G1 Z1.000 F10800.000
G1 X116.882 Y120.632
G1 Z0.400
G1 E0.80000 F2100.00000
M204 S800
G1 F2700
G1 X116.882 Y115.642 E0.16891
G1 X132.892 Y115.642 E0.54192
G1 X132.892 Y88.358 E0.92354
G1 X123.608 Y88.358 E0.31426
G1 X123.608 Y91.358 E0.10155
G1 X116.882 Y91.358 E0.22766
G1 X116.882 Y87.832 E0.11935
G1 X134.668 Y87.832 E0.60203
G1 X134.668 Y122.168 E1.16223
G1 X115.332 Y122.168 E0.65450
G1 X115.332 Y120.632 E0.05199
G1 X116.822 Y120.632 E0.05043
M204 S1000
G1 X116.475 Y120.225 F10800.000
M204 S800
G1 F1500
G1 X116.475 Y115.235 E0.16891
G1 X132.485 Y115.235 E0.54192
G1 X132.485 Y88.765 E0.89598
G1 X124.015 Y88.765 E0.28670
G1 X124.015 Y91.765 E0.10155
G1 X116.475 Y91.765 E0.25522
G1 X116.475 Y87.425 E0.14690
G1 X135.075 Y87.425 E0.62959
G1 X135.075 Y122.575 E1.18979
G1 X114.925 Y122.575 E0.68205
G1 X114.925 Y120.225 E0.07954
G1 X116.415 Y120.225 E0.05043
M204 S1000
G1 X116.854 Y120.096 F10800.000
G1 F8640
G1 X116.455 Y116.934 E-0.76000
G1 E-0.04000 F2100.00000
G1 Z1.000 F10800.000
G1 X115.943 Y121.400
G1 Z0.400
G1 E0.80000 F2100.00000
G1 F2400
G1 X117.493 Y121.400 E0.04055
G1 F8640
G1 X115.943 Y121.400 E-0.35790
G1 E-0.44210 F2100.00000
G1 Z1.000 F10800.000
G1 X117.988 Y116.171
G1 Z0.400
G1 E0.80000 F2100.00000
M204 S1250
G1 F4800
G1 X117.594 Y116.565 E0.01891
G1 X117.594 Y117.143 E0.01961
G1 X118.383 Y116.354 E0.03785
G1 X118.960 Y116.354 E0.01961
G1 X117.594 Y117.720 E0.06558
G1 X117.594 Y118.298 E0.01961
G1 X119.538 Y116.354 E0.09332
G1 X120.115 Y116.354 E0.01961
G1 X117.594 Y118.875 E0.12106
G1 X117.594 Y119.453 E0.01961
G1 X120.693 Y116.354 E0.14880
G1 X121.270 Y116.354 E0.01961
G1 X117.594 Y120.030 E0.17653
G1 X117.594 Y120.608 E0.01961
G1 X121.848 Y116.354 E0.20427
G1 X122.425 Y116.354 E0.01961
G1 X117.798 Y120.982 E0.22223
G1 X117.798 Y121.456 E0.01608
G1 X117.902 Y121.456 E0.00353
G1 X123.003 Y116.354 E0.24498
G1 X123.581 Y116.354 E0.01961
G1 X118.480 Y121.456 E0.24498
G1 X119.057 Y121.456 E0.01961
G1 X124.158 Y116.354 E0.24498
G1 X124.736 Y116.354 E0.01961
G1 X119.635 Y121.456 E0.24498
G1 X120.212 Y121.456 E0.01961
G1 X125.313 Y116.354 E0.24498
G1 X125.891 Y116.354 E0.01961
G1 X120.790 Y121.456 E0.24498
G1 X121.367 Y121.456 E0.01961
G1 X126.468 Y116.354 E0.24498
G1 X127.046 Y116.354 E0.01961
G1 X121.945 Y121.456 E0.24498
G1 X122.522 Y121.456 E0.01961
