; generated by PrusaSlicer 2.0.0+win64 on 2019-08-19 at 22:00:59

; 

; external perimeters extrusion width = 0.45mm
; perimeters extrusion width = 0.45mm
; infill extrusion width = 0.45mm
; solid infill extrusion width = 0.45mm
; top infill extrusion width = 0.40mm
; first layer extrusion width = 0.42mm

M73 P0 R38
M73 Q0 S38
M201 X1000 Y1000 Z1000 E5000 ; sets maximum accelerations, mm/sec^2
M203 X200 Y200 Z12 E120 ; sets maximum feedrates, mm/sec
M204 P1250 R1250 T1250 ; sets acceleration (P, T) and retract acceleration (R), mm/sec^2
M205 X8.00 Y8.00 Z0.40 E1.50 ; sets the jerk limits, mm/sec
M205 S0 T0 ; sets the minimum extruding and travel feed rate, mm/sec
M107
M115 U3.7.2 ; tell printer latest fw version
G90 ; use absolute coordinates
M83 ; extruder relative mode
M104 S240 ; set extruder temp
M140 S85 ; set bed temp
Tx
M190 S85 ; wait for bed temp
M109 S240 ; wait for extruder temp
G28 W ; home all without mesh bed level
G80 ; mesh bed leveling

G21 ; set units to millimeters

;go outside print area
G1 Y-3.0 F1000.0
G1 Z0.4 F1000.0
; select extruder
Tc
; purge line
G1 X55.0 F2000.0
G1 Z0.3 F1000.0
G92 E0.0
G1 X240.0 E25.0 F2200.0
M73 Q0 S38
M73 P0 R38
G1 Y-2.0 F1000.0
G1 X55.0 E25 F1400.0
G1 Z0.20 F1000.0
G1 X5.0 E4.0 F1000.0

M221 S95
G92 E0.0
M900 K45 ; Filament gcode
G21 ; set units to millimeters
G90 ; use absolute coordinates
M83 ; use relative distances for extrusion
;BEFORE_LAYER_CHANGE
G92 E0.0
;0.2


G1 E-0.80000 F2100.00000
G1 Z0.600 F10800.000
;AFTER_LAYER_CHANGE
;0.2
G1 X114.344 Y85.283
G1 Z0.200
G1 E0.80000 F2100.00000
M204 S1000
G1 F1200
G1 X114.841 Y84.856 E0.02054
G1 X115.429 Y84.569 E0.02054
G1 X116.068 Y84.441 E0.02042
G1 X133.404 Y84.434 E0.54356
G1 X134.347 Y84.615 E0.03010
G1 X135.160 Y85.133 E0.03022
G1 X135.723 Y85.910 E0.03010
G1 X135.961 Y86.844 E0.03022
G1 X135.966 Y120.920 E1.06842
G1 X135.891 Y121.515 E0.01882
G1 X135.678 Y122.081 E0.01894
G1 X135.297 Y122.628 E0.02091
G1 X134.787 Y123.058 E0.02091
G1 X134.181 Y123.344 E0.02103
G1 X133.524 Y123.463 E0.02091
G1 X114.464 Y123.465 E0.59761
G1 X113.873 Y123.388 E0.01869
G1 X113.319 Y123.178 E0.01857
G1 X112.620 Y122.646 E0.02753
G1 X112.143 Y121.914 E0.02741
G1 X111.949 Y121.174 E0.02398
G1 X111.935 Y119.956 E0.03818
G1 X113.689 Y86.848 E1.03954
G1 X113.777 Y86.318 E0.01684
G1 X113.973 Y85.818 E0.01684
G1 X114.309 Y85.332 E0.01854
G1 X114.311 Y85.985 F10800.000
G1 F1200
G1 X114.630 Y85.528 E0.01749
G1 X115.058 Y85.165 E0.01760
G1 X115.564 Y84.922 E0.01760
G1 X116.115 Y84.816 E0.01760
G1 X133.404 Y84.811 E0.54206
G1 X134.213 Y84.968 E0.02586
G1 X134.907 Y85.413 E0.02586
G1 X135.388 Y86.084 E0.02586
G1 X135.585 Y86.885 E0.02586
G1 X135.588 Y120.915 E1.06699
G1 X135.523 Y121.432 E0.01635
G1 X135.339 Y121.916 E0.01623
G1 X135.012 Y122.381 E0.01783
G1 X134.573 Y122.748 E0.01794
G1 X134.054 Y122.989 E0.01794
G1 X133.494 Y123.087 E0.01783
G1 X114.471 Y123.088 E0.59645
G1 X113.961 Y123.021 E0.01612
G1 X113.484 Y122.839 E0.01601
G1 X112.880 Y122.372 E0.02394
G1 X112.473 Y121.726 E0.02394
G1 X112.321 Y121.099 E0.02021
G1 X112.312 Y119.952 E0.03596
G1 X114.065 Y86.873 E1.03863
G1 X114.295 Y86.043 E0.02701
G1 F8640
G1 X114.630 Y85.528 E-0.14190
G1 X115.058 Y85.165 E-0.12960
G1 X115.564 Y84.922 E-0.12960
G1 X116.115 Y84.816 E-0.12960
G1 X117.108 Y84.815 E-0.22928
G1 E-0.04000 F2100.00000
G1 Z0.800 F10800.000
G1 X132.036 Y119.536
G1 Z0.200
G1 E0.80000 F2100.00000
G1 F1200
G1 X117.214 Y119.536 E0.46472
G1 X117.214 Y115.974 E0.11167
G1 X132.036 Y115.974 E0.46472
G1 X132.036 Y119.476 E0.10979
G1 X132.413 Y119.913 F10800.000
G1 F1200
G1 X116.837 Y119.913 E0.48837
G1 X116.837 Y115.597 E0.13532
G1 X132.413 Y115.597 E0.48837
G1 X132.413 Y119.853 E0.13344
G1 F8640
G1 X129.122 Y119.866 E-0.76000
G1 E-0.04000 F2100.00000
G1 Z0.800 F10800.000
G1 X132.036 Y91.036
G1 Z0.200
G1 E0.80000 F2100.00000
G1 F1200
G1 X117.214 Y91.026 E0.46472
G1 X117.214 Y88.364 E0.08347
G1 X132.036 Y88.364 E0.46472
G1 X132.036 Y90.976 E0.08188
G1 X132.413 Y91.413 F10800.000
G1 F1200
G1 X116.837 Y91.403 E0.48837
G1 X116.837 Y87.987 E0.10711
G1 X132.413 Y87.987 E0.48837
G1 X132.413 Y91.353 E0.10554
G1 F8640
G1 X129.122 Y91.364 E-0.76000
G1 E-0.04000 F2100.00000
G1 Z0.800 F10800.000
G1 X116.460 Y120.210
G1 Z0.200
G1 E0.80000 F2100.00000
G1 F1200
G1 X116.460 Y115.220 E0.15646
G1 X132.470 Y115.220 E0.50198
G1 X132.470 Y91.790 E0.73463
G1 X116.460 Y91.780 E0.50198
G1 X116.460 Y87.610 E0.13075
G1 X132.790 Y87.610 E0.51202
G1 X132.790 Y120.290 E1.02466
G1 X115.110 Y120.290 E0.55434
G1 X115.110 Y120.210 E0.00251
G1 X116.400 Y120.210 E0.04045
G1 X116.860 Y120.202 F10800.000
G1 F8640
G1 X116.440 Y116.919 E-0.76000
G1 E-0.04000 F2100.00000
G1 Z0.800 F10800.000
G1 X117.327 Y118.642
G1 Z0.200
G1 E0.80000 F2100.00000
G1 F1200
G1 X117.938 Y119.253 E0.02772
G1 X118.484 Y119.253 E0.01751
G1 X117.497 Y118.266 E0.04478
G1 X117.497 Y117.720 E0.01751
G1 X119.030 Y119.253 E0.06954
G1 X119.575 Y119.253 E0.01751
G1 X117.497 Y117.175 E0.09429
G1 X117.497 Y116.629 E0.01751
G1 X120.121 Y119.253 E0.11905
G1 X120.667 Y119.253 E0.01751
G1 X117.670 Y116.257 E0.13594
G1 X118.216 Y116.257 E0.01751
G1 X121.212 Y119.253 E0.13594
G1 X121.758 Y119.253 E0.01751
G1 X118.762 Y116.257 E0.13594
G1 X119.307 Y116.257 E0.01751
G1 X122.303 Y119.253 E0.13594
G1 X122.849 Y119.253 E0.01751
G1 X119.853 Y116.257 E0.13594
G1 X120.399 Y116.257 E0.01751
G1 X123.395 Y119.253 E0.13594
G1 X123.940 Y119.253 E0.01751
G1 X120.944 Y116.257 E0.13594
G1 X121.490 Y116.257 E0.01751
G1 X124.486 Y119.253 E0.13594
G1 X125.032 Y119.253 E0.01751
G1 X122.036 Y116.257 E0.13594
G1 X122.581 Y116.257 E0.01751
G1 X125.577 Y119.253 E0.13594
G1 X126.123 Y119.253 E0.01751
G1 X123.127 Y116.257 E0.13594
G1 X123.673 Y116.257 E0.01751
G1 X126.669 Y119.253 E0.13594
G1 X127.214 Y119.253 E0.01751
G1 X124.218 Y116.257 E0.13594
G1 X124.764 Y116.257 E0.01751
G1 X127.760 Y119.253 E0.13594
G1 X128.306 Y119.253 E0.01751
G1 X125.309 Y116.257 E0.13594
G1 X125.855 Y116.257 E0.01751
G1 X128.851 Y119.253 E0.13594
G1 X129.397 Y119.253 E0.01751
G1 X126.401 Y116.257 E0.13594
G1 X126.946 Y116.257 E0.01751
G1 X129.943 Y119.253 E0.13594
G1 X130.488 Y119.253 E0.01751
G1 X127.492 Y116.257 E0.13594
G1 X128.038 Y116.257 E0.01751
G1 X131.034 Y119.253 E0.13594
G1 X131.579 Y119.253 E0.01751
G1 X128.583 Y116.257 E0.13594
G1 X129.129 Y116.257 E0.01751
G1 X131.753 Y118.881 E0.11906
G1 X131.753 Y118.335 E0.01751
G1 X129.675 Y116.257 E0.09430
G1 X130.220 Y116.257 E0.01751
G1 X131.753 Y117.790 E0.06954
G1 X131.753 Y117.244 E0.01751
G1 X130.766 Y116.257 E0.04479
G1 X131.312 Y116.257 E0.01751
G1 X131.923 Y116.868 E0.02773
G1 F8640
G1 X131.312 Y116.257 E-0.19957
G1 X130.766 Y116.257 E-0.12599
G1 X131.753 Y117.244 E-0.32234
G1 X131.753 Y117.730 E-0.11210
G1 E-0.04000 F2100.00000
G1 Z0.800 F10800.000
G1 X131.923 Y89.242
G1 Z0.200
G1 E0.80000 F2100.00000
G1 F1200
G1 X131.328 Y88.647 E0.02643
G1 X130.794 Y88.647 E0.01680
G1 X131.753 Y89.606 E0.04265
G1 X131.753 Y90.141 E0.01680
G1 X130.259 Y88.647 E0.06641
G1 X129.724 Y88.647 E0.01680
G1 X131.753 Y90.676 E0.09018
G1 X131.753 Y90.753 E0.00242
G1 X131.295 Y90.752 E0.01439
G1 X129.190 Y88.647 E0.09359
G1 X128.655 Y88.647 E0.01680
G1 X130.760 Y90.752 E0.09358
G1 X130.225 Y90.752 E0.01681
G1 X128.121 Y88.647 E0.09356
G1 X127.586 Y88.647 E0.01680
G1 X129.691 Y90.751 E0.09355
G1 X129.156 Y90.751 E0.01681
G1 X127.051 Y88.647 E0.09353
G1 X126.517 Y88.647 E0.01680
G1 X128.621 Y90.751 E0.09352
G1 X128.086 Y90.750 E0.01681
G1 X125.982 Y88.647 E0.09350
G1 X125.448 Y88.647 E0.01680
G1 X127.551 Y90.750 E0.09349
G1 X127.016 Y90.750 E0.01681
G1 X124.913 Y88.647 E0.09347
G1 X124.378 Y88.647 E0.01680
G1 X126.481 Y90.749 E0.09346
G1 X125.946 Y90.749 E0.01681
G1 X123.844 Y88.647 E0.09344
G1 X123.309 Y88.647 E0.01680
G1 X125.411 Y90.749 E0.09343
G1 X124.876 Y90.748 E0.01681
G1 X122.775 Y88.647 E0.09342
G1 X122.240 Y88.647 E0.01680
G1 X124.341 Y90.748 E0.09340
G1 X123.806 Y90.748 E0.01681
G1 X121.705 Y88.647 E0.09339
G1 X121.171 Y88.647 E0.01680
G1 X123.271 Y90.747 E0.09337
G1 X122.736 Y90.747 E0.01681
G1 X120.636 Y88.647 E0.09336
G1 X120.102 Y88.647 E0.01680
G1 X122.202 Y90.747 E0.09334
G1 X121.667 Y90.746 E0.01681
G1 X119.567 Y88.647 E0.09333
G1 X119.033 Y88.647 E0.01680
G1 X121.132 Y90.746 E0.09331
G1 X120.597 Y90.746 E0.01681
G1 X118.498 Y88.647 E0.09330
G1 X117.963 Y88.647 E0.01680
G1 X120.062 Y90.745 E0.09328
G1 X119.527 Y90.745 E0.01681
G1 X117.497 Y88.715 E0.09023
G1 X117.497 Y89.250 E0.01680
G1 X118.992 Y90.745 E0.06646
G1 X118.457 Y90.744 E0.01681
G1 X117.497 Y89.784 E0.04268
G1 X117.497 Y90.319 E0.01680
G1 X118.092 Y90.914 E0.02645
;BEFORE_LAYER_CHANGE
G92 E0.0
;0.4


G1 F8640
G1 X117.497 Y90.319 E-0.19428
G1 X117.497 Y89.784 E-0.12344
G1 X118.457 Y90.744 E-0.31351
G1 X118.992 Y90.745 E-0.12352
G1 X118.976 Y90.729 E-0.00526
G1 E-0.04000 F2100.00000
G1 Z0.800 F10800.000
;AFTER_LAYER_CHANGE
;0.4
M104 S250 ; set temperature
M140 S90 ; set bed temperature
G1 X134.347 Y84.615
G1 Z0.400
G1 E0.80000 F2100.00000
G1 F2900
G1 X135.160 Y85.133 E0.03022
G1 X135.723 Y85.910 E0.03010
G1 X135.961 Y86.844 E0.03022
G1 X135.966 Y120.920 E1.06842
G1 X135.891 Y121.515 E0.01882
G1 X135.678 Y122.081 E0.01894
G1 X135.297 Y122.628 E0.02091
G1 X134.787 Y123.058 E0.02091
G1 X134.181 Y123.344 E0.02103
G1 X133.524 Y123.463 E0.02091
G1 X114.464 Y123.465 E0.59761
G1 X113.873 Y123.388 E0.01869
G1 X113.319 Y123.178 E0.01857
G1 X112.620 Y122.646 E0.02753
G1 X112.143 Y121.914 E0.02741
G1 X111.949 Y121.174 E0.02398
G1 X111.935 Y119.956 E0.03818
G1 X113.689 Y86.848 E1.03954
G1 X113.777 Y86.318 E0.01684
G1 X113.973 Y85.818 E0.01684
G1 X114.344 Y85.283 E0.02042
G1 X114.841 Y84.856 E0.02054
G1 X115.429 Y84.569 E0.02054
G1 X116.068 Y84.441 E0.02042
G1 X133.404 Y84.434 E0.54356
G1 X134.288 Y84.604 E0.02821
G1 F8640
G1 X135.160 Y85.133 E-0.23547
G1 X135.723 Y85.910 E-0.22164
G1 X135.961 Y86.844 E-0.22253
G1 X135.961 Y87.192 E-0.08036
G1 E-0.04000 F2100.00000
G1 Z1.000 F10800.000
G1 X132.161 Y119.661
G1 Z0.400
G1 E0.80000 F2100.00000
M204 S800
G1 F1500
G1 X117.289 Y119.661 E0.50339
G1 X117.289 Y116.049 E0.12225
G1 X132.161 Y116.049 E0.50339
G1 X132.161 Y119.601 E0.12022
M204 S1000
G1 X132.568 Y120.068 F10800.000
M204 S800
G1 F1500
G1 X116.882 Y120.068 E0.53095
G1 X116.882 Y115.642 E0.14981
M73 Q2 S37
G1 X132.568 Y115.642 E0.53095
M73 P2 R37
G1 X132.568 Y120.008 E0.14778
M204 S1000
G1 F8640
G1 X129.277 Y120.021 E-0.76000
G1 E-0.04000 F2100.00000
G1 Z1.000 F10800.000
G1 X132.161 Y90.961
G1 Z0.400
G1 E0.80000 F2100.00000
M204 S800
G1 F1500
G1 X117.289 Y90.951 E0.50339
G1 X117.289 Y88.239 E0.09181
G1 X132.161 Y88.239 E0.50339
G1 X132.161 Y90.901 E0.09009
M204 S1000
G1 X132.568 Y91.368 F10800.000
M204 S800
G1 F1500
G1 X116.882 Y91.358 E0.53095
G1 X116.882 Y87.832 E0.11936
G1 X132.568 Y87.832 E0.53095
G1 X132.568 Y91.308 E0.11766
M204 S1000
G1 F8640
G1 X129.277 Y91.319 E-0.76000
G1 E-0.04000 F2100.00000
G1 Z1.000 F10800.000
G1 X116.475 Y120.225
G1 Z0.400
G1 E0.80000 F2100.00000
M204 S800
G1 F1500
G1 X116.475 Y115.235 E0.16891
G1 X132.485 Y115.235 E0.54192
G1 X132.485 Y91.775 E0.79409
G1 X116.475 Y91.765 E0.54192
G1 X116.475 Y87.425 E0.14691
G1 X132.975 Y87.425 E0.55851
G1 X132.975 Y120.475 E1.11870
G1 X114.925 Y120.475 E0.61097
G1 X114.925 Y120.225 E0.00846
G1 X116.415 Y120.225 E0.05043
M204 S1000
G1 X116.874 Y120.204 F10800.000
G1 F8640
G1 X116.455 Y116.934 E-0.76000
G1 E-0.04000 F2100.00000
G1 Z1.000 F10800.000
G1 X118.245 Y116.171
G1 Z0.400
G1 E0.80000 F2100.00000
M204 S1250
G1 F2900
G1 X117.594 Y116.822 E0.03155
G1 X117.594 Y117.405 E0.01999
G1 X118.645 Y116.354 E0.05094
G1 X119.228 Y116.354 E0.01999
G1 X117.594 Y117.988 E0.07921
G1 X117.594 Y118.571 E0.01999
G1 X119.811 Y116.354 E0.10749
G1 X120.394 Y116.354 E0.01999
G1 X117.594 Y119.154 E0.13576
G1 X117.594 Y119.356 E0.00690
G1 X117.976 Y119.356 E0.01310
G1 X120.978 Y116.354 E0.14551
G1 X121.561 Y116.354 E0.01999
G1 X118.560 Y119.356 E0.14551
G1 X119.143 Y119.356 E0.01999
G1 X122.144 Y116.354 E0.14551
G1 X122.727 Y116.354 E0.01999
G1 X119.726 Y119.356 E0.14551
G1 X120.309 Y119.356 E0.01999
G1 X123.310 Y116.354 E0.14551
G1 X123.893 Y116.354 E0.01999
G1 X120.892 Y119.356 E0.14551
G1 X121.475 Y119.356 E0.01999
G1 X124.476 Y116.354 E0.14551
G1 X125.059 Y116.354 E0.01999
G1 X122.058 Y119.356 E0.14551
G1 X122.641 Y119.356 E0.01999
G1 X125.642 Y116.354 E0.14551
G1 X126.225 Y116.354 E0.01999
G1 X123.224 Y119.356 E0.14551
G1 X123.807 Y119.356 E0.01999
G1 X126.809 Y116.354 E0.14551
G1 X127.392 Y116.354 E0.01999
G1 X124.391 Y119.356 E0.14551
G1 X124.974 Y119.356 E0.01999
G1 X127.975 Y116.354 E0.14551
G1 X128.558 Y116.354 E0.01999
G1 X125.557 Y119.356 E0.14551
G1 X126.140 Y119.356 E0.01999
G1 X129.141 Y116.354 E0.14551
G1 X129.724 Y116.354 E0.01999
G1 X126.723 Y119.356 E0.14551
G1 X127.306 Y119.356 E0.01999
G1 X130.307 Y116.354 E0.14551
G1 X130.890 Y116.354 E0.01999
G1 X127.889 Y119.356 E0.14551
G1 X128.472 Y119.356 E0.01999
G1 X131.473 Y116.354 E0.14551
G1 X131.856 Y116.354 E0.01310
G1 X131.856 Y116.555 E0.00689
G1 X129.055 Y119.356 E0.13576
G1 X129.639 Y119.356 E0.01999
G1 X131.856 Y117.139 E0.10749
G1 X131.856 Y117.722 E0.01999
G1 X130.222 Y119.356 E0.07922
G1 X130.805 Y119.356 E0.01999
G1 X131.856 Y118.305 E0.05095
G1 X131.856 Y118.888 E0.01999
G1 X131.205 Y119.539 E0.03156
M204 S1000
G1 F8640
G1 X131.856 Y118.888 E-0.21253
G1 X131.856 Y118.305 E-0.13464
G1 X130.805 Y119.356 E-0.34312
G1 X130.503 Y119.356 E-0.06971
G1 E-0.04000 F2100.00000
G1 Z1.000 F10800.000
G1 X132.730 Y115.439
G1 Z0.400
G1 E0.80000 F2100.00000
G1 F2400
G1 X132.730 Y91.572 E0.16457
G1 F8640
G1 X132.730 Y94.863 E-0.76000
G1 E-0.04000 F2100.00000
G1 Z1.000 F10800.000
G1 X131.191 Y90.838
G1 Z0.400
G1 E0.80000 F2100.00000
M204 S1250
G1 F2900
G1 X131.856 Y90.173 E0.03275
G1 X131.856 Y89.581 E0.02065
G1 X130.782 Y90.655 E0.05291
G1 X130.190 Y90.654 E0.02064
G1 X131.856 Y88.988 E0.08210
G1 X131.856 Y88.544 E0.01546
G1 X131.707 Y88.544 E0.00519
G1 X129.597 Y90.654 E0.10395
G1 X129.005 Y90.654 E0.02064
G1 X131.114 Y88.544 E0.10393
G1 X130.521 Y88.544 E0.02065
G1 X128.413 Y90.653 E0.10391
G1 X127.820 Y90.653 E0.02064
G1 X129.929 Y88.544 E0.10389
G1 X129.336 Y88.544 E0.02065
G1 X127.228 Y90.652 E0.10387
G1 X126.636 Y90.652 E0.02064
G1 X128.744 Y88.544 E0.10386
G1 X128.151 Y88.544 E0.02065
G1 X126.044 Y90.652 E0.10384
G1 X125.451 Y90.651 E0.02064
G1 X127.558 Y88.544 E0.10382
G1 X126.966 Y88.544 E0.02065
G1 X124.859 Y90.651 E0.10380
G1 X124.267 Y90.651 E0.02064
G1 X126.373 Y88.544 E0.10378
G1 X125.780 Y88.544 E0.02065
G1 X123.675 Y90.650 E0.10376
G1 X123.082 Y90.650 E0.02064
G1 X125.188 Y88.544 E0.10375
G1 X124.595 Y88.544 E0.02065
G1 X122.490 Y90.649 E0.10373
G1 X121.898 Y90.649 E0.02064
G1 X124.003 Y88.544 E0.10371
G1 X123.410 Y88.544 E0.02065
G1 X121.306 Y90.649 E0.10369
G1 X120.713 Y90.648 E0.02064
G1 X122.817 Y88.544 E0.10367
G1 X122.225 Y88.544 E0.02065
G1 X120.121 Y90.648 E0.10365
G1 X119.529 Y90.648 E0.02064
G1 X121.632 Y88.544 E0.10364
G1 X121.039 Y88.544 E0.02065
G1 X118.937 Y90.647 E0.10362
G1 X118.344 Y90.647 E0.02064
G1 X120.447 Y88.544 E0.10360
G1 X119.854 Y88.544 E0.02065
G1 X117.752 Y90.646 E0.10358
G1 X117.594 Y90.646 E0.00549
G1 X117.594 Y90.212 E0.01515
G1 X119.262 Y88.544 E0.08215
G1 X118.669 Y88.544 E0.02065
G1 X117.594 Y89.619 E0.05294
G1 X117.594 Y89.026 E0.02065
G1 X118.259 Y88.361 E0.03277
M204 S1000
;BEFORE_LAYER_CHANGE
G92 E0.0
;0.6


G1 F8640
G1 X117.594 Y89.026 E-0.21715
G1 X117.594 Y89.619 E-0.13684
G1 X118.669 Y88.544 E-0.35085
G1 X118.908 Y88.544 E-0.05516
G1 E-0.04000 F2100.00000
G1 Z1.000 F10800.000
;AFTER_LAYER_CHANGE
;0.6
G1 X134.347 Y84.615
G1 Z0.600
G1 E0.80000 F2100.00000
G1 F2848
G1 X135.160 Y85.133 E0.03022
G1 X135.723 Y85.910 E0.03010
G1 X135.961 Y86.844 E0.03022
G1 X135.966 Y120.920 E1.06842
G1 X135.891 Y121.515 E0.01882
G1 X135.678 Y122.081 E0.01894
G1 X135.297 Y122.628 E0.02091
G1 X134.787 Y123.058 E0.02091
G1 X134.181 Y123.344 E0.02103
G1 X133.524 Y123.463 E0.02091
G1 X114.464 Y123.465 E0.59761
G1 X113.873 Y123.388 E0.01869
G1 X113.319 Y123.178 E0.01857
G1 X112.620 Y122.646 E0.02753
G1 X112.143 Y121.914 E0.02741
