; generated by PrusaSlicer 2.0.0+win64 on 2019-08-07 at 22:14:18

; 

; external perimeters extrusion width = 0.45mm
; perimeters extrusion width = 0.45mm
; infill extrusion width = 0.45mm
; solid infill extrusion width = 0.45mm
; top infill extrusion width = 0.40mm
; first layer extrusion width = 0.42mm

M73 P0 R30
M73 Q0 S30
M201 X1000 Y1000 Z1000 E5000 ; sets maximum accelerations, mm/sec^2
M203 X200 Y200 Z12 E120 ; sets maximum feedrates, mm/sec
M204 P1250 R1250 T1250 ; sets acceleration (P, T) and retract acceleration (R), mm/sec^2
M205 X8.00 Y8.00 Z0.40 E1.50 ; sets the jerk limits, mm/sec
M205 S0 T0 ; sets the minimum extruding and travel feed rate, mm/sec
M107
M115 U3.7.2 ; tell printer latest fw version
G90 ; use absolute coordinates
M83 ; extruder relative mode
M104 S240 ; set extruder temp
M140 S85 ; set bed temp
Tx
M190 S85 ; wait for bed temp
M109 S240 ; wait for extruder temp
G28 W ; home all without mesh bed level
G80 ; mesh bed leveling

G21 ; set units to millimeters

;go outside print area
G1 Y-3.0 F1000.0
G1 Z0.4 F1000.0
; select extruder
Tc
; purge line
G1 X55.0 F2000.0
G1 Z0.3 F1000.0
G92 E0.0
G1 X240.0 E25.0 F2200.0
M73 Q0 S30
M73 P0 R30
G1 Y-2.0 F1000.0
G1 X55.0 E25 F1400.0
G1 Z0.20 F1000.0
G1 X5.0 E4.0 F1000.0

M221 S95
G92 E0.0
M900 K45 ; Filament gcode
G21 ; set units to millimeters
G90 ; use absolute coordinates
M83 ; use relative distances for extrusion
;BEFORE_LAYER_CHANGE
G92 E0.0
;0.2


G1 E-0.80000 F2100.00000
G1 Z0.600 F10800.000
;AFTER_LAYER_CHANGE
;0.2
G1 X111.233 Y83.440
G1 Z0.200
G1 E0.80000 F2100.00000
M204 S1000
G1 F1200
G1 X111.918 Y83.303 E0.02191
G1 X133.009 Y83.311 E0.66129
G1 X133.893 Y83.365 E0.02778
G1 X135.047 Y83.582 E0.03681
G1 X136.330 Y84.027 E0.04260
G1 X136.920 Y84.441 E0.02259
G1 X137.341 Y85.021 E0.02247
G1 X137.512 Y85.490 E0.01567
G1 X137.572 Y85.986 E0.01567
G1 X137.572 Y124.051 E1.19350
G1 X137.477 Y124.638 E0.01862
G1 X137.231 Y125.174 E0.01851
G1 X136.850 Y125.625 E0.01851
G1 X136.363 Y125.958 E0.01851
G1 X134.947 Y126.443 E0.04691
G1 X134.007 Y126.623 E0.03002
G1 X133.066 Y126.688 E0.02956
G1 X111.960 Y126.698 E0.66178
G1 X111.369 Y126.606 E0.01873
G1 X110.829 Y126.359 E0.01862
G1 X110.369 Y125.970 E0.01891
G1 X110.033 Y125.480 E0.01862
G1 X109.861 Y125.007 E0.01578
G1 X109.801 Y124.511 E0.01567
G1 X109.816 Y85.245 E1.23116
G1 X109.966 Y84.666 E0.01873
G1 X110.267 Y84.150 E0.01873
G1 X110.704 Y83.726 E0.01908
G1 X111.180 Y83.469 E0.01697
G1 F8640
G1 X111.918 Y83.303 E-0.17463
G1 X114.453 Y83.304 E-0.58537
G1 E-0.04000 F2100.00000
G1 Z0.800 F10800.000
G1 X133.064 Y123.130
G1 Z0.200
G1 E0.80000 F2100.00000
G1 F1200
G1 X113.354 Y123.136 E0.61798
G1 X113.354 Y86.864 E1.13727
G1 X133.064 Y86.870 E0.61798
G1 X133.064 Y87.130 E0.00814
G1 X133.000 Y87.134 E0.00201
G1 X132.374 Y87.095 E0.01966
G1 X132.062 Y87.036 E0.00998
G1 X113.636 Y87.036 E0.57772
G1 X113.636 Y122.964 E1.12651
G1 X132.062 Y122.964 E0.57772
G1 X132.374 Y122.905 E0.00998
G1 X133.000 Y122.866 E0.01966
G1 X133.064 Y122.870 E0.00201
G1 X133.064 Y123.070 E0.00626
G1 F8640
G1 X129.772 Y123.081 E-0.76000
G1 E-0.04000 F2100.00000
G1 Z0.800 F10800.000
G1 X114.013 Y87.413
G1 Z0.200
G1 E0.80000 F2100.00000
G1 F1200
G1 X114.013 Y122.587 E1.10286
G1 X132.026 Y122.587 E0.56480
G1 X132.328 Y122.531 E0.00961
G1 X133.000 Y122.488 E0.02113
G1 X133.441 Y122.516 E0.01386
G1 X133.441 Y123.483 E0.03031
G1 X132.981 Y123.513 E0.01446
G1 X112.977 Y123.513 E0.62720
G1 X112.977 Y86.487 E1.16092
G1 X132.981 Y86.487 E0.62720
G1 X133.441 Y86.517 E0.01446
G1 X133.441 Y87.484 E0.03031
G1 X133.000 Y87.512 E0.01386
G1 X132.328 Y87.469 E0.02113
G1 X132.026 Y87.413 E0.00961
G1 X114.073 Y87.413 E0.56292
G1 X114.390 Y87.790 F10800.000
G1 F1200
G1 X114.390 Y122.210 E1.07921
G1 X131.991 Y122.210 E0.55188
G1 X132.281 Y122.156 E0.00923
G1 X133.000 Y122.110 E0.02260
G1 X133.719 Y122.156 E0.02260
G1 X133.818 Y122.174 E0.00316
G1 X133.818 Y123.827 E0.05182
G1 X132.993 Y123.890 E0.02594
G1 X112.600 Y123.890 E0.63941
G1 X112.600 Y86.110 E1.18457
G1 X132.993 Y86.110 E0.63941
G1 X133.818 Y86.173 E0.02594
G1 X133.818 Y87.826 E0.05182
G1 X133.719 Y87.844 E0.00316
G1 X133.000 Y87.890 E0.02260
G1 X132.281 Y87.844 E0.02260
G1 X131.991 Y87.790 E0.00923
G1 X114.450 Y87.790 E0.55000
G1 X113.990 Y87.790 F10800.000
;BEFORE_LAYER_CHANGE
G92 E0.0
;0.4


G1 F8640
G1 X114.444 Y91.081 E-0.76000
G1 E-0.04000 F2100.00000
G1 Z0.800 F10800.000
;AFTER_LAYER_CHANGE
;0.4
M104 S250 ; set temperature
M140 S90 ; set bed temperature
G1 X111.233 Y83.440
G1 Z0.400
G1 E0.80000 F2100.00000
G1 F2385
G1 X111.918 Y83.303 E0.02191
G1 X133.009 Y83.311 E0.66129
G1 X133.893 Y83.365 E0.02778
G1 X135.047 Y83.582 E0.03681
G1 X136.330 Y84.027 E0.04260
G1 X136.920 Y84.441 E0.02259
G1 X137.341 Y85.021 E0.02247
G1 X137.512 Y85.490 E0.01567
G1 X137.572 Y85.986 E0.01567
G1 X137.572 Y124.051 E1.19350
G1 X137.477 Y124.638 E0.01862
G1 X137.231 Y125.174 E0.01851
G1 X136.850 Y125.625 E0.01851
G1 X136.363 Y125.958 E0.01851
G1 X134.947 Y126.443 E0.04691
G1 X134.007 Y126.623 E0.03002
G1 X133.066 Y126.688 E0.02956
G1 X111.960 Y126.698 E0.66178
G1 X111.369 Y126.606 E0.01873
G1 X110.829 Y126.359 E0.01862
G1 X110.369 Y125.970 E0.01891
G1 X110.033 Y125.480 E0.01862
G1 X109.861 Y125.007 E0.01578
G1 X109.801 Y124.511 E0.01567
G1 X109.816 Y85.245 E1.23116
G1 X109.966 Y84.666 E0.01873
G1 X110.267 Y84.150 E0.01873
G1 X110.704 Y83.726 E0.01908
G1 X111.180 Y83.469 E0.01697
G1 F8640
G1 X111.918 Y83.303 E-0.17463
G1 X114.453 Y83.304 E-0.58537
G1 E-0.04000 F2100.00000
G1 Z1.000 F10800.000
G1 X133.796 Y123.183
G1 Z0.400
G1 E0.80000 F2100.00000
M204 S800
G1 F2385
G1 X133.616 Y123.218 E0.00619
G1 X132.966 Y123.261 E0.02206
G1 X113.229 Y123.261 E0.66807
G1 X113.229 Y86.730 E1.23654
G1 X132.966 Y86.739 E0.66806
G1 X133.616 Y86.782 E0.02207
G1 X133.796 Y86.817 E0.00619
G1 X133.796 Y87.183 E0.01240
G1 X133.591 Y87.222 E0.00705
G1 X133.000 Y87.259 E0.02005
G1 X132.409 Y87.222 E0.02005
G1 X131.787 Y87.105 E0.02142
G1 X131.322 Y86.961 E0.01648
G1 X113.761 Y86.961 E0.59442
G1 X113.761 Y123.039 E1.22121
G1 X131.322 Y123.039 E0.59442
G1 X131.787 Y122.895 E0.01648
G1 X132.409 Y122.778 E0.02142
G1 X133.000 Y122.741 E0.02005
G1 X133.591 Y122.778 E0.02005
G1 X133.796 Y122.817 E0.00705
G1 X133.796 Y123.123 E0.01037
M204 S1000
G1 F8640
G1 X133.616 Y123.218 E-0.04688
G1 X132.966 Y123.261 E-0.15047
G1 X130.529 Y123.261 E-0.56265
G1 E-0.04000 F2100.00000
G1 Z1.000 F10800.000
G1 X114.168 Y87.368
G1 Z0.400
G1 E0.80000 F2100.00000
M204 S800
G1 F2385
G1 X114.168 Y122.632 E1.19365
G1 X131.260 Y122.632 E0.57856
G1 X131.689 Y122.499 E0.01518
G1 X132.358 Y122.374 E0.02306
G1 X133.000 Y122.333 E0.02176
G1 X133.642 Y122.374 E0.02176
G1 X134.203 Y122.479 E0.01933
G1 X134.203 Y123.518 E0.03518
G1 X133.669 Y123.623 E0.01841
G1 X132.979 Y123.668 E0.02339
G1 X112.822 Y123.668 E0.68230
G1 X112.822 Y86.322 E1.26411
G1 X132.979 Y86.332 E0.68229
G1 X133.669 Y86.377 E0.02339
G1 X134.203 Y86.482 E0.01841
G1 X134.203 Y87.521 E0.03518
G1 X133.642 Y87.626 E0.01933
G1 X133.000 Y87.667 E0.02176
G1 X132.358 Y87.626 E0.02176
G1 X131.689 Y87.501 E0.02306
G1 X131.260 Y87.368 E0.01518
G1 X114.228 Y87.368 E0.57653
M204 S1000
G1 X114.575 Y87.775 F10800.000
M204 S800
G1 F1500
G1 X114.575 Y122.225 E1.16609
G1 X131.199 Y122.225 E0.56270
M73 Q3 S29
G1 X131.591 Y122.104 E0.01389
G1 X132.308 Y121.969 E0.02470
G1 X133.000 Y121.925 E0.02347
G1 X133.692 Y121.969 E0.02347
G1 X134.409 Y122.104 E0.02470
G1 X134.610 Y122.166 E0.00712
G1 X134.609 Y123.836 E0.05653
G1 X134.471 Y123.881 E0.00492
G1 X133.721 Y124.027 E0.02585
G1 X132.993 Y124.075 E0.02472
G1 X112.415 Y124.075 E0.69653
M73 P3 R29
G1 X112.415 Y85.918 E1.29158
G1 X132.993 Y85.925 E0.69653
G1 X133.721 Y85.973 E0.02472
G1 X134.471 Y86.119 E0.02585
G1 X134.609 Y86.164 E0.00492
G1 X134.610 Y87.834 E0.05653
G1 X134.409 Y87.896 E0.00712
G1 X133.692 Y88.031 E0.02470
G1 X133.000 Y88.075 E0.02347
G1 X132.308 Y88.031 E0.02347
G1 X131.591 Y87.896 E0.02470
G1 X131.199 Y87.775 E0.01389
G1 X114.635 Y87.775 E0.56066
M204 S1000
G1 X114.175 Y87.774 F10800.000
G1 F8640
G1 X114.629 Y91.066 E-0.76000
G1 E-0.04000 F2100.00000
G1 Z1.000 F10800.000
G1 X113.495 Y86.933
G1 Z0.400
G1 E0.80000 F2100.00000
G1 F2385
G1 X113.495 Y123.057 E0.37427
G1 F8640
G1 X113.495 Y119.766 E-0.76000
G1 E-0.04000 F2100.00000
G1 Z1.000 F10800.000
G1 X132.290 Y123.033
G1 Z0.400
G1 E0.80000 F2100.00000
G1 F2385
G1 X133.000 Y123.000 E0.00483
G1 X133.458 Y122.999 E0.00311
G1 F8640
G1 X133.000 Y123.000 E-0.10577
G1 X132.290 Y123.033 E-0.16419
G1 E-0.53004 F2100.00000
G1 Z1.000 F10800.000
G1 X133.458 Y87.001
G1 Z0.400
G1 E0.80000 F2100.00000
G1 F2385
G1 X133.000 Y87.000 E0.00311
G1 X132.288 Y86.967 E0.00484
;BEFORE_LAYER_CHANGE
G92 E0.0
;0.6


G1 F8640
G1 X133.000 Y87.000 E-0.16460
G1 X133.458 Y87.001 E-0.10577
G1 E-0.52963 F2100.00000
G1 Z1.000 F10800.000
;AFTER_LAYER_CHANGE
;0.6
G1 X136.920 Y84.441
G1 Z0.600
G1 E0.80000 F2100.00000
G1 F2613
G1 X137.341 Y85.021 E0.02247
G1 X137.512 Y85.490 E0.01567
G1 X137.572 Y85.986 E0.01567
G1 X137.572 Y124.051 E1.19350
G1 X137.477 Y124.638 E0.01862
G1 X137.231 Y125.174 E0.01851
G1 X136.850 Y125.625 E0.01851
G1 X136.363 Y125.958 E0.01851
G1 X134.947 Y126.443 E0.04691
G1 X134.007 Y126.623 E0.03002
G1 X133.066 Y126.688 E0.02956
G1 X111.960 Y126.698 E0.66178
G1 X111.369 Y126.606 E0.01873
G1 X110.829 Y126.359 E0.01862
G1 X110.369 Y125.970 E0.01891
G1 X110.033 Y125.480 E0.01862
G1 X109.861 Y125.007 E0.01578
G1 X109.801 Y124.511 E0.01567
G1 X109.816 Y85.245 E1.23116
G1 X109.966 Y84.666 E0.01873
G1 X110.267 Y84.150 E0.01873
G1 X110.704 Y83.726 E0.01908
G1 X111.233 Y83.440 E0.01885
G1 X111.918 Y83.303 E0.02191
G1 X133.009 Y83.311 E0.66129
G1 X133.893 Y83.365 E0.02778
G1 X135.047 Y83.582 E0.03681
G1 X136.330 Y84.027 E0.04260
G1 X136.871 Y84.406 E0.02071
G1 F8640
G1 X137.341 Y85.021 E-0.17867
G1 X137.512 Y85.490 E-0.11536
G1 X137.572 Y85.986 E-0.11536
G1 X137.572 Y87.505 E-0.35061
G1 E-0.04000 F2100.00000
G1 Z1.200 F10800.000
G1 X134.345 Y123.253
G1 Z0.600
G1 E0.80000 F2100.00000
M204 S800
G1 F2613
G1 X134.207 Y123.299 E0.00491
G1 X133.590 Y123.420 E0.02129
G1 X132.966 Y123.461 E0.02116
G1 X113.029 Y123.461 E0.67484
G1 X113.029 Y86.529 E1.25008
G1 X132.966 Y86.539 E0.67483
G1 X133.590 Y86.580 E0.02117
G1 X134.207 Y86.701 E0.02129
G1 X134.345 Y86.747 E0.00491
G1 X134.345 Y87.255 E0.01719
G1 X134.162 Y87.311 E0.00648
G1 X133.566 Y87.423 E0.02052
G1 X133.000 Y87.459 E0.01919
G1 X132.434 Y87.423 E0.01919
G1 X131.838 Y87.311 E0.02052
G1 X131.181 Y87.108 E0.02329
G1 X130.837 Y86.961 E0.01267
G1 X113.961 Y86.961 E0.57122
G1 X113.961 Y123.039 E1.22121
G1 X130.837 Y123.039 E0.57122
G1 X131.181 Y122.892 E0.01267
G1 X131.838 Y122.689 E0.02329
G1 X132.434 Y122.577 E0.02052
G1 X133.000 Y122.541 E0.01919
G1 X133.566 Y122.577 E0.01919
G1 X134.162 Y122.689 E0.02052
G1 X134.345 Y122.745 E0.00648
G1 X134.345 Y123.193 E0.01515
M204 S1000
G1 F8640
G1 X134.207 Y123.299 E-0.04010
G1 X133.590 Y123.420 E-0.14526
G1 X132.966 Y123.461 E-0.14437
G1 X131.103 Y123.461 E-0.43027
G1 E-0.04000 F2100.00000
G1 Z1.200 F10800.000
G1 X114.368 Y87.368
G1 Z0.600
G1 E0.80000 F2100.00000
M204 S800
G1 F2613
G1 X114.368 Y122.632 E1.19365
G1 X130.753 Y122.632 E0.55463
G1 X131.041 Y122.510 E0.01057
G1 X131.740 Y122.293 E0.02479
G1 X132.384 Y122.172 E0.02216
G1 X133.000 Y122.133 E0.02090
G1 X133.616 Y122.172 E0.02090
G1 X134.260 Y122.293 E0.02216
G1 X134.752 Y122.445 E0.01743
G1 X134.752 Y123.546 E0.03725
G1 X134.312 Y123.694 E0.01572
G1 X133.642 Y123.824 E0.02308
G1 X132.979 Y123.868 E0.02250
G1 X112.622 Y123.868 E0.68907
G1 X112.622 Y86.122 E1.27765
G1 X132.979 Y86.132 E0.68906
G1 X133.642 Y86.176 E0.02250
G1 X134.312 Y86.306 E0.02308
G1 X134.752 Y86.454 E0.01572
G1 X134.752 Y87.555 E0.03725
G1 X134.260 Y87.707 E0.01743
G1 X133.616 Y87.828 E0.02216
G1 X133.000 Y87.867 E0.02090
G1 X132.384 Y87.828 E0.02090
G1 X131.740 Y87.707 E0.02216
G1 X131.041 Y87.490 E0.02479
G1 X130.753 Y87.368 E0.01057
G1 X114.428 Y87.368 E0.55260
M204 S1000
G1 X114.775 Y87.775 F10800.000
M204 S800
G1 F1500
G1 X114.775 Y122.225 E1.16609
G1 X130.670 Y122.225 E0.53803
G1 X130.900 Y122.127 E0.00846
G1 X131.642 Y121.897 E0.02629
G1 X132.333 Y121.767 E0.02380
G1 X133.000 Y121.725 E0.02262
G1 X133.667 Y121.767 E0.02262
G1 X134.358 Y121.897 E0.02380
G1 X135.159 Y122.151 E0.02844
G1 X135.159 Y123.838 E0.05712
G1 X134.416 Y124.088 E0.02653
G1 X133.695 Y124.229 E0.02487
G1 X132.993 Y124.275 E0.02383
G1 X112.215 Y124.275 E0.70330
G1 X112.215 Y85.721 E1.30502
G1 X132.993 Y85.725 E0.70330
G1 X133.695 Y85.771 E0.02383
G1 X134.416 Y85.912 E0.02487
G1 X135.159 Y86.162 E0.02653
G1 X135.159 Y87.849 E0.05712
G1 X134.358 Y88.103 E0.02844
G1 X133.667 Y88.233 E0.02380
G1 X133.000 Y88.275 E0.02262
G1 X132.333 Y88.233 E0.02262
G1 X131.642 Y88.103 E0.02380
G1 X130.900 Y87.873 E0.02629
G1 X130.670 Y87.775 E0.00846
G1 X114.835 Y87.775 E0.53600
M204 S1000
G1 X114.375 Y87.774 F10800.000
G1 F8640
G1 X114.829 Y91.066 E-0.76000
G1 E-0.04000 F2100.00000
G1 Z1.200 F10800.000
G1 X113.839 Y87.476
G1 Z0.600
G1 E0.80000 F2100.00000
M204 S1250
G1 F2613
G1 X113.334 Y86.971 E0.02416
G1 X113.334 Y87.548 E0.01952
G1 X113.656 Y87.869 E0.01538
G1 X113.656 Y88.445 E0.01952
G1 X113.334 Y88.124 E0.01538
G1 X113.334 Y88.700 E0.01952
G1 X113.656 Y89.021 E0.01538
G1 X113.656 Y89.597 E0.01952
G1 X113.334 Y89.276 E0.01538
G1 X113.334 Y89.853 E0.01952
G1 X113.656 Y90.174 E0.01538
G1 X113.656 Y90.750 E0.01952
G1 X113.334 Y90.429 E0.01538
G1 X113.334 Y91.005 E0.01952
G1 X113.656 Y91.326 E0.01538
G1 X113.656 Y91.902 E0.01952
G1 X113.334 Y91.581 E0.01538
G1 X113.334 Y92.158 E0.01952
G1 X113.656 Y92.479 E0.01538
G1 X113.656 Y93.055 E0.01952
G1 X113.334 Y92.734 E0.01538
G1 X113.334 Y93.310 E0.01952
G1 X113.656 Y93.631 E0.01538
G1 X113.656 Y94.207 E0.01952
G1 X113.334 Y93.886 E0.01538
G1 X113.334 Y94.463 E0.01952
G1 X113.656 Y94.784 E0.01538
G1 X113.656 Y95.360 E0.01952
G1 X113.334 Y95.039 E0.01538
G1 X113.334 Y95.615 E0.01952
G1 X113.656 Y95.936 E0.01538
G1 X113.656 Y96.512 E0.01952
G1 X113.334 Y96.191 E0.01538
G1 X113.334 Y96.767 E0.01952
G1 X113.656 Y97.089 E0.01538
G1 X113.656 Y97.665 E0.01952
G1 X113.334 Y97.344 E0.01538
G1 X113.334 Y97.920 E0.01952
G1 X113.656 Y98.241 E0.01538
G1 X113.656 Y98.817 E0.01952
G1 X113.334 Y98.496 E0.01538
G1 X113.334 Y99.072 E0.01952
G1 X113.656 Y99.394 E0.01538
G1 X113.656 Y99.970 E0.01952
G1 X113.334 Y99.649 E0.01538
G1 X113.334 Y100.225 E0.01952
G1 X113.656 Y100.546 E0.01538
G1 X113.656 Y101.122 E0.01952
G1 X113.334 Y100.801 E0.01538
G1 X113.334 Y101.377 E0.01952
G1 X113.656 Y101.698 E0.01538
G1 X113.656 Y102.275 E0.01952
G1 X113.334 Y101.954 E0.01538
G1 X113.334 Y102.530 E0.01952
G1 X113.656 Y102.851 E0.01538
G1 X113.656 Y103.427 E0.01952
G1 X113.334 Y103.106 E0.01538
G1 X113.334 Y103.682 E0.01952
G1 X113.656 Y104.003 E0.01538
G1 X113.656 Y104.580 E0.01952
G1 X113.334 Y104.259 E0.01538
G1 X113.334 Y104.835 E0.01952
G1 X113.656 Y105.156 E0.01538
G1 X113.656 Y105.732 E0.01952
G1 X113.334 Y105.411 E0.01538
G1 X113.334 Y105.987 E0.01952
G1 X113.656 Y106.308 E0.01538
G1 X113.656 Y106.885 E0.01952
G1 X113.334 Y106.564 E0.01538
G1 X113.334 Y107.140 E0.01952
G1 X113.656 Y107.461 E0.01538
G1 X113.656 Y108.037 E0.01952
G1 X113.334 Y107.716 E0.01538
G1 X113.334 Y108.292 E0.01952
G1 X113.656 Y108.613 E0.01538
G1 X113.656 Y109.190 E0.01952
G1 X113.334 Y108.869 E0.01538
G1 X113.334 Y109.445 E0.01952
G1 X113.656 Y109.766 E0.01538
G1 X113.656 Y110.342 E0.01952
G1 X113.334 Y110.021 E0.01538
G1 X113.334 Y110.597 E0.01952
G1 X113.656 Y110.918 E0.01538
G1 X113.656 Y111.495 E0.01952
G1 X113.334 Y111.173 E0.01538
G1 X113.334 Y111.750 E0.01952
G1 X113.656 Y112.071 E0.01538
G1 X113.656 Y112.647 E0.01952
G1 X113.334 Y112.326 E0.01538
G1 X113.334 Y112.902 E0.01952
G1 X113.656 Y113.223 E0.01538
G1 X113.656 Y113.800 E0.01952
G1 X113.334 Y113.478 E0.01538
G1 X113.334 Y114.055 E0.01952
G1 X113.656 Y114.376 E0.01538
G1 X113.656 Y114.952 E0.01952
G1 X113.334 Y114.631 E0.01538
G1 X113.334 Y115.207 E0.01952
G1 X113.656 Y115.528 E0.01538
G1 X113.656 Y116.104 E0.01952
G1 X113.334 Y115.783 E0.01538
G1 X113.334 Y116.360 E0.01952
