; generated by PrusaSlicer 2.0.0+win64 on 2019-08-09 at 13:03:29

; 

; external perimeters extrusion width = 0.45mm
; perimeters extrusion width = 0.45mm
; infill extrusion width = 0.45mm
; solid infill extrusion width = 0.45mm
; top infill extrusion width = 0.40mm
; first layer extrusion width = 0.42mm

M73 P0 R15
M73 Q0 S15
M201 X1000 Y1000 Z1000 E5000 ; sets maximum accelerations, mm/sec^2
M203 X200 Y200 Z12 E120 ; sets maximum feedrates, mm/sec
M204 P1250 R1250 T1250 ; sets acceleration (P, T) and retract acceleration (R), mm/sec^2
M205 X8.00 Y8.00 Z0.40 E1.50 ; sets the jerk limits, mm/sec
M205 S0 T0 ; sets the minimum extruding and travel feed rate, mm/sec
M107
M115 U3.7.2 ; tell printer latest fw version
G90 ; use absolute coordinates
M83 ; extruder relative mode
M104 S240 ; set extruder temp
M140 S85 ; set bed temp
Tx
M190 S85 ; wait for bed temp
M109 S240 ; wait for extruder temp
G28 W ; home all without mesh bed level
G80 ; mesh bed leveling

G21 ; set units to millimeters

;go outside print area
G1 Y-3.0 F1000.0
G1 Z0.4 F1000.0
; select extruder
Tc
; purge line
G1 X55.0 F2000.0
G1 Z0.3 F1000.0
G92 E0.0
G1 X240.0 E25.0 F2200.0
M73 Q0 S15
M73 P0 R15
G1 Y-2.0 F1000.0
G1 X55.0 E25 F1400.0
G1 Z0.20 F1000.0
G1 X5.0 E4.0 F1000.0

M221 S95
G92 E0.0
M900 K45 ; Filament gcode
G21 ; set units to millimeters
G90 ; use absolute coordinates
M83 ; use relative distances for extrusion
;BEFORE_LAYER_CHANGE
G92 E0.0
;0.2


G1 E-0.80000 F2100.00000
G1 Z0.600 F10800.000
;AFTER_LAYER_CHANGE
;0.2
G1 X110.154 Y74.050
G1 Z0.200
G1 E0.80000 F2100.00000
M204 S1000
G1 F1200
G1 X110.546 Y73.485 E0.02157
G1 X111.094 Y73.069 E0.02157
G1 X111.741 Y72.845 E0.02146
G1 X120.629 Y72.811 E0.27867
G1 X122.025 Y72.950 E0.04399
G1 X123.621 Y73.467 E0.05262
G1 X124.840 Y74.177 E0.04424
G1 X125.857 Y75.070 E0.04242
G1 X139.602 Y92.555 E0.69734
G1 X139.936 Y93.165 E0.02179
G1 X140.064 Y93.892 E0.02315
G1 X140.044 Y127.195 E1.04420
G1 X139.917 Y127.686 E0.01589
G1 X139.684 Y128.132 E0.01578
G1 X139.355 Y128.512 E0.01578
G1 X138.947 Y128.808 E0.01578
G1 X123.733 Y136.482 E0.53428
G1 X122.901 Y136.818 E0.02812
G1 X121.973 Y137.061 E0.03010
G1 X121.008 Y137.178 E0.03046
G1 X111.830 Y137.169 E0.28777
G1 X111.103 Y136.935 E0.02394
G1 X110.498 Y136.463 E0.02405
G1 X110.093 Y135.812 E0.02405
G1 X109.937 Y135.064 E0.02394
G1 X109.956 Y74.705 E1.89253
G1 X110.136 Y74.107 E0.01957
G1 F8640
G1 X110.546 Y73.485 E-0.17206
G1 X111.094 Y73.069 E-0.15884
G1 X111.741 Y72.845 E-0.15800
G1 X112.915 Y72.841 E-0.27109
G1 E-0.04000 F2100.00000
G1 Z0.800 F10800.000
G1 X133.535 Y124.717
G1 Z0.200
G1 E0.80000 F2100.00000
G1 F1200
G1 X133.446 Y125.022 E0.00997
G1 X133.302 Y125.305 E0.00998
G1 X133.101 Y125.564 E0.01026
G1 X132.789 Y125.822 E0.01271
G1 X132.497 Y125.971 E0.01027
G1 X132.192 Y126.060 E0.00997
G1 X131.875 Y126.090 E0.00997
G1 X131.558 Y126.060 E0.00997
G1 X131.253 Y125.971 E0.00997
G1 X130.961 Y125.822 E0.01027
G1 X130.649 Y125.564 E0.01271
G1 X130.448 Y125.305 E0.01026
G1 X130.304 Y125.022 E0.00998
G1 X130.215 Y124.717 E0.00997
G1 X130.185 Y124.400 E0.00997
G1 X130.215 Y124.083 E0.00997
G1 X130.304 Y123.778 E0.00997
G1 X130.448 Y123.495 E0.00997
G1 X130.643 Y123.243 E0.00997
G1 X130.882 Y123.033 E0.00997
G1 X131.156 Y122.871 E0.00997
G1 X131.463 Y122.760 E0.01026
G1 X131.863 Y122.710 E0.01263
G1 X132.191 Y122.740 E0.01034
G1 X132.497 Y122.829 E0.00998
G1 X132.780 Y122.973 E0.00998
G1 X133.039 Y123.174 E0.01026
G1 X133.297 Y123.486 E0.01271
G1 X133.446 Y123.778 E0.01027
G1 X133.535 Y124.083 E0.00997
G1 X133.565 Y124.400 E0.00997
G1 X133.540 Y124.657 E0.00809
G1 X133.163 Y124.646 F10800.000
G1 F1200
G1 X133.094 Y124.883 E0.00773
G1 X132.982 Y125.102 E0.00774
G1 X132.829 Y125.300 E0.00784
G1 X132.580 Y125.505 E0.01010
G1 X132.358 Y125.619 E0.00784
G1 X132.121 Y125.688 E0.00773
G1 X131.875 Y125.711 E0.00774
G1 X131.629 Y125.688 E0.00774
G1 X131.392 Y125.619 E0.00773
G1 X131.170 Y125.505 E0.00784
G1 X130.921 Y125.300 E0.01010
G1 X130.768 Y125.102 E0.00784
G1 X130.656 Y124.883 E0.00774
G1 X130.587 Y124.646 E0.00773
G1 X130.564 Y124.400 E0.00774
G1 X130.587 Y124.154 E0.00774
G1 X130.656 Y123.917 E0.00774
G1 X130.768 Y123.698 E0.00774
G1 X130.919 Y123.503 E0.00774
G1 X131.104 Y123.339 E0.00774
G1 X131.317 Y123.214 E0.00774
G1 X131.552 Y123.129 E0.00784
G1 X131.869 Y123.089 E0.01002
G1 X132.120 Y123.112 E0.00791
G1 X132.358 Y123.181 E0.00774
G1 X132.577 Y123.293 E0.00774
G1 X132.775 Y123.446 E0.00784
G1 X132.980 Y123.695 E0.01010
G1 X133.094 Y123.917 E0.00784
G1 X133.163 Y124.154 E0.00774
G1 X133.186 Y124.400 E0.00774
G1 X133.168 Y124.586 E0.00585
G1 X133.349 Y124.807 F10800.000
G1 F8640
G1 X133.094 Y124.883 E-0.07062
G1 X132.982 Y125.102 E-0.05699
G1 X132.829 Y125.300 E-0.05774
G1 X132.580 Y125.505 E-0.07439
G1 X132.358 Y125.619 E-0.05776
G1 X132.121 Y125.688 E-0.05696
G1 X131.875 Y125.711 E-0.05696
G1 X131.629 Y125.688 E-0.05696
G1 X131.392 Y125.619 E-0.05696
G1 X131.170 Y125.505 E-0.05776
G1 X130.921 Y125.300 E-0.07439
G1 X130.768 Y125.102 E-0.05774
G1 X130.719 Y125.007 E-0.02476
G1 E-0.04000 F2100.00000
G1 Z0.800 F10800.000
G1 X133.373 Y125.828
G1 Z0.200
G1 E0.80000 F2100.00000
G1 F1200
G1 X133.622 Y125.508 E0.01269
G1 X133.798 Y125.161 E0.01221
G1 X133.907 Y124.787 E0.01220
G1 X133.943 Y124.400 E0.01220
G1 X133.907 Y124.013 E0.01220
G1 X133.798 Y123.639 E0.01220
G1 X133.615 Y123.278 E0.01269
G1 X133.268 Y122.874 E0.01669
G1 X136.911 Y122.874 E0.11423
G1 X136.911 Y125.936 E0.09600
G1 X133.243 Y125.936 E0.11500
G1 X133.327 Y125.866 E0.00342
G1 F8640
G1 X133.622 Y125.508 E-0.10699
G1 X133.798 Y125.161 E-0.08993
G1 X133.907 Y124.787 E-0.08988
G1 X133.943 Y124.400 E-0.08987
G1 X133.907 Y124.013 E-0.08987
G1 X133.798 Y123.639 E-0.08988
G1 X133.615 Y123.278 E-0.09347
G1 X133.304 Y122.916 E-0.11012
G1 E-0.04000 F2100.00000
G1 Z0.800 F10800.000
G1 X133.373 Y97.926
G1 Z0.200
G1 E0.80000 F2100.00000
G1 F1200
G1 X133.258 Y97.926 E0.00361
G1 X133.383 Y97.816 E0.00521
G1 X133.621 Y97.508 E0.01221
G1 X133.798 Y97.161 E0.01221
G1 X133.907 Y96.787 E0.01221
G1 X133.943 Y96.400 E0.01220
G1 X133.907 Y96.013 E0.01220
G1 X133.798 Y95.639 E0.01221
G1 X133.615 Y95.278 E0.01269
G1 X133.255 Y94.864 E0.01719
G1 X136.911 Y94.864 E0.11463
G1 X136.911 Y97.926 E0.09600
G1 X133.433 Y97.926 E0.10903
G1 X133.107 Y97.557 F10800.000
G1 F1200
G1 X132.868 Y97.767 E0.00997
G1 X132.594 Y97.929 E0.00997
G1 X132.286 Y98.040 E0.01026
G1 X131.875 Y98.092 E0.01300
G1 X131.466 Y98.040 E0.01292
G1 X131.156 Y97.929 E0.01034
G1 X130.882 Y97.767 E0.00998
G1 X130.643 Y97.557 E0.00997
G1 X130.448 Y97.305 E0.00997
G1 X130.304 Y97.022 E0.00997
G1 X130.215 Y96.717 E0.00997
G1 X130.185 Y96.400 E0.00997
G1 X130.215 Y96.083 E0.00997
G1 X130.304 Y95.778 E0.00997
G1 X130.448 Y95.495 E0.00997
G1 X130.643 Y95.243 E0.00997
G1 X130.882 Y95.033 E0.00997
G1 X131.156 Y94.871 E0.00997
G1 X131.463 Y94.760 E0.01026
G1 X131.863 Y94.710 E0.01263
G1 X132.191 Y94.740 E0.01034
G1 X132.497 Y94.829 E0.00998
G1 X132.780 Y94.973 E0.00997
G1 X133.039 Y95.174 E0.01026
G1 X133.297 Y95.486 E0.01271
G1 X133.446 Y95.778 E0.01027
G1 X133.535 Y96.083 E0.00997
G1 X133.565 Y96.400 E0.00997
G1 X133.535 Y96.717 E0.00997
G1 X133.446 Y97.022 E0.00997
G1 X133.302 Y97.305 E0.00997
G1 X133.144 Y97.509 E0.00809
G1 X132.831 Y97.297 F10800.000
G1 F1200
G1 X132.646 Y97.461 E0.00774
G1 X132.433 Y97.586 E0.00774
G1 X132.198 Y97.671 E0.00784
G1 X131.875 Y97.712 E0.01020
G1 X131.555 Y97.671 E0.01013
G1 X131.317 Y97.586 E0.00792
G1 X131.104 Y97.461 E0.00774
G1 X130.919 Y97.297 E0.00774
G1 X130.768 Y97.102 E0.00774
G1 X130.656 Y96.883 E0.00774
G1 X130.587 Y96.646 E0.00774
G1 X130.564 Y96.400 E0.00774
G1 X130.587 Y96.154 E0.00774
G1 X130.656 Y95.917 E0.00774
G1 X130.768 Y95.698 E0.00774
G1 X130.919 Y95.503 E0.00774
G1 X131.104 Y95.339 E0.00774
G1 X131.317 Y95.214 E0.00774
G1 X131.552 Y95.129 E0.00784
G1 X131.869 Y95.089 E0.01002
G1 X132.120 Y95.112 E0.00791
G1 X132.358 Y95.181 E0.00774
G1 X132.577 Y95.293 E0.00774
G1 X132.775 Y95.446 E0.00784
G1 X132.980 Y95.695 E0.01010
G1 X133.094 Y95.917 E0.00784
G1 X133.163 Y96.154 E0.00774
G1 X133.186 Y96.400 E0.00774
G1 X133.163 Y96.646 E0.00774
G1 X133.094 Y96.883 E0.00774
G1 X132.982 Y97.102 E0.00774
G1 X132.867 Y97.250 E0.00585
G1 X132.902 Y97.534 F10800.000
G1 F8640
G1 X132.646 Y97.461 E-0.07063
G1 X132.433 Y97.586 E-0.05697
G1 X132.198 Y97.671 E-0.05774
G1 X131.875 Y97.712 E-0.07514
G1 X131.555 Y97.671 E-0.07459
G1 X131.317 Y97.586 E-0.05829
G1 X131.104 Y97.461 E-0.05701
G1 X130.919 Y97.297 E-0.05697
G1 X130.768 Y97.102 E-0.05697
G1 X130.656 Y96.883 E-0.05698
G1 X130.587 Y96.646 E-0.05697
G1 X130.564 Y96.400 E-0.05697
G1 X130.574 Y96.293 E-0.02477
G1 E-0.04000 F2100.00000
G1 Z0.800 F10800.000
G1 X118.520 Y127.198
G1 Z0.200
G1 E0.80000 F2100.00000
G1 F1200
G1 X118.948 Y127.416 E0.01504
G1 X119.315 Y127.700 E0.01457
G1 X119.622 Y128.049 E0.01457
G1 X119.858 Y128.449 E0.01456
G1 X120.016 Y128.886 E0.01457
G1 X120.089 Y129.345 E0.01456
G1 X120.074 Y129.825 E0.01504
G1 X119.927 Y130.395 E0.01847
G1 X119.709 Y130.823 E0.01504
G1 X119.425 Y131.190 E0.01457
G1 X119.076 Y131.497 E0.01457
G1 X118.676 Y131.733 E0.01456
G1 X118.239 Y131.891 E0.01457
G1 X117.780 Y131.964 E0.01456
G1 X117.300 Y131.949 E0.01504
G1 X116.730 Y131.802 E0.01847
G1 X116.302 Y131.584 E0.01504
G1 X115.935 Y131.300 E0.01457
G1 X115.628 Y130.951 E0.01457
G1 X115.392 Y130.551 E0.01456
G1 X115.234 Y130.114 E0.01457
G1 X115.161 Y129.655 E0.01456
G1 X115.176 Y129.175 E0.01504
G1 X115.323 Y128.605 E0.01847
G1 X115.541 Y128.177 E0.01504
G1 X115.825 Y127.810 E0.01457
G1 X116.174 Y127.503 E0.01457
G1 X116.574 Y127.267 E0.01456
G1 X117.011 Y127.109 E0.01457
G1 X117.470 Y127.036 E0.01456
G1 X117.950 Y127.051 E0.01504
G1 X118.462 Y127.183 E0.01659
G1 X118.386 Y127.553 F10800.000
G1 F1200
G1 X118.745 Y127.736 E0.01262
G1 X119.055 Y127.977 E0.01233
G1 X119.316 Y128.272 E0.01233
G1 X119.516 Y128.610 E0.01233
G1 X119.649 Y128.980 E0.01234
G1 X119.711 Y129.369 E0.01233
G1 X119.698 Y129.771 E0.01262
G1 X119.572 Y130.261 E0.01586
G1 X119.389 Y130.620 E0.01262
G1 X119.148 Y130.930 E0.01233
G1 X118.853 Y131.191 E0.01233
G1 X118.515 Y131.391 E0.01233
G1 X118.145 Y131.524 E0.01234
G1 X117.756 Y131.586 E0.01233
G1 X117.354 Y131.573 E0.01262
G1 X116.864 Y131.447 E0.01586
G1 X116.505 Y131.264 E0.01262
G1 X116.195 Y131.023 E0.01233
G1 X115.934 Y130.728 E0.01233
G1 X115.734 Y130.390 E0.01233
G1 X115.601 Y130.020 E0.01234
G1 X115.539 Y129.631 E0.01233
G1 X115.552 Y129.229 E0.01262
G1 X115.678 Y128.739 E0.01586
G1 X115.861 Y128.380 E0.01262
G1 X116.102 Y128.070 E0.01233
G1 X116.397 Y127.809 E0.01233
G1 X116.735 Y127.609 E0.01233
G1 X117.105 Y127.476 E0.01234
G1 X117.494 Y127.414 E0.01233
G1 X117.896 Y127.427 E0.01262
G1 X118.328 Y127.538 E0.01398
G1 X118.252 Y127.908 F10800.000
G1 F1200
G1 X118.542 Y128.055 E0.01020
G1 X118.796 Y128.253 E0.01010
G1 X119.009 Y128.494 E0.01010
G1 X119.173 Y128.771 E0.01010
G1 X119.282 Y129.075 E0.01010
G1 X119.333 Y129.393 E0.01009
G1 X119.322 Y129.718 E0.01020
G1 X119.217 Y130.127 E0.01324
G1 X119.070 Y130.417 E0.01020
G1 X118.872 Y130.671 E0.01010
G1 X118.631 Y130.884 E0.01010
G1 X118.354 Y131.048 E0.01010
G1 X118.050 Y131.157 E0.01010
G1 X117.732 Y131.208 E0.01009
G1 X117.407 Y131.197 E0.01020
G1 X116.998 Y131.092 E0.01324
G1 X116.708 Y130.945 E0.01020
G1 X116.454 Y130.747 E0.01010
G1 X116.241 Y130.506 E0.01010
G1 X116.077 Y130.229 E0.01010
G1 X115.968 Y129.925 E0.01010
G1 X115.917 Y129.607 E0.01009
G1 X115.928 Y129.282 E0.01020
G1 X116.033 Y128.873 E0.01324
G1 X116.180 Y128.583 E0.01020
G1 X116.378 Y128.329 E0.01010
G1 X116.619 Y128.116 E0.01010
G1 X116.896 Y127.952 E0.01010
G1 X117.200 Y127.843 E0.01010
G1 X117.518 Y127.792 E0.01009
G1 X117.843 Y127.803 E0.01020
G1 X118.194 Y127.893 E0.01136
G1 X118.505 Y127.703 F10800.000
G1 F8640
G1 X118.542 Y128.055 E-0.08869
G1 X118.796 Y128.253 E-0.07435
G1 X119.009 Y128.494 E-0.07436
G1 X119.173 Y128.771 E-0.07435
G1 X119.282 Y129.075 E-0.07438
G1 X119.333 Y129.393 E-0.07434
G1 X119.322 Y129.718 E-0.07512
G1 X119.217 Y130.127 E-0.09754
G1 X119.070 Y130.417 E-0.07511
G1 X118.932 Y130.594 E-0.05175
G1 E-0.04000 F2100.00000
G1 Z0.800 F10800.000
G1 X117.300 Y82.949
G1 Z0.200
G1 E0.80000 F2100.00000
G1 F1200
G1 X116.730 Y82.802 E0.01847
G1 X116.302 Y82.584 E0.01504
G1 X115.935 Y82.300 E0.01457
G1 X115.628 Y81.951 E0.01457
G1 X115.392 Y81.551 E0.01456
G1 X115.234 Y81.114 E0.01457
G1 X115.161 Y80.655 E0.01456
G1 X115.176 Y80.175 E0.01504
G1 X115.323 Y79.605 E0.01847
G1 X115.541 Y79.177 E0.01504
G1 X115.825 Y78.810 E0.01457
G1 X116.174 Y78.503 E0.01457
G1 X116.574 Y78.267 E0.01456
G1 X117.011 Y78.109 E0.01457
G1 X117.470 Y78.036 E0.01456
G1 X117.950 Y78.051 E0.01504
G1 X118.520 Y78.198 E0.01847
G1 X118.948 Y78.416 E0.01504
G1 X119.315 Y78.700 E0.01457
G1 X119.622 Y79.049 E0.01457
G1 X119.858 Y79.449 E0.01456
G1 X120.016 Y79.886 E0.01457
G1 X120.089 Y80.345 E0.01456
G1 X120.074 Y80.825 E0.01504
G1 X119.927 Y81.395 E0.01847
G1 X119.709 Y81.823 E0.01504
G1 X119.425 Y82.190 E0.01457
G1 X119.076 Y82.497 E0.01457
G1 X118.676 Y82.733 E0.01456
G1 X118.239 Y82.891 E0.01457
G1 X117.780 Y82.964 E0.01456
G1 X117.360 Y82.950 E0.01316
G1 X117.354 Y82.573 F10800.000
G1 F1200
G1 X116.864 Y82.447 E0.01586
G1 X116.505 Y82.264 E0.01262
G1 X116.195 Y82.023 E0.01233
G1 X115.934 Y81.728 E0.01233
G1 X115.734 Y81.390 E0.01233
G1 X115.601 Y81.020 E0.01234
G1 X115.539 Y80.631 E0.01233
G1 X115.552 Y80.229 E0.01262
G1 X115.678 Y79.739 E0.01586
G1 X115.861 Y79.380 E0.01262
G1 X116.102 Y79.070 E0.01233
G1 X116.397 Y78.809 E0.01233
G1 X116.735 Y78.609 E0.01233
G1 X117.105 Y78.476 E0.01234
G1 X117.494 Y78.414 E0.01233
G1 X117.896 Y78.427 E0.01262
G1 X118.386 Y78.553 E0.01586
G1 X118.745 Y78.736 E0.01262
G1 X119.055 Y78.977 E0.01233
G1 X119.316 Y79.272 E0.01233
G1 X119.516 Y79.610 E0.01233
G1 X119.649 Y79.980 E0.01234
G1 X119.711 Y80.369 E0.01233
G1 X119.698 Y80.771 E0.01262
G1 X119.572 Y81.261 E0.01586
G1 X119.389 Y81.620 E0.01262
G1 X119.148 Y81.930 E0.01233
G1 X118.853 Y82.191 E0.01233
G1 X118.515 Y82.391 E0.01233
G1 X118.145 Y82.524 E0.01234
G1 X117.756 Y82.586 E0.01233
G1 X117.414 Y82.575 E0.01074
G1 X117.407 Y82.197 F10800.000
G1 F1200
G1 X116.998 Y82.092 E0.01324
G1 X116.708 Y81.945 E0.01020
G1 X116.454 Y81.747 E0.01010
G1 X116.241 Y81.506 E0.01010
G1 X116.077 Y81.229 E0.01010
G1 X115.968 Y80.925 E0.01010
G1 X115.917 Y80.607 E0.01009
G1 X115.928 Y80.282 E0.01020
G1 X116.033 Y79.873 E0.01324
G1 X116.180 Y79.583 E0.01020
G1 X116.378 Y79.329 E0.01010
G1 X116.619 Y79.116 E0.01010
G1 X116.896 Y78.952 E0.01010
G1 X117.200 Y78.843 E0.01010
G1 X117.518 Y78.792 E0.01009
G1 X117.843 Y78.803 E0.01020
G1 X118.252 Y78.908 E0.01324
G1 X118.542 Y79.055 E0.01020
G1 X118.796 Y79.253 E0.01010
G1 X119.009 Y79.494 E0.01010
G1 X119.173 Y79.771 E0.01010
G1 X119.282 Y80.075 E0.01010
G1 X119.333 Y80.393 E0.01009
G1 X119.322 Y80.718 E0.01020
G1 X119.217 Y81.127 E0.01324
G1 X119.070 Y81.417 E0.01020
G1 X118.872 Y81.671 E0.01010
G1 X118.631 Y81.884 E0.01010
G1 X118.354 Y82.048 E0.01010
G1 X118.050 Y82.157 E0.01010
G1 X117.732 Y82.208 E0.01009
G1 X117.467 Y82.199 E0.00832
G1 X117.159 Y82.511 F10800.000
G1 F8640
G1 X116.998 Y82.092 E-0.11110
G1 X116.708 Y81.945 E-0.07512
G1 X116.454 Y81.747 E-0.07435
G1 X116.241 Y81.506 E-0.07437
G1 X116.077 Y81.229 E-0.07435
G1 X115.968 Y80.925 E-0.07438
G1 X115.917 Y80.607 E-0.07434
G1 X115.928 Y80.282 E-0.07512
G1 X116.033 Y79.873 E-0.09754
G1 X116.090 Y79.760 E-0.02934
G1 E-0.04000 F2100.00000
G1 Z0.800 F10800.000
G1 X124.271 Y94.864
G1 Z0.200
G1 E0.80000 F2100.00000
G1 F1200
G1 X130.503 Y94.864 E0.19541
G1 X130.367 Y94.984 E0.00568
G1 X130.129 Y95.292 E0.01221
G1 X129.952 Y95.639 E0.01221
G1 X129.843 Y96.013 E0.01221
G1 X129.807 Y96.400 E0.01220
G1 X129.843 Y96.787 E0.01220
G1 X129.952 Y97.161 E0.01221
G1 X130.129 Y97.508 E0.01221
G1 X130.367 Y97.816 E0.01221
G1 X130.492 Y97.926 E0.00521
G1 X124.651 Y97.926 E0.18314
G1 X124.651 Y122.874 E0.78224
G1 X130.492 Y122.874 E0.18314
G1 X130.367 Y122.984 E0.00521
G1 X130.129 Y123.292 E0.01221
G1 X129.952 Y123.639 E0.01221
G1 X129.843 Y124.013 E0.01220
