; generated by PrusaSlicer 2.0.0+win64 on 2019-06-30 at 15:05:24

; 

; external perimeters extrusion width = 0.45mm
; perimeters extrusion width = 0.45mm
; infill extrusion width = 0.45mm
; solid infill extrusion width = 0.45mm
; top infill extrusion width = 0.40mm
; first layer extrusion width = 0.42mm

M73 P0 R28
M73 Q0 S29
M201 X1000 Y1000 Z1000 E5000 ; sets maximum accelerations, mm/sec^2
M203 X200 Y200 Z12 E120 ; sets maximum feedrates, mm/sec
M204 P1250 R1250 T1250 ; sets acceleration (P, T) and retract acceleration (R), mm/sec^2
M205 X8.00 Y8.00 Z0.40 E1.50 ; sets the jerk limits, mm/sec
M205 S0 T0 ; sets the minimum extruding and travel feed rate, mm/sec
M107
M115 U3.7.1 ; tell printer latest fw version
G90 ; use absolute coordinates
M83 ; extruder relative mode
M104 S240 ; set extruder temp
M140 S85 ; set bed temp
Tx
M190 S85 ; wait for bed temp
M109 S240 ; wait for extruder temp
G28 W ; home all without mesh bed level
G80 ; mesh bed leveling

G21 ; set units to millimeters

;go outside print area
G1 Y-3.0 F1000.0
G1 Z0.4 F1000.0
; select extruder
Tc
; purge line
G1 X55.0 F2000.0
G1 Z0.3 F1000.0
G92 E0.0
G1 X240.0 E25.0 F2200.0
M73 Q0 S28
M73 P0 R28
G1 Y-2.0 F1000.0
G1 X55.0 E25 F1400.0
G1 Z0.20 F1000.0
G1 X5.0 E4.0 F1000.0

M221 S95
G92 E0.0
M900 K45 ; Filament gcode
G21 ; set units to millimeters
G90 ; use absolute coordinates
M83 ; use relative distances for extrusion
;BEFORE_LAYER_CHANGE
G92 E0.0
;0.2


G1 E-0.80000 F2100.00000
G1 Z0.600 F10800.000
;AFTER_LAYER_CHANGE
;0.2
G1 X92.912 Y61.845
G1 Z0.200
G1 E0.80000 F2100.00000
M204 S1000
G1 F1200
G1 X93.197 Y61.259 E0.02044
G1 X93.542 Y60.868 E0.01635
G1 X93.966 Y60.571 E0.01623
G1 X94.452 Y60.381 E0.01635
G1 X94.965 Y60.312 E0.01623
G1 X155.004 Y60.311 E1.88247
G1 X155.830 Y60.475 E0.02642
G1 X156.534 Y60.939 E0.02642
G1 X157.010 Y61.634 E0.02642
G1 X157.188 Y62.454 E0.02631
G1 X157.189 Y147.511 E2.66690
G1 X157.088 Y148.155 E0.02044
G1 X156.803 Y148.741 E0.02044
G1 X156.455 Y149.135 E0.01646
G1 X156.027 Y149.432 E0.01635
G1 X155.541 Y149.621 E0.01635
G1 X155.020 Y149.688 E0.01646
G1 X94.985 Y149.688 E1.88236
G1 X94.342 Y149.587 E0.02044
G1 X93.759 Y149.303 E0.02032
G1 X93.365 Y148.955 E0.01646
G1 X93.066 Y148.524 E0.01646
G1 X92.878 Y148.034 E0.01646
G1 X92.812 Y147.513 E0.01646
G1 X92.811 Y62.489 E2.66587
G1 X92.903 Y61.904 E0.01855
G1 F8640
G1 X93.197 Y61.259 E-0.16379
G1 X93.542 Y60.868 E-0.12039
G1 X93.966 Y60.571 E-0.11955
G1 X94.452 Y60.381 E-0.12039
G1 X94.965 Y60.312 E-0.11955
G1 X95.469 Y60.312 E-0.11632
G1 E-0.04000 F2100.00000
G1 Z0.800 F10800.000
G1 X102.168 Y144.119
G1 Z0.200
G1 E0.80000 F2100.00000
G1 F1200
G1 X102.211 Y144.500 E0.01202
G1 X102.168 Y144.881 E0.01202
G1 X102.042 Y145.243 E0.01202
G1 X101.838 Y145.567 E0.01202
G1 X101.567 Y145.838 E0.01202
G1 X101.243 Y146.042 E0.01202
G1 X100.881 Y146.168 E0.01202
G1 X100.500 Y146.211 E0.01202
G1 X100.119 Y146.168 E0.01202
G1 X99.757 Y146.042 E0.01202
G1 X99.433 Y145.838 E0.01202
G1 X99.162 Y145.567 E0.01202
G1 X98.958 Y145.243 E0.01202
G1 X98.832 Y144.881 E0.01202
G1 X98.789 Y144.500 E0.01202
G1 X98.832 Y144.119 E0.01202
G1 X98.958 Y143.757 E0.01202
G1 X99.162 Y143.433 E0.01202
G1 X99.433 Y143.162 E0.01202
G1 X99.757 Y142.958 E0.01202
G1 X100.119 Y142.832 E0.01202
G1 X100.470 Y142.792 E0.01108
G1 X100.879 Y142.831 E0.01287
G1 X101.243 Y142.958 E0.01207
G1 X101.567 Y143.162 E0.01202
G1 X101.838 Y143.433 E0.01202
G1 X102.042 Y143.757 E0.01202
G1 X102.149 Y144.063 E0.01013
G1 X102.535 Y144.232 F10800.000
G1 F8640
G1 X102.211 Y144.500 E-0.10204
G1 X102.168 Y144.881 E-0.08849
G1 X102.042 Y145.243 E-0.08848
G1 X101.838 Y145.567 E-0.08848
G1 X101.567 Y145.838 E-0.08849
G1 X101.243 Y146.042 E-0.08849
G1 X100.881 Y146.168 E-0.08849
G1 X100.500 Y146.211 E-0.08849
G1 X100.334 Y146.193 E-0.03856
G1 E-0.04000 F2100.00000
G1 Z0.800 F10800.000
G1 X100.500 Y125.211
G1 Z0.200
G1 E0.80000 F2100.00000
G1 F1200
G1 X100.119 Y125.168 E0.01202
G1 X99.757 Y125.042 E0.01202
G1 X99.431 Y124.837 E0.01207
G1 X99.146 Y124.542 E0.01287
G1 X98.958 Y124.243 E0.01108
G1 X98.832 Y123.881 E0.01202
G1 X98.789 Y123.500 E0.01202
G1 X98.832 Y123.119 E0.01202
G1 X98.958 Y122.757 E0.01202
G1 X99.162 Y122.433 E0.01202
G1 X99.433 Y122.162 E0.01202
G1 X99.757 Y121.958 E0.01202
G1 X100.119 Y121.832 E0.01202
G1 X100.500 Y121.789 E0.01202
G1 X100.881 Y121.832 E0.01202
G1 X101.243 Y121.958 E0.01202
G1 X101.567 Y122.162 E0.01202
G1 X101.838 Y122.433 E0.01202
G1 X102.042 Y122.757 E0.01202
G1 X102.168 Y123.119 E0.01202
G1 X102.211 Y123.500 E0.01202
G1 X102.168 Y123.881 E0.01202
G1 X102.042 Y124.243 E0.01202
G1 X101.838 Y124.567 E0.01202
G1 X101.567 Y124.838 E0.01202
G1 X101.243 Y125.042 E0.01202
G1 X100.881 Y125.168 E0.01202
G1 X100.560 Y125.205 E0.01013
G1 X100.308 Y125.543 F10800.000
G1 F8640
G1 X100.119 Y125.168 E-0.10204
G1 X99.757 Y125.042 E-0.08849
G1 X99.431 Y124.837 E-0.08890
G1 X99.146 Y124.542 E-0.09480
G1 X98.958 Y124.243 E-0.08160
G1 X98.832 Y123.881 E-0.08849
G1 X98.789 Y123.500 E-0.08849
G1 X98.832 Y123.119 E-0.08849
G1 X98.887 Y122.961 E-0.03871
G1 E-0.04000 F2100.00000
G1 Z0.800 F10800.000
G1 X100.500 Y88.211
G1 Z0.200
G1 E0.80000 F2100.00000
G1 F1200
G1 X100.119 Y88.168 E0.01202
G1 X99.757 Y88.042 E0.01202
G1 X99.433 Y87.838 E0.01202
G1 X99.162 Y87.567 E0.01202
G1 X98.958 Y87.243 E0.01201
G1 X98.832 Y86.881 E0.01202
G1 X98.789 Y86.500 E0.01202
G1 X98.832 Y86.119 E0.01202
G1 X98.958 Y85.757 E0.01202
G1 X99.162 Y85.433 E0.01201
G1 X99.433 Y85.162 E0.01202
G1 X99.757 Y84.958 E0.01202
G1 X100.119 Y84.832 E0.01202
G1 X100.470 Y84.792 E0.01108
G1 X100.879 Y84.831 E0.01287
G1 X101.243 Y84.958 E0.01207
G1 X101.567 Y85.162 E0.01202
G1 X101.838 Y85.433 E0.01202
G1 X102.042 Y85.757 E0.01201
G1 X102.168 Y86.119 E0.01202
G1 X102.211 Y86.500 E0.01202
G1 X102.168 Y86.881 E0.01202
G1 X102.042 Y87.243 E0.01202
G1 X101.838 Y87.567 E0.01201
G1 X101.567 Y87.838 E0.01202
G1 X101.243 Y88.042 E0.01202
G1 X100.881 Y88.168 E0.01202
G1 X100.560 Y88.205 E0.01013
G1 X100.308 Y88.543 F10800.000
G1 F8640
G1 X100.119 Y88.168 E-0.10204
G1 X99.757 Y88.042 E-0.08849
G1 X99.433 Y87.838 E-0.08849
G1 X99.162 Y87.567 E-0.08848
G1 X98.958 Y87.243 E-0.08848
G1 X98.832 Y86.881 E-0.08849
G1 X98.789 Y86.500 E-0.08848
G1 X98.832 Y86.119 E-0.08848
G1 X98.887 Y85.962 E-0.03856
G1 E-0.04000 F2100.00000
G1 Z0.800 F10800.000
G1 X100.500 Y67.211
G1 Z0.200
G1 E0.80000 F2100.00000
G1 F1200
G1 X100.119 Y67.168 E0.01202
G1 X99.757 Y67.042 E0.01202
G1 X99.433 Y66.838 E0.01202
G1 X99.162 Y66.567 E0.01202
G1 X98.958 Y66.243 E0.01202
G1 X98.832 Y65.881 E0.01202
G1 X98.789 Y65.500 E0.01202
G1 X98.832 Y65.119 E0.01202
G1 X98.958 Y64.757 E0.01202
G1 X99.162 Y64.433 E0.01202
G1 X99.433 Y64.162 E0.01202
G1 X99.757 Y63.958 E0.01202
G1 X100.119 Y63.832 E0.01202
G1 X100.470 Y63.792 E0.01108
G1 X100.879 Y63.831 E0.01287
G1 X101.243 Y63.958 E0.01207
G1 X101.567 Y64.162 E0.01202
G1 X101.838 Y64.433 E0.01202
G1 X102.042 Y64.757 E0.01202
G1 X102.168 Y65.119 E0.01202
G1 X102.211 Y65.500 E0.01202
G1 X102.168 Y65.881 E0.01202
G1 X102.042 Y66.243 E0.01202
G1 X101.838 Y66.567 E0.01202
G1 X101.567 Y66.838 E0.01202
G1 X101.243 Y67.042 E0.01202
G1 X100.881 Y67.168 E0.01202
G1 X100.560 Y67.205 E0.01013
G1 X100.308 Y67.543 F10800.000
G1 F8640
G1 X100.119 Y67.168 E-0.10204
G1 X99.757 Y67.042 E-0.08849
G1 X99.433 Y66.838 E-0.08849
G1 X99.162 Y66.567 E-0.08848
G1 X98.958 Y66.243 E-0.08848
G1 X98.832 Y65.881 E-0.08849
G1 X98.789 Y65.500 E-0.08849
G1 X98.832 Y65.119 E-0.08848
G1 X98.887 Y64.962 E-0.03856
G1 E-0.04000 F2100.00000
G1 Z0.800 F10800.000
G1 X147.788 Y65.498
G1 Z0.200
G1 E0.80000 F2100.00000
G1 F1200
G1 X147.841 Y65.091 E0.01287
G1 X147.958 Y64.757 E0.01108
G1 X148.162 Y64.433 E0.01201
G1 X148.433 Y64.162 E0.01202
G1 X148.757 Y63.958 E0.01202
G1 X149.119 Y63.832 E0.01202
G1 X149.470 Y63.792 E0.01108
G1 X149.879 Y63.831 E0.01287
G1 X150.243 Y63.958 E0.01207
G1 X150.567 Y64.162 E0.01202
G1 X150.838 Y64.433 E0.01202
G1 X151.042 Y64.757 E0.01201
G1 X151.168 Y65.119 E0.01202
G1 X151.212 Y65.502 E0.01207
G1 X151.159 Y65.909 E0.01287
G1 X151.042 Y66.243 E0.01108
G1 X150.838 Y66.567 E0.01201
G1 X150.567 Y66.838 E0.01202
G1 X150.243 Y67.042 E0.01202
G1 X149.881 Y67.168 E0.01202
G1 X149.500 Y67.211 E0.01202
G1 X149.119 Y67.168 E0.01202
G1 X148.757 Y67.042 E0.01202
G1 X148.433 Y66.838 E0.01202
G1 X148.162 Y66.567 E0.01202
G1 X147.958 Y66.243 E0.01201
G1 X147.832 Y65.881 E0.01202
G1 X147.795 Y65.558 E0.01019
G1 X147.444 Y65.294 F10800.000
G1 F8640
G1 X147.841 Y65.091 E-0.10830
G1 X147.958 Y64.757 E-0.08160
G1 X148.162 Y64.433 E-0.08848
G1 X148.433 Y64.162 E-0.08849
G1 X148.757 Y63.958 E-0.08849
G1 X149.119 Y63.832 E-0.08849
G1 X149.470 Y63.792 E-0.08160
G1 X149.879 Y63.831 E-0.09480
G1 X150.042 Y63.888 E-0.03975
G1 E-0.04000 F2100.00000
G1 Z0.800 F10800.000
G1 X151.434 Y142.964
G1 Z0.200
G1 E0.80000 F2100.00000
G1 F1200
G1 X154.036 Y142.964 E0.08158
G1 X154.036 Y146.536 E0.11199
G1 X150.874 Y146.536 E0.09914
G1 X151.040 Y146.431 E0.00616
G1 X151.431 Y146.040 E0.01734
G1 X151.726 Y145.572 E0.01734
G1 X151.908 Y145.050 E0.01734
G1 X151.970 Y144.500 E0.01734
G1 X151.908 Y143.950 E0.01734
G1 X151.726 Y143.428 E0.01734
G1 X151.466 Y143.015 E0.01530
G1 F8640
G1 X154.036 Y142.964 E-0.59351
G1 X154.036 Y143.685 E-0.16649
G1 E-0.04000 F2100.00000
G1 Z0.800 F10800.000
G1 X99.126 Y146.536
G1 Z0.200
G1 E0.80000 F2100.00000
G1 F1200
G1 X95.964 Y146.536 E0.09914
G1 X95.964 Y142.964 E0.11199
G1 X98.566 Y142.964 E0.08158
G1 X98.274 Y143.428 E0.01718
G1 X98.092 Y143.950 E0.01734
G1 X98.030 Y144.500 E0.01734
G1 X98.092 Y145.050 E0.01734
G1 X98.274 Y145.572 E0.01734
G1 X98.569 Y146.040 E0.01734
G1 X98.960 Y146.431 E0.01734
G1 X99.075 Y146.504 E0.00428
G1 F8640
G1 X95.964 Y146.536 E-0.71842
G1 X95.964 Y146.356 E-0.04158
G1 E-0.04000 F2100.00000
G1 Z0.800 F10800.000
G1 X98.566 Y67.036
G1 Z0.200
G1 E0.80000 F2100.00000
G1 F1200
G1 X95.964 Y67.036 E0.08158
G1 X95.964 Y63.464 E0.11199
G1 X99.126 Y63.464 E0.09914
G1 X98.960 Y63.569 E0.00616
G1 X98.569 Y63.960 E0.01734
G1 X98.274 Y64.428 E0.01734
G1 X98.092 Y64.950 E0.01734
G1 X98.030 Y65.500 E0.01734
G1 X98.092 Y66.050 E0.01734
G1 X98.274 Y66.572 E0.01734
G1 X98.534 Y66.985 E0.01530
G1 F8640
G1 X95.964 Y67.036 E-0.59351
G1 X95.964 Y66.315 E-0.16649
G1 E-0.04000 F2100.00000
G1 Z0.800 F10800.000
G1 X102.434 Y67.036
G1 Z0.200
G1 E0.80000 F2100.00000
G1 F1200
G1 X102.726 Y66.572 E0.01718
G1 X102.908 Y66.050 E0.01734
G1 X102.970 Y65.500 E0.01734
G1 X102.908 Y64.950 E0.01734
G1 X102.726 Y64.428 E0.01734
G1 X102.431 Y63.960 E0.01734
G1 X102.040 Y63.569 E0.01734
G1 X101.874 Y63.464 E0.00616
G1 X148.126 Y63.464 E1.45021
G1 X147.960 Y63.569 E0.00616
G1 X147.569 Y63.960 E0.01734
G1 X147.274 Y64.428 E0.01734
G1 X147.104 Y64.916 E0.01620
G1 X147.029 Y65.492 E0.01820
G1 X147.092 Y66.050 E0.01761
G1 X147.274 Y66.572 E0.01734
G1 X147.566 Y67.036 E0.01718
G1 X135.536 Y67.036 E0.37720
G1 X135.536 Y84.964 E0.56213
G1 X147.566 Y84.964 E0.37720
G1 X147.274 Y85.428 E0.01718
G1 X147.104 Y85.916 E0.01620
G1 X147.029 Y86.492 E0.01820
G1 X147.092 Y87.050 E0.01761
G1 X147.274 Y87.572 E0.01734
G1 X147.569 Y88.040 E0.01734
G1 X147.960 Y88.431 E0.01734
G1 X148.428 Y88.726 E0.01734
G1 X148.950 Y88.908 E0.01734
G1 X149.500 Y88.970 E0.01734
G1 X150.050 Y88.908 E0.01734
G1 X150.572 Y88.726 E0.01734
G1 X151.040 Y88.431 E0.01734
G1 X151.431 Y88.040 E0.01734
G1 X151.726 Y87.572 E0.01734
G1 X151.896 Y87.084 E0.01620
G1 X151.971 Y86.508 E0.01820
G1 X151.908 Y85.950 E0.01761
G1 X151.726 Y85.428 E0.01734
G1 X151.434 Y84.964 E0.01718
G1 X154.036 Y84.964 E0.08158
G1 X154.036 Y125.036 E1.25642
G1 X151.434 Y125.036 E0.08158
G1 X151.726 Y124.572 E0.01718
G1 X151.908 Y124.050 E0.01734
G1 X151.970 Y123.500 E0.01734
G1 X151.908 Y122.950 E0.01734
G1 X151.726 Y122.428 E0.01734
G1 X151.431 Y121.960 E0.01734
G1 X151.040 Y121.569 E0.01734
G1 X150.572 Y121.274 E0.01734
G1 X150.050 Y121.092 E0.01734
G1 X149.500 Y121.030 E0.01734
G1 X148.950 Y121.092 E0.01734
G1 X148.428 Y121.274 E0.01734
G1 X147.960 Y121.569 E0.01734
G1 X147.569 Y121.960 E0.01734
G1 X147.274 Y122.428 E0.01734
G1 X147.092 Y122.950 E0.01734
G1 X147.030 Y123.500 E0.01734
G1 X147.092 Y124.050 E0.01734
G1 X147.274 Y124.572 E0.01734
G1 X147.566 Y125.036 E0.01718
G1 X135.536 Y125.036 E0.37720
G1 X135.536 Y142.964 E0.56213
G1 X147.566 Y142.964 E0.37720
G1 X147.274 Y143.428 E0.01718
G1 X147.092 Y143.950 E0.01734
G1 X147.030 Y144.500 E0.01734
G1 X147.092 Y145.050 E0.01734
G1 X147.274 Y145.572 E0.01734
G1 X147.569 Y146.040 E0.01734
G1 X147.960 Y146.431 E0.01734
G1 X148.126 Y146.536 E0.00616
G1 X101.874 Y146.536 E1.45021
G1 X102.040 Y146.431 E0.00616
G1 X102.431 Y146.040 E0.01734
G1 X102.726 Y145.572 E0.01734
G1 X102.908 Y145.050 E0.01734
G1 X102.970 Y144.500 E0.01734
G1 X102.908 Y143.950 E0.01734
G1 X102.726 Y143.428 E0.01734
G1 X102.434 Y142.964 E0.01718
G1 X114.464 Y142.964 E0.37720
G1 X114.464 Y125.036 E0.56213
G1 X102.434 Y125.036 E0.37720
G1 X102.726 Y124.572 E0.01718
G1 X102.908 Y124.050 E0.01734
G1 X102.970 Y123.500 E0.01734
G1 X102.908 Y122.950 E0.01734
G1 X102.726 Y122.428 E0.01734
G1 X102.431 Y121.960 E0.01734
G1 X102.040 Y121.569 E0.01734
G1 X101.572 Y121.274 E0.01734
G1 X101.050 Y121.092 E0.01734
G1 X100.500 Y121.030 E0.01734
G1 X99.950 Y121.092 E0.01734
G1 X99.428 Y121.274 E0.01734
G1 X98.960 Y121.569 E0.01734
G1 X98.569 Y121.960 E0.01734
G1 X98.274 Y122.428 E0.01734
G1 X98.092 Y122.950 E0.01734
G1 X98.030 Y123.500 E0.01734
G1 X98.092 Y124.050 E0.01734
G1 X98.274 Y124.572 E0.01734
G1 X98.575 Y125.036 E0.01733
G1 X95.964 Y125.036 E0.08186
G1 X95.964 Y84.964 E1.25642
G1 X98.566 Y84.964 E0.08158
G1 X98.274 Y85.428 E0.01718
G1 X98.092 Y85.950 E0.01734
G1 X98.030 Y86.500 E0.01734
G1 X98.092 Y87.050 E0.01734
G1 X98.274 Y87.572 E0.01734
G1 X98.569 Y88.040 E0.01734
G1 X98.960 Y88.431 E0.01734
G1 X99.428 Y88.726 E0.01734
G1 X99.950 Y88.908 E0.01734
G1 X100.500 Y88.970 E0.01734
G1 X101.050 Y88.908 E0.01734
G1 X101.572 Y88.726 E0.01734
G1 X102.040 Y88.431 E0.01734
G1 X102.431 Y88.040 E0.01734
G1 X102.726 Y87.572 E0.01734
G1 X102.908 Y87.050 E0.01734
G1 X102.970 Y86.500 E0.01734
G1 X102.908 Y85.950 E0.01734
G1 X102.726 Y85.428 E0.01734
G1 X102.434 Y84.964 E0.01718
G1 X114.464 Y84.964 E0.37720
G1 X114.464 Y67.036 E0.56213
M73 Q3 S27
G1 X102.494 Y67.036 E0.37531
G1 F8640
G1 X102.726 Y66.572 E-0.11975
G1 X102.908 Y66.050 E-0.12773
G1 X102.970 Y65.500 E-0.12773
G1 X102.908 Y64.950 E-0.12773
G1 X102.726 Y64.428 E-0.12773
G1 X102.431 Y63.960 E-0.12773
G1 X102.426 Y63.955 E-0.00162
G1 E-0.04000 F2100.00000
G1 Z0.800 F10800.000
G1 X150.874 Y63.464
G1 Z0.200
G1 E0.80000 F2100.00000
M73 P3 R27
G1 F1200
G1 X154.036 Y63.464 E0.09914
G1 X154.036 Y67.036 E0.11199
G1 X151.434 Y67.036 E0.08158
G1 X151.726 Y66.572 E0.01718
G1 X151.896 Y66.084 E0.01620
G1 X151.971 Y65.508 E0.01820
G1 X151.908 Y64.950 E0.01761
G1 X151.726 Y64.428 E0.01734
G1 X151.431 Y63.960 E0.01734
G1 X151.040 Y63.569 E0.01734
G1 X150.925 Y63.496 E0.00428
G1 F8640
G1 X154.036 Y63.464 E-0.71842
G1 X154.036 Y63.644 E-0.04157
G1 E-0.04000 F2100.00000
G1 Z0.800 F10800.000
G1 X135.913 Y67.413
G1 Z0.200
G1 E0.80000 F2100.00000
G1 F1200
G1 X135.913 Y84.587 E0.53848
G1 X148.676 Y84.587 E0.40018
G1 X148.593 Y84.616 E0.00277
G1 X148.196 Y84.865 E0.01468
G1 X147.865 Y85.196 E0.01468
G1 X147.616 Y85.593 E0.01468
G1 X147.473 Y86.004 E0.01364
G1 X147.409 Y86.495 E0.01554
G1 X147.462 Y86.965 E0.01484
G1 X147.616 Y87.407 E0.01468
G1 X147.865 Y87.804 E0.01468
G1 X148.196 Y88.135 E0.01468
G1 X148.593 Y88.384 E0.01468
G1 X149.035 Y88.538 E0.01468
G1 X149.500 Y88.591 E0.01468
G1 X149.965 Y88.538 E0.01468
G1 X150.407 Y88.384 E0.01468
G1 X150.804 Y88.135 E0.01468
G1 X151.135 Y87.804 E0.01468
G1 X151.384 Y87.407 E0.01468
G1 X151.527 Y86.996 E0.01364
G1 X151.591 Y86.505 E0.01554
G1 X151.538 Y86.035 E0.01484
G1 X151.384 Y85.593 E0.01468
G1 X151.135 Y85.196 E0.01468
G1 X150.804 Y84.865 E0.01468
G1 X150.407 Y84.616 E0.01468
G1 X150.324 Y84.587 E0.00277
G1 X154.413 Y84.587 E0.12821
G1 X154.413 Y125.413 E1.28007
G1 X150.324 Y125.413 E0.12821
G1 X150.407 Y125.384 E0.00277
G1 X150.804 Y125.135 E0.01468
G1 X151.135 Y124.804 E0.01468
