; generated by PrusaSlicer 2.0.0+win64 on 2019-08-02 at 05:54:49

; 

; external perimeters extrusion width = 0.45mm
; perimeters extrusion width = 0.45mm
; infill extrusion width = 0.45mm
; solid infill extrusion width = 0.45mm
; top infill extrusion width = 0.40mm
; first layer extrusion width = 0.42mm

M73 P0 R20
M73 Q0 S20
M201 X1000 Y1000 Z1000 E5000 ; sets maximum accelerations, mm/sec^2
M203 X200 Y200 Z12 E120 ; sets maximum feedrates, mm/sec
M204 P1250 R1250 T1250 ; sets acceleration (P, T) and retract acceleration (R), mm/sec^2
M205 X8.00 Y8.00 Z0.40 E1.50 ; sets the jerk limits, mm/sec
M205 S0 T0 ; sets the minimum extruding and travel feed rate, mm/sec
M107
M115 U3.7.2 ; tell printer latest fw version
G90 ; use absolute coordinates
M83 ; extruder relative mode
M104 S240 ; set extruder temp
M140 S85 ; set bed temp
Tx
M190 S85 ; wait for bed temp
M109 S240 ; wait for extruder temp
G28 W ; home all without mesh bed level
G80 ; mesh bed leveling

G21 ; set units to millimeters

;go outside print area
G1 Y-3.0 F1000.0
G1 Z0.4 F1000.0
; select extruder
Tc
; purge line
G1 X55.0 F2000.0
G1 Z0.3 F1000.0
G92 E0.0
G1 X240.0 E25.0 F2200.0
M73 Q0 S20
M73 P0 R20
G1 Y-2.0 F1000.0
G1 X55.0 E25 F1400.0
G1 Z0.20 F1000.0
G1 X5.0 E4.0 F1000.0

M221 S95
G92 E0.0
M900 K45 ; Filament gcode
G21 ; set units to millimeters
G90 ; use absolute coordinates
M83 ; use relative distances for extrusion
;BEFORE_LAYER_CHANGE
G92 E0.0
;0.2


G1 E-0.80000 F2100.00000
G1 Z0.600 F10800.000
;AFTER_LAYER_CHANGE
;0.2
G1 X94.244 Y82.694
G1 Z0.200
G1 E0.80000 F2100.00000
M204 S1000
G1 F1200
G1 X94.736 Y82.213 E0.02157
G1 X112.271 Y70.189 E0.66665
G1 X112.838 Y69.914 E0.01976
G1 X113.489 Y69.811 E0.02066
G1 X136.504 Y69.811 E0.72160
G1 X137.131 Y69.904 E0.01987
G1 X137.708 Y70.175 E0.01998
G1 X155.241 Y82.197 E0.66656
G1 X155.741 Y82.674 E0.02168
G1 X156.069 Y83.287 E0.02179
G1 X156.189 Y84.000 E0.02266
G1 X156.189 Y126.007 E1.31711
G1 X156.074 Y126.700 E0.02202
G1 X155.756 Y127.306 E0.02146
G1 X155.264 Y127.787 E0.02157
G1 X137.729 Y139.811 E0.66665
G1 X137.148 Y140.090 E0.02021
G1 X136.511 Y140.189 E0.02021
G1 X113.500 Y140.189 E0.72148
G1 X112.800 Y140.074 E0.02225
G1 X112.268 Y139.809 E0.01862
G1 X94.735 Y127.786 E0.66656
G1 X94.241 Y127.302 E0.02168
G1 X93.923 Y126.689 E0.02168
G1 X93.811 Y126.006 E0.02168
G1 X93.811 Y84.000 E1.31707
G1 X93.926 Y83.300 E0.02225
G1 X94.216 Y82.747 E0.01957
G1 F8640
G1 X94.736 Y82.213 E-0.17206
G1 X96.836 Y80.773 E-0.58794
G1 E-0.04000 F2100.00000
G1 Z0.800 F10800.000
G1 X102.168 Y123.881
G1 Z0.200
G1 E0.80000 F2100.00000
G1 F1200
G1 X102.042 Y124.243 E0.01202
G1 X101.838 Y124.567 E0.01202
G1 X101.567 Y124.838 E0.01202
G1 X101.243 Y125.042 E0.01202
G1 X100.881 Y125.168 E0.01202
G1 X100.500 Y125.211 E0.01202
G1 X100.119 Y125.168 E0.01202
G1 X99.757 Y125.042 E0.01202
G1 X99.431 Y124.837 E0.01207
G1 X99.146 Y124.542 E0.01287
G1 X98.958 Y124.243 E0.01108
G1 X98.832 Y123.881 E0.01202
G1 X98.789 Y123.500 E0.01202
G1 X98.832 Y123.119 E0.01202
G1 X98.958 Y122.757 E0.01202
G1 X99.162 Y122.433 E0.01202
G1 X99.433 Y122.162 E0.01202
G1 X99.757 Y121.958 E0.01202
G1 X100.119 Y121.832 E0.01202
G1 X100.500 Y121.789 E0.01202
G1 X100.881 Y121.832 E0.01202
G1 X101.243 Y121.958 E0.01202
G1 X101.567 Y122.162 E0.01202
G1 X101.838 Y122.433 E0.01202
G1 X102.042 Y122.757 E0.01202
G1 X102.168 Y123.119 E0.01202
G1 X102.211 Y123.500 E0.01202
G1 X102.175 Y123.821 E0.01013
G1 X102.449 Y124.141 F10800.000
G1 F8640
G1 X102.042 Y124.243 E-0.10204
G1 X101.838 Y124.567 E-0.08848
G1 X101.567 Y124.838 E-0.08849
G1 X101.243 Y125.042 E-0.08848
G1 X100.881 Y125.168 E-0.08849
G1 X100.500 Y125.211 E-0.08849
G1 X100.119 Y125.168 E-0.08849
G1 X99.757 Y125.042 E-0.08849
G1 X99.616 Y124.953 E-0.03856
G1 E-0.04000 F2100.00000
G1 Z0.800 F10800.000
G1 X100.500 Y88.211
G1 Z0.200
G1 E0.80000 F2100.00000
G1 F1200
G1 X100.119 Y88.168 E0.01202
G1 X99.757 Y88.042 E0.01202
G1 X99.433 Y87.838 E0.01202
G1 X99.162 Y87.567 E0.01202
G1 X98.958 Y87.243 E0.01202
G1 X98.832 Y86.881 E0.01202
G1 X98.789 Y86.500 E0.01202
G1 X98.832 Y86.119 E0.01202
G1 X98.958 Y85.757 E0.01202
G1 X99.162 Y85.433 E0.01202
G1 X99.433 Y85.162 E0.01202
G1 X99.757 Y84.958 E0.01202
G1 X100.119 Y84.832 E0.01202
G1 X100.470 Y84.792 E0.01108
G1 X100.879 Y84.831 E0.01287
G1 X101.243 Y84.958 E0.01207
G1 X101.567 Y85.162 E0.01202
G1 X101.838 Y85.433 E0.01202
G1 X102.042 Y85.757 E0.01202
G1 X102.168 Y86.119 E0.01202
G1 X102.211 Y86.500 E0.01202
G1 X102.168 Y86.881 E0.01202
G1 X102.042 Y87.243 E0.01202
G1 X101.838 Y87.567 E0.01202
G1 X101.567 Y87.838 E0.01202
G1 X101.243 Y88.042 E0.01202
G1 X100.881 Y88.168 E0.01202
G1 X100.560 Y88.205 E0.01013
G1 X100.308 Y88.543 F10800.000
G1 F8640
G1 X100.119 Y88.168 E-0.10204
G1 X99.757 Y88.042 E-0.08849
G1 X99.433 Y87.838 E-0.08849
G1 X99.162 Y87.567 E-0.08848
G1 X98.958 Y87.243 E-0.08848
G1 X98.832 Y86.881 E-0.08849
G1 X98.789 Y86.500 E-0.08848
G1 X98.832 Y86.119 E-0.08848
G1 X98.887 Y85.962 E-0.03856
G1 E-0.04000 F2100.00000
G1 Z0.800 F10800.000
G1 X135.536 Y84.964
G1 Z0.200
G1 E0.80000 F2100.00000
G1 F1200
G1 X147.566 Y84.964 E0.37720
G1 X147.274 Y85.428 E0.01718
G1 X147.104 Y85.916 E0.01620
G1 X147.029 Y86.492 E0.01820
G1 X147.092 Y87.050 E0.01761
G1 X147.274 Y87.572 E0.01734
G1 X147.569 Y88.040 E0.01734
G1 X147.960 Y88.431 E0.01734
G1 X148.428 Y88.726 E0.01734
G1 X148.950 Y88.908 E0.01734
G1 X149.500 Y88.970 E0.01734
G1 X150.050 Y88.908 E0.01734
G1 X150.572 Y88.726 E0.01734
G1 X151.040 Y88.431 E0.01734
G1 X151.431 Y88.040 E0.01734
G1 X151.726 Y87.572 E0.01734
G1 X151.896 Y87.084 E0.01620
G1 X151.971 Y86.508 E0.01820
G1 X151.908 Y85.950 E0.01761
G1 X151.726 Y85.428 E0.01734
G1 X151.434 Y84.964 E0.01718
G1 X153.036 Y84.964 E0.05022
G1 X153.036 Y125.036 E1.25642
G1 X151.434 Y125.036 E0.05022
G1 X151.726 Y124.572 E0.01718
G1 X151.908 Y124.050 E0.01734
G1 X151.970 Y123.500 E0.01734
G1 X151.908 Y122.950 E0.01734
G1 X151.726 Y122.428 E0.01734
G1 X151.431 Y121.960 E0.01734
G1 X151.040 Y121.569 E0.01734
G1 X150.572 Y121.274 E0.01734
G1 X150.050 Y121.092 E0.01734
G1 X149.500 Y121.030 E0.01734
G1 X148.950 Y121.092 E0.01734
G1 X148.428 Y121.274 E0.01734
G1 X147.960 Y121.569 E0.01734
G1 X147.569 Y121.960 E0.01734
G1 X147.274 Y122.428 E0.01734
G1 X147.092 Y122.950 E0.01734
G1 X147.030 Y123.500 E0.01734
G1 X147.092 Y124.050 E0.01734
G1 X147.274 Y124.572 E0.01734
G1 X147.566 Y125.036 E0.01718
G1 X135.536 Y125.036 E0.37720
G1 X135.536 Y137.036 E0.37625
G1 X114.464 Y137.036 E0.66069
G1 X114.464 Y125.036 E0.37625
G1 X102.434 Y125.036 E0.37720
G1 X102.726 Y124.572 E0.01718
G1 X102.908 Y124.050 E0.01734
G1 X102.970 Y123.500 E0.01734
G1 X102.908 Y122.950 E0.01734
G1 X102.726 Y122.428 E0.01734
G1 X102.431 Y121.960 E0.01734
G1 X102.040 Y121.569 E0.01734
G1 X101.572 Y121.274 E0.01734
G1 X101.050 Y121.092 E0.01734
G1 X100.500 Y121.030 E0.01734
G1 X99.950 Y121.092 E0.01734
G1 X99.428 Y121.274 E0.01734
G1 X98.960 Y121.569 E0.01734
G1 X98.569 Y121.960 E0.01734
G1 X98.274 Y122.428 E0.01734
G1 X98.092 Y122.950 E0.01734
G1 X98.030 Y123.500 E0.01734
G1 X98.092 Y124.050 E0.01734
G1 X98.274 Y124.572 E0.01734
G1 X98.575 Y125.036 E0.01733
G1 X96.964 Y125.036 E0.05050
G1 X96.964 Y84.964 E1.25642
G1 X98.566 Y84.964 E0.05022
G1 X98.274 Y85.428 E0.01718
G1 X98.092 Y85.950 E0.01734
G1 X98.030 Y86.500 E0.01734
G1 X98.092 Y87.050 E0.01734
G1 X98.274 Y87.572 E0.01734
G1 X98.569 Y88.040 E0.01734
G1 X98.960 Y88.431 E0.01734
G1 X99.428 Y88.726 E0.01734
G1 X99.950 Y88.908 E0.01734
G1 X100.500 Y88.970 E0.01734
G1 X101.050 Y88.908 E0.01734
G1 X101.572 Y88.726 E0.01734
G1 X102.040 Y88.431 E0.01734
G1 X102.431 Y88.040 E0.01734
G1 X102.726 Y87.572 E0.01734
G1 X102.908 Y87.050 E0.01734
G1 X102.970 Y86.500 E0.01734
G1 X102.908 Y85.950 E0.01734
G1 X102.726 Y85.428 E0.01734
G1 X102.434 Y84.964 E0.01718
G1 X114.464 Y84.964 E0.37720
G1 X114.464 Y72.964 E0.37625
G1 X135.536 Y72.964 E0.66069
G1 X135.536 Y84.904 E0.37437
G1 X135.913 Y84.587 F10800.000
G1 F1200
G1 X148.676 Y84.587 E0.40018
G1 X148.593 Y84.616 E0.00277
G1 X148.196 Y84.865 E0.01468
G1 X147.865 Y85.196 E0.01468
G1 X147.616 Y85.593 E0.01468
G1 X147.473 Y86.004 E0.01364
G1 X147.409 Y86.495 E0.01554
G1 X147.462 Y86.965 E0.01484
G1 X147.616 Y87.407 E0.01468
G1 X147.865 Y87.804 E0.01468
G1 X148.196 Y88.135 E0.01468
G1 X148.593 Y88.384 E0.01468
G1 X149.035 Y88.538 E0.01468
G1 X149.500 Y88.591 E0.01468
G1 X149.965 Y88.538 E0.01468
G1 X150.407 Y88.384 E0.01468
G1 X150.804 Y88.135 E0.01468
G1 X151.135 Y87.804 E0.01468
G1 X151.384 Y87.407 E0.01468
G1 X151.527 Y86.996 E0.01364
G1 X151.591 Y86.505 E0.01554
G1 X151.538 Y86.035 E0.01484
G1 X151.384 Y85.593 E0.01468
G1 X151.135 Y85.196 E0.01468
G1 X150.804 Y84.865 E0.01468
G1 X150.407 Y84.616 E0.01468
G1 X150.324 Y84.587 E0.00277
G1 X153.413 Y84.587 E0.09686
G1 X153.413 Y125.413 E1.28007
G1 X150.324 Y125.413 E0.09686
G1 X150.407 Y125.384 E0.00277
G1 X150.804 Y125.135 E0.01468
G1 X151.135 Y124.804 E0.01468
G1 X151.384 Y124.407 E0.01468
G1 X151.538 Y123.965 E0.01468
G1 X151.591 Y123.500 E0.01468
G1 X151.538 Y123.035 E0.01468
G1 X151.384 Y122.593 E0.01468
G1 X151.135 Y122.196 E0.01468
G1 X150.804 Y121.865 E0.01468
G1 X150.407 Y121.616 E0.01468
G1 X149.965 Y121.462 E0.01468
G1 X149.500 Y121.409 E0.01468
G1 X149.035 Y121.462 E0.01468
G1 X148.593 Y121.616 E0.01468
G1 X148.196 Y121.865 E0.01468
G1 X147.865 Y122.196 E0.01468
G1 X147.616 Y122.593 E0.01468
G1 X147.462 Y123.035 E0.01468
G1 X147.409 Y123.500 E0.01468
G1 X147.462 Y123.965 E0.01468
G1 X147.616 Y124.407 E0.01468
G1 X147.865 Y124.804 E0.01468
G1 X148.196 Y125.135 E0.01468
G1 X148.593 Y125.384 E0.01468
G1 X148.676 Y125.413 E0.00277
G1 X135.913 Y125.413 E0.40019
G1 X135.913 Y137.413 E0.37625
G1 X114.087 Y137.413 E0.68433
G1 X114.087 Y125.413 E0.37625
G1 X101.324 Y125.413 E0.40019
G1 X101.407 Y125.384 E0.00277
G1 X101.804 Y125.135 E0.01468
G1 X102.135 Y124.804 E0.01468
G1 X102.384 Y124.407 E0.01468
G1 X102.538 Y123.965 E0.01468
G1 X102.591 Y123.500 E0.01468
G1 X102.538 Y123.035 E0.01468
G1 X102.384 Y122.593 E0.01468
G1 X102.135 Y122.196 E0.01468
G1 X101.804 Y121.865 E0.01468
G1 X101.407 Y121.616 E0.01468
G1 X100.965 Y121.462 E0.01468
G1 X100.500 Y121.409 E0.01468
G1 X100.035 Y121.462 E0.01468
G1 X99.593 Y121.616 E0.01468
G1 X99.196 Y121.865 E0.01468
G1 X98.865 Y122.196 E0.01468
G1 X98.616 Y122.593 E0.01468
G1 X98.462 Y123.035 E0.01468
G1 X98.409 Y123.500 E0.01468
G1 X98.462 Y123.965 E0.01468
G1 X98.616 Y124.407 E0.01468
G1 X98.848 Y124.776 E0.01364
G1 X99.192 Y125.132 E0.01554
G1 X99.593 Y125.384 E0.01484
G1 X99.676 Y125.413 E0.00277
G1 X96.587 Y125.413 E0.09686
G1 X96.587 Y84.587 E1.28007
G1 X99.676 Y84.587 E0.09686
G1 X99.593 Y84.616 E0.00277
G1 X99.196 Y84.865 E0.01468
G1 X98.865 Y85.196 E0.01468
G1 X98.616 Y85.593 E0.01468
G1 X98.462 Y86.035 E0.01468
G1 X98.409 Y86.500 E0.01468
G1 X98.462 Y86.965 E0.01468
G1 X98.616 Y87.407 E0.01468
G1 X98.865 Y87.804 E0.01468
G1 X99.196 Y88.135 E0.01468
G1 X99.593 Y88.384 E0.01468
G1 X100.035 Y88.538 E0.01468
G1 X100.500 Y88.591 E0.01468
G1 X100.965 Y88.538 E0.01468
G1 X101.407 Y88.384 E0.01468
G1 X101.804 Y88.135 E0.01468
G1 X102.135 Y87.804 E0.01468
G1 X102.384 Y87.407 E0.01468
G1 X102.538 Y86.965 E0.01468
G1 X102.591 Y86.500 E0.01468
G1 X102.538 Y86.035 E0.01468
G1 X102.384 Y85.593 E0.01468
G1 X102.135 Y85.196 E0.01468
G1 X101.804 Y84.865 E0.01468
G1 X101.407 Y84.616 E0.01468
G1 X101.324 Y84.587 E0.00277
G1 X114.087 Y84.587 E0.40018
G1 X114.087 Y72.587 E0.37625
G1 X135.913 Y72.587 E0.68433
G1 X135.913 Y84.527 E0.37437
G1 F8640
G1 X139.204 Y84.543 E-0.76000
G1 E-0.04000 F2100.00000
G1 Z0.800 F10800.000
G1 X147.788 Y86.498
G1 Z0.200
G1 E0.80000 F2100.00000
G1 F1200
G1 X147.841 Y86.091 E0.01287
G1 X147.958 Y85.757 E0.01108
G1 X148.162 Y85.433 E0.01201
G1 X148.433 Y85.162 E0.01202
G1 X148.757 Y84.958 E0.01202
G1 X149.119 Y84.832 E0.01202
G1 X149.470 Y84.792 E0.01108
G1 X149.879 Y84.831 E0.01287
G1 X150.243 Y84.958 E0.01207
G1 X150.567 Y85.162 E0.01202
G1 X150.838 Y85.433 E0.01202
G1 X151.042 Y85.757 E0.01201
G1 X151.168 Y86.119 E0.01202
G1 X151.212 Y86.502 E0.01207
G1 X151.159 Y86.909 E0.01287
G1 X151.042 Y87.243 E0.01108
G1 X150.838 Y87.567 E0.01201
G1 X150.567 Y87.838 E0.01202
G1 X150.243 Y88.042 E0.01202
G1 X149.881 Y88.168 E0.01202
G1 X149.500 Y88.211 E0.01202
G1 X149.119 Y88.168 E0.01202
G1 X148.757 Y88.042 E0.01202
G1 X148.433 Y87.838 E0.01202
G1 X148.162 Y87.567 E0.01202
G1 X147.958 Y87.243 E0.01201
G1 X147.832 Y86.881 E0.01202
G1 X147.795 Y86.558 E0.01019
G1 X147.444 Y86.294 F10800.000
G1 F8640
G1 X147.841 Y86.091 E-0.10830
G1 X147.958 Y85.757 E-0.08160
G1 X148.162 Y85.433 E-0.08848
G1 X148.433 Y85.162 E-0.08849
G1 X148.757 Y84.958 E-0.08849
G1 X149.119 Y84.832 E-0.08849
G1 X149.470 Y84.792 E-0.08160
G1 X149.879 Y84.831 E-0.09480
G1 X150.042 Y84.888 E-0.03975
G1 E-0.04000 F2100.00000
G1 Z0.800 F10800.000
G1 X149.500 Y121.789
G1 Z0.200
G1 E0.80000 F2100.00000
G1 F1200
G1 X149.881 Y121.832 E0.01202
G1 X150.243 Y121.958 E0.01202
G1 X150.567 Y122.162 E0.01202
G1 X150.838 Y122.433 E0.01202
G1 X151.042 Y122.757 E0.01202
G1 X151.168 Y123.119 E0.01202
G1 X151.211 Y123.500 E0.01202
G1 X151.168 Y123.881 E0.01202
G1 X151.042 Y124.243 E0.01202
G1 X150.838 Y124.567 E0.01202
G1 X150.567 Y124.838 E0.01202
G1 X150.243 Y125.042 E0.01202
G1 X149.881 Y125.168 E0.01202
G1 X149.500 Y125.211 E0.01202
G1 X149.119 Y125.168 E0.01202
G1 X148.757 Y125.042 E0.01202
G1 X148.433 Y124.838 E0.01202
G1 X148.162 Y124.567 E0.01202
G1 X147.958 Y124.243 E0.01202
G1 X147.832 Y123.881 E0.01202
G1 X147.789 Y123.500 E0.01202
G1 X147.832 Y123.119 E0.01202
G1 X147.958 Y122.757 E0.01202
G1 X148.162 Y122.433 E0.01202
G1 X148.433 Y122.162 E0.01202
G1 X148.757 Y121.958 E0.01202
G1 X149.119 Y121.832 E0.01202
G1 X149.440 Y121.795 E0.01013
G1 X149.692 Y121.457 F10800.000
G1 F8640
G1 X149.881 Y121.832 E-0.10204
G1 X150.243 Y121.958 E-0.08849
G1 X150.567 Y122.162 E-0.08848
G1 X150.838 Y122.433 E-0.08849
G1 X151.042 Y122.757 E-0.08848
G1 X151.168 Y123.119 E-0.08849
G1 X151.211 Y123.500 E-0.08849
G1 X151.168 Y123.881 E-0.08849
G1 X151.113 Y124.038 E-0.03856
G1 E-0.04000 F2100.00000
G1 Z0.800 F10800.000
G1 X136.290 Y84.210
G1 Z0.200
G1 E0.80000 F2100.00000
G1 F1200
G1 X153.790 Y84.210 E0.54870
G1 X153.790 Y125.790 E1.30371
M73 Q5 S19
M73 P5 R19
G1 X136.290 Y125.790 E0.54870
G1 X136.290 Y137.790 E0.37625
G1 X113.710 Y137.790 E0.70798
G1 X113.710 Y125.790 E0.37625
G1 X96.210 Y125.790 E0.54870
G1 X96.210 Y84.210 E1.30371
G1 X113.710 Y84.210 E0.54870
G1 X113.710 Y72.210 E0.37625
G1 X136.290 Y72.210 E0.70798
G1 X136.290 Y84.150 E0.37437
G1 X136.431 Y84.584 F10800.000
G1 F8640
G1 X139.581 Y84.161 E-0.76000
G1 E-0.04000 F2100.00000
G1 Z0.800 F10800.000
G1 X135.423 Y73.692
G1 Z0.200
G1 E0.80000 F2100.00000
G1 F1200
G1 X134.977 Y73.247 E0.01981
G1 X134.442 Y73.247 E0.01683
G1 X135.253 Y74.058 E0.03606
G1 X135.253 Y74.593 E0.01683
G1 X133.907 Y73.247 E0.05986
G1 X133.372 Y73.247 E0.01683
G1 X135.253 Y75.128 E0.08366
G1 X135.253 Y75.663 E0.01683
G1 X132.837 Y73.247 E0.10746
G1 X132.302 Y73.247 E0.01683
G1 X135.253 Y76.198 E0.13126
G1 X135.253 Y76.733 E0.01683
G1 X131.767 Y73.247 E0.15506
G1 X131.232 Y73.247 E0.01683
G1 X135.253 Y77.268 E0.17886
G1 X135.253 Y77.803 E0.01683
G1 X130.697 Y73.247 E0.20266
G1 X130.162 Y73.247 E0.01683
G1 X135.253 Y78.338 E0.22646
G1 X135.253 Y78.873 E0.01683
G1 X129.627 Y73.247 E0.25026
G1 X129.092 Y73.247 E0.01683
G1 X135.253 Y79.408 E0.27406
G1 X135.253 Y79.943 E0.01683
G1 X128.557 Y73.247 E0.29786
G1 X128.022 Y73.247 E0.01683
G1 X135.253 Y80.478 E0.32166
G1 X135.253 Y81.013 E0.01683
G1 X127.487 Y73.247 E0.34546
G1 X126.952 Y73.247 E0.01683
G1 X135.253 Y81.548 E0.36926
G1 X135.253 Y82.083 E0.01683
G1 X126.417 Y73.247 E0.39306
G1 X125.882 Y73.247 E0.01683
G1 X135.253 Y82.618 E0.41686
G1 X135.253 Y83.153 E0.01683
G1 X125.347 Y73.247 E0.44066
G1 X124.812 Y73.247 E0.01683
G1 X135.253 Y83.688 E0.46447
G1 X135.253 Y84.223 E0.01683
G1 X124.277 Y73.247 E0.48827
G1 X123.742 Y73.247 E0.01683
G1 X135.253 Y84.758 E0.51207
G1 X135.253 Y85.247 E0.01539
G1 X135.742 Y85.247 E0.01539
G1 X152.753 Y102.258 E0.75674
G1 X152.753 Y101.723 E0.01683
