; generated by PrusaSlicer 2.0.0+win64 on 2019-06-21 at 11:01:14

; 

; external perimeters extrusion width = 0.45mm
; perimeters extrusion width = 0.45mm
; infill extrusion width = 0.45mm
; solid infill extrusion width = 0.45mm
; top infill extrusion width = 0.40mm
; first layer extrusion width = 0.42mm

M73 P0 R62
M73 Q0 S62
M201 X1000 Y1000 Z1000 E5000 ; sets maximum accelerations, mm/sec^2
M203 X200 Y200 Z12 E120 ; sets maximum feedrates, mm/sec
M204 P1250 R1250 T1250 ; sets acceleration (P, T) and retract acceleration (R), mm/sec^2
M205 X8.00 Y8.00 Z0.40 E1.50 ; sets the jerk limits, mm/sec
M205 S0 T0 ; sets the minimum extruding and travel feed rate, mm/sec
M107
M115 U3.7.1 ; tell printer latest fw version
G90 ; use absolute coordinates
M83 ; extruder relative mode
M104 S240 ; set extruder temp
M140 S85 ; set bed temp
Tx
M190 S85 ; wait for bed temp
M109 S240 ; wait for extruder temp
G28 W ; home all without mesh bed level
G80 ; mesh bed leveling

G21 ; set units to millimeters

;go outside print area
G1 Y-3.0 F1000.0
G1 Z0.4 F1000.0
; select extruder
Tc
; purge line
G1 X55.0 F2000.0
G1 Z0.3 F1000.0
G92 E0.0
G1 X240.0 E25.0 F2200.0
M73 Q0 S62
M73 P0 R61
G1 Y-2.0 F1000.0
G1 X55.0 E25 F1400.0
G1 Z0.20 F1000.0
G1 X5.0 E4.0 F1000.0

M221 S95
G92 E0.0
M900 K45 ; Filament gcode
G21 ; set units to millimeters
G90 ; use absolute coordinates
M83 ; use relative distances for extrusion
;BEFORE_LAYER_CHANGE
G92 E0.0
;0.2


G1 E-0.80000 F2100.00000
G1 Z0.600 F10800.000
;AFTER_LAYER_CHANGE
;0.2
G1 X75.555 Y78.148
G1 Z0.200
G1 E0.80000 F2100.00000
M204 S1000
G1 F1200
G1 X75.823 Y77.336 E0.02681
G1 X76.226 Y76.491 E0.02934
G1 X76.689 Y75.769 E0.02691
G1 X77.258 Y75.081 E0.02799
G1 X77.910 Y74.467 E0.02807
G1 X78.600 Y73.962 E0.02681
G1 X79.440 Y73.495 E0.03014
G1 X80.332 Y73.147 E0.03000
G1 X81.535 Y72.877 E0.03868
G1 X82.471 Y72.812 E0.02942
G1 X167.504 Y72.811 E2.66613
G1 X168.848 Y72.939 E0.04235
G1 X170.147 Y73.317 E0.04241
G1 X171.351 Y73.930 E0.04236
G1 X172.422 Y74.761 E0.04250
G1 X173.316 Y75.775 E0.04241
G1 X174.005 Y76.940 E0.04243
G1 X174.463 Y78.213 E0.04241
G1 X174.674 Y79.550 E0.04243
G1 X174.675 Y130.439 E1.59560
G1 X174.563 Y131.338 E0.02839
G1 X174.355 Y132.163 E0.02668
G1 X173.770 Y133.515 E0.04620
G1 X173.311 Y134.231 E0.02668
G1 X172.739 Y134.922 E0.02811
G1 X172.090 Y135.533 E0.02796
G1 X171.400 Y136.038 E0.02681
G1 X170.560 Y136.505 E0.03014
G1 X169.669 Y136.853 E0.03000
G1 X168.465 Y137.123 E0.03868
G1 X167.529 Y137.188 E0.02942
G1 X82.449 Y137.188 E2.66762
G1 X81.592 Y137.131 E0.02694
G1 X80.704 Y136.961 E0.02833
G1 X79.853 Y136.683 E0.02807
G1 X79.039 Y136.301 E0.02820
G1 X78.277 Y135.818 E0.02828
G1 X77.586 Y135.247 E0.02811
G1 X76.968 Y134.590 E0.02829
G1 X76.462 Y133.900 E0.02682
G1 X75.997 Y133.063 E0.03002
G1 X75.648 Y132.172 E0.03001
G1 X75.378 Y130.969 E0.03867
G1 X75.312 Y130.047 E0.02897
G1 X75.323 Y79.609 E1.58145
G1 X75.545 Y78.207 E0.04451
G1 F8640
G1 X75.823 Y77.336 E-0.21113
G1 X76.226 Y76.491 E-0.21609
G1 X76.689 Y75.769 E-0.19816
G1 X77.061 Y75.319 E-0.13463
G1 E-0.04000 F2100.00000
G1 Z0.800 F10800.000
G1 X82.208 Y117.686
G1 Z0.200
G1 E0.80000 F2100.00000
G1 F1200
G1 X81.995 Y118.074 E0.01388
G1 X81.759 Y118.341 E0.01115
G1 X81.486 Y118.553 E0.01086
G1 X81.177 Y118.710 E0.01085
G1 X80.845 Y118.807 E0.01086
G1 X80.500 Y118.840 E0.01086
G1 X80.155 Y118.807 E0.01086
G1 X79.823 Y118.710 E0.01086
G1 X79.514 Y118.553 E0.01087
G1 X79.231 Y118.333 E0.01124
G1 X78.951 Y117.994 E0.01379
G1 X78.790 Y117.677 E0.01114
G1 X78.693 Y117.345 E0.01086
G1 X78.660 Y117.000 E0.01086
G1 X78.693 Y116.655 E0.01086
G1 X78.790 Y116.323 E0.01086
G1 X78.947 Y116.014 E0.01085
G1 X79.159 Y115.741 E0.01086
G1 X79.419 Y115.512 E0.01086
G1 X79.717 Y115.335 E0.01085
G1 X80.051 Y115.215 E0.01114
G1 X80.487 Y115.160 E0.01380
G1 X80.844 Y115.193 E0.01124
G1 X81.177 Y115.290 E0.01087
G1 X81.486 Y115.447 E0.01085
G1 X81.760 Y115.659 E0.01087
G1 X81.996 Y115.928 E0.01124
G1 X82.208 Y116.314 E0.01379
G1 X82.307 Y116.655 E0.01115
G1 X82.340 Y117.000 E0.01086
G1 X82.307 Y117.345 E0.01086
G1 X82.225 Y117.629 E0.00927
G1 X81.857 Y117.541 F10800.000
G1 F1200
G1 X81.684 Y117.856 E0.01127
G1 X81.500 Y118.065 E0.00873
G1 X81.283 Y118.233 E0.00862
G1 X81.038 Y118.358 E0.00862
G1 X80.774 Y118.435 E0.00862
G1 X80.500 Y118.461 E0.00862
G1 X80.226 Y118.435 E0.00862
G1 X79.962 Y118.358 E0.00862
G1 X79.717 Y118.233 E0.00862
G1 X79.495 Y118.061 E0.00881
G1 X79.268 Y117.786 E0.01119
G1 X79.142 Y117.538 E0.00872
G1 X79.065 Y117.274 E0.00862
G1 X79.039 Y117.000 E0.00862
G1 X79.065 Y116.726 E0.00862
G1 X79.142 Y116.462 E0.00862
G1 X79.267 Y116.217 E0.00862
G1 X79.435 Y116.000 E0.00862
G1 X79.641 Y115.818 E0.00862
G1 X79.878 Y115.678 E0.00862
G1 X80.140 Y115.584 E0.00872
G1 X80.494 Y115.539 E0.01119
G1 X80.774 Y115.565 E0.00881
G1 X81.038 Y115.642 E0.00863
G1 X81.283 Y115.767 E0.00862
G1 X81.500 Y115.935 E0.00863
G1 X81.686 Y116.146 E0.00881
G1 X81.857 Y116.459 E0.01119
G1 X81.935 Y116.726 E0.00873
G1 X81.961 Y117.000 E0.00862
G1 X81.935 Y117.274 E0.00862
G1 X81.874 Y117.483 E0.00685
G1 X82.075 Y117.828 F10800.000
G1 F8640
G1 X81.684 Y117.856 E-0.09660
G1 X81.500 Y118.065 E-0.06427
G1 X81.283 Y118.233 E-0.06349
G1 X81.038 Y118.358 E-0.06348
G1 X80.774 Y118.435 E-0.06352
G1 X80.500 Y118.461 E-0.06348
G1 X80.226 Y118.435 E-0.06348
G1 X79.962 Y118.358 E-0.06352
G1 X79.717 Y118.233 E-0.06351
G1 X79.495 Y118.061 E-0.06488
G1 X79.268 Y117.786 E-0.08241
G1 X79.254 Y117.757 E-0.00735
G1 E-0.04000 F2100.00000
G1 Z0.800 F10800.000
G1 X80.500 Y94.840
G1 Z0.200
G1 E0.80000 F2100.00000
G1 F1200
G1 X80.155 Y94.807 E0.01086
G1 X79.814 Y94.708 E0.01115
G1 X79.428 Y94.496 E0.01379
G1 X79.159 Y94.260 E0.01124
G1 X78.947 Y93.986 E0.01087
G1 X78.790 Y93.677 E0.01085
G1 X78.693 Y93.345 E0.01086
G1 X78.660 Y93.000 E0.01086
G1 X78.693 Y92.655 E0.01086
G1 X78.790 Y92.323 E0.01086
G1 X78.947 Y92.014 E0.01085
G1 X79.159 Y91.741 E0.01086
G1 X79.419 Y91.512 E0.01086
G1 X79.717 Y91.335 E0.01085
G1 X80.051 Y91.215 E0.01114
G1 X80.487 Y91.160 E0.01380
G1 X80.844 Y91.193 E0.01124
G1 X81.177 Y91.290 E0.01087
G1 X81.486 Y91.447 E0.01085
G1 X81.760 Y91.659 E0.01087
G1 X81.996 Y91.928 E0.01124
G1 X82.208 Y92.314 E0.01379
G1 X82.307 Y92.655 E0.01115
G1 X82.340 Y93.000 E0.01086
G1 X82.307 Y93.345 E0.01086
G1 X82.208 Y93.686 E0.01115
G1 X81.995 Y94.074 E0.01388
G1 X81.759 Y94.341 E0.01115
G1 X81.486 Y94.553 E0.01086
G1 X81.177 Y94.710 E0.01085
G1 X80.845 Y94.807 E0.01086
G1 X80.560 Y94.834 E0.00897
G1 X80.500 Y94.461 F10800.000
G1 F1200
G1 X80.226 Y94.435 E0.00862
G1 X79.959 Y94.357 E0.00873
G1 X79.646 Y94.186 E0.01119
G1 X79.435 Y94.000 E0.00881
G1 X79.267 Y93.783 E0.00863
G1 X79.142 Y93.538 E0.00862
G1 X79.065 Y93.274 E0.00862
G1 X79.039 Y93.000 E0.00862
G1 X79.065 Y92.726 E0.00862
G1 X79.142 Y92.462 E0.00862
G1 X79.267 Y92.217 E0.00862
G1 X79.435 Y92.000 E0.00862
G1 X79.641 Y91.818 E0.00862
G1 X79.878 Y91.678 E0.00862
G1 X80.140 Y91.584 E0.00872
G1 X80.494 Y91.539 E0.01119
G1 X80.774 Y91.565 E0.00881
G1 X81.038 Y91.642 E0.00863
G1 X81.283 Y91.767 E0.00862
G1 X81.500 Y91.935 E0.00863
G1 X81.686 Y92.146 E0.00881
G1 X81.857 Y92.459 E0.01119
G1 X81.935 Y92.726 E0.00873
G1 X81.961 Y93.000 E0.00862
G1 X81.935 Y93.274 E0.00862
G1 X81.857 Y93.541 E0.00873
G1 X81.684 Y93.856 E0.01127
G1 X81.500 Y94.065 E0.00873
G1 X81.283 Y94.233 E0.00862
G1 X81.038 Y94.358 E0.00862
G1 X80.774 Y94.435 E0.00862
G1 X80.560 Y94.455 E0.00674
G1 X80.363 Y94.699 F10800.000
G1 F8640
G1 X80.226 Y94.435 E-0.07714
G1 X79.959 Y94.357 E-0.06427
G1 X79.646 Y94.186 E-0.08240
G1 X79.435 Y94.000 E-0.06489
G1 X79.267 Y93.783 E-0.06353
G1 X79.142 Y93.538 E-0.06348
G1 X79.065 Y93.274 E-0.06352
G1 X79.039 Y93.000 E-0.06348
G1 X79.065 Y92.726 E-0.06348
G1 X79.142 Y92.462 E-0.06352
G1 X79.267 Y92.217 E-0.06348
G1 X79.338 Y92.125 E-0.02683
G1 E-0.04000 F2100.00000
G1 Z0.800 F10800.000
G1 X141.198 Y128.605
G1 Z0.200
G1 E0.80000 F2100.00000
G1 F1200
G1 X141.416 Y128.177 E0.01504
G1 X141.700 Y127.810 E0.01457
G1 X142.049 Y127.503 E0.01457
G1 X142.449 Y127.267 E0.01456
G1 X142.886 Y127.109 E0.01457
G1 X143.345 Y127.036 E0.01456
G1 X143.825 Y127.051 E0.01504
G1 X144.395 Y127.198 E0.01847
G1 X144.823 Y127.416 E0.01504
G1 X145.190 Y127.700 E0.01457
G1 X145.497 Y128.049 E0.01457
G1 X145.733 Y128.449 E0.01456
G1 X145.891 Y128.886 E0.01457
G1 X145.964 Y129.345 E0.01456
G1 X145.949 Y129.825 E0.01504
G1 X145.802 Y130.395 E0.01847
G1 X145.584 Y130.823 E0.01504
G1 X145.300 Y131.190 E0.01457
G1 X144.951 Y131.497 E0.01457
G1 X144.551 Y131.733 E0.01456
G1 X144.114 Y131.891 E0.01457
G1 X143.655 Y131.964 E0.01456
G1 X143.175 Y131.949 E0.01504
G1 X142.605 Y131.802 E0.01847
G1 X142.177 Y131.584 E0.01504
G1 X141.810 Y131.300 E0.01457
G1 X141.503 Y130.951 E0.01457
G1 X141.267 Y130.551 E0.01456
G1 X141.109 Y130.114 E0.01457
G1 X141.036 Y129.655 E0.01456
G1 X141.051 Y129.175 E0.01504
G1 X141.183 Y128.663 E0.01659
G1 X141.553 Y128.739 F10800.000
G1 F1200
G1 X141.736 Y128.380 E0.01262
G1 X141.977 Y128.070 E0.01233
G1 X142.272 Y127.809 E0.01233
G1 X142.610 Y127.609 E0.01233
G1 X142.980 Y127.476 E0.01234
G1 X143.369 Y127.414 E0.01233
G1 X143.771 Y127.427 E0.01262
G1 X144.261 Y127.553 E0.01586
G1 X144.620 Y127.736 E0.01262
G1 X144.930 Y127.977 E0.01233
G1 X145.191 Y128.272 E0.01233
G1 X145.391 Y128.610 E0.01233
G1 X145.524 Y128.980 E0.01234
G1 X145.586 Y129.369 E0.01233
G1 X145.573 Y129.771 E0.01262
G1 X145.447 Y130.261 E0.01586
G1 X145.264 Y130.620 E0.01262
G1 X145.023 Y130.930 E0.01233
G1 X144.728 Y131.191 E0.01233
G1 X144.390 Y131.391 E0.01233
G1 X144.020 Y131.524 E0.01234
G1 X143.631 Y131.586 E0.01233
G1 X143.229 Y131.573 E0.01262
G1 X142.739 Y131.447 E0.01586
G1 X142.380 Y131.264 E0.01262
G1 X142.070 Y131.023 E0.01233
G1 X141.809 Y130.728 E0.01233
G1 X141.609 Y130.390 E0.01233
G1 X141.476 Y130.020 E0.01234
G1 X141.414 Y129.631 E0.01233
G1 X141.427 Y129.229 E0.01262
G1 X141.538 Y128.797 E0.01398
G1 X141.908 Y128.873 F10800.000
G1 F1200
G1 X142.055 Y128.583 E0.01020
G1 X142.253 Y128.329 E0.01010
G1 X142.494 Y128.116 E0.01010
G1 X142.771 Y127.952 E0.01010
G1 X143.075 Y127.843 E0.01010
G1 X143.393 Y127.792 E0.01009
G1 X143.718 Y127.803 E0.01020
G1 X144.127 Y127.908 E0.01324
G1 X144.417 Y128.055 E0.01020
G1 X144.671 Y128.253 E0.01010
G1 X144.884 Y128.494 E0.01010
G1 X145.048 Y128.771 E0.01010
G1 X145.157 Y129.075 E0.01010
G1 X145.208 Y129.393 E0.01009
G1 X145.197 Y129.718 E0.01020
G1 X145.092 Y130.127 E0.01324
G1 X144.945 Y130.417 E0.01020
G1 X144.747 Y130.671 E0.01010
G1 X144.506 Y130.884 E0.01010
G1 X144.229 Y131.048 E0.01010
G1 X143.925 Y131.157 E0.01010
G1 X143.607 Y131.208 E0.01009
G1 X143.282 Y131.197 E0.01020
G1 X142.873 Y131.092 E0.01324
G1 X142.583 Y130.945 E0.01020
G1 X142.329 Y130.747 E0.01010
G1 X142.116 Y130.506 E0.01010
G1 X141.952 Y130.229 E0.01010
G1 X141.843 Y129.925 E0.01010
G1 X141.792 Y129.607 E0.01009
G1 X141.803 Y129.282 E0.01020
G1 X141.893 Y128.931 E0.01136
G1 X141.703 Y128.620 F10800.000
G1 F8640
G1 X142.055 Y128.583 E-0.08869
G1 X142.253 Y128.329 E-0.07435
G1 X142.494 Y128.116 E-0.07436
G1 X142.771 Y127.952 E-0.07435
G1 X143.075 Y127.843 E-0.07438
G1 X143.393 Y127.792 E-0.07434
G1 X143.718 Y127.803 E-0.07512
G1 X144.127 Y127.908 E-0.09754
G1 X144.417 Y128.055 E-0.07511
G1 X144.594 Y128.193 E-0.05175
G1 E-0.04000 F2100.00000
G1 Z0.800 F10800.000
G1 X162.051 Y129.175
G1 Z0.200
G1 E0.80000 F2100.00000
G1 F1200
G1 X162.198 Y128.605 E0.01847
G1 X162.416 Y128.177 E0.01504
G1 X162.700 Y127.810 E0.01457
G1 X163.049 Y127.503 E0.01457
G1 X163.449 Y127.267 E0.01456
G1 X163.886 Y127.109 E0.01457
G1 X164.345 Y127.036 E0.01456
G1 X164.825 Y127.051 E0.01504
G1 X165.395 Y127.198 E0.01847
G1 X165.823 Y127.416 E0.01504
G1 X166.190 Y127.700 E0.01457
G1 X166.497 Y128.049 E0.01457
G1 X166.733 Y128.449 E0.01456
G1 X166.891 Y128.886 E0.01457
G1 X166.964 Y129.345 E0.01456
G1 X166.949 Y129.825 E0.01504
G1 X166.802 Y130.395 E0.01847
G1 X166.584 Y130.823 E0.01504
G1 X166.300 Y131.190 E0.01457
G1 X165.951 Y131.497 E0.01457
G1 X165.551 Y131.733 E0.01456
G1 X165.114 Y131.891 E0.01457
G1 X164.655 Y131.964 E0.01456
G1 X164.175 Y131.949 E0.01504
G1 X163.605 Y131.802 E0.01847
G1 X163.177 Y131.584 E0.01504
G1 X162.810 Y131.300 E0.01457
G1 X162.503 Y130.951 E0.01457
G1 X162.267 Y130.551 E0.01456
G1 X162.109 Y130.114 E0.01457
G1 X162.036 Y129.655 E0.01456
G1 X162.050 Y129.235 E0.01316
G1 X162.427 Y129.229 F10800.000
G1 F1200
G1 X162.553 Y128.739 E0.01586
G1 X162.736 Y128.380 E0.01262
G1 X162.977 Y128.070 E0.01233
G1 X163.272 Y127.809 E0.01233
G1 X163.610 Y127.609 E0.01233
G1 X163.980 Y127.476 E0.01234
G1 X164.369 Y127.414 E0.01233
G1 X164.771 Y127.427 E0.01262
G1 X165.261 Y127.553 E0.01586
G1 X165.620 Y127.736 E0.01262
G1 X165.930 Y127.977 E0.01233
G1 X166.191 Y128.272 E0.01233
G1 X166.391 Y128.610 E0.01233
G1 X166.524 Y128.980 E0.01234
G1 X166.586 Y129.369 E0.01233
G1 X166.573 Y129.771 E0.01262
G1 X166.447 Y130.261 E0.01586
G1 X166.264 Y130.620 E0.01262
G1 X166.023 Y130.930 E0.01233
G1 X165.728 Y131.191 E0.01233
G1 X165.390 Y131.391 E0.01233
G1 X165.020 Y131.524 E0.01234
G1 X164.631 Y131.586 E0.01233
G1 X164.229 Y131.573 E0.01262
G1 X163.739 Y131.447 E0.01586
G1 X163.380 Y131.264 E0.01262
G1 X163.070 Y131.023 E0.01233
G1 X162.809 Y130.728 E0.01233
G1 X162.609 Y130.390 E0.01233
G1 X162.476 Y130.020 E0.01234
G1 X162.414 Y129.631 E0.01233
G1 X162.425 Y129.289 E0.01074
G1 X162.803 Y129.282 F10800.000
G1 F1200
G1 X162.908 Y128.873 E0.01324
G1 X163.055 Y128.583 E0.01020
G1 X163.253 Y128.329 E0.01010
G1 X163.494 Y128.116 E0.01010
G1 X163.771 Y127.952 E0.01010
G1 X164.075 Y127.843 E0.01010
G1 X164.393 Y127.792 E0.01009
G1 X164.718 Y127.803 E0.01020
G1 X165.127 Y127.908 E0.01324
G1 X165.417 Y128.055 E0.01020
G1 X165.671 Y128.253 E0.01010
G1 X165.884 Y128.494 E0.01010
G1 X166.048 Y128.771 E0.01010
G1 X166.157 Y129.075 E0.01010
G1 X166.208 Y129.393 E0.01009
G1 X166.197 Y129.718 E0.01020
G1 X166.092 Y130.127 E0.01324
G1 X165.945 Y130.417 E0.01020
G1 X165.747 Y130.671 E0.01010
G1 X165.506 Y130.884 E0.01010
G1 X165.229 Y131.048 E0.01010
G1 X164.925 Y131.157 E0.01010
G1 X164.607 Y131.208 E0.01009
G1 X164.282 Y131.197 E0.01020
G1 X163.873 Y131.092 E0.01324
G1 X163.583 Y130.945 E0.01020
G1 X163.329 Y130.747 E0.01010
G1 X163.116 Y130.506 E0.01010
G1 X162.952 Y130.229 E0.01010
G1 X162.843 Y129.925 E0.01010
G1 X162.792 Y129.607 E0.01009
G1 X162.801 Y129.342 E0.00832
G1 X162.489 Y129.034 F10800.000
G1 F8640
G1 X162.908 Y128.873 E-0.11110
G1 X163.055 Y128.583 E-0.07511
G1 X163.253 Y128.329 E-0.07435
G1 X163.494 Y128.116 E-0.07436
G1 X163.771 Y127.952 E-0.07435
G1 X164.075 Y127.843 E-0.07438
G1 X164.393 Y127.792 E-0.07434
G1 X164.718 Y127.803 E-0.07512
G1 X165.127 Y127.908 E-0.09754
G1 X165.240 Y127.965 E-0.02934
G1 E-0.04000 F2100.00000
G1 Z0.800 F10800.000
G1 X163.000 Y107.218
G1 Z0.200
G1 E0.80000 F2100.00000
G1 F1200
G1 X162.584 Y107.179 E0.01309
G1 X162.183 Y107.063 E0.01310
G1 X161.811 Y106.873 E0.01309
G1 X161.481 Y106.617 E0.01309
G1 X161.195 Y106.292 E0.01357
G1 X160.942 Y105.831 E0.01650
G1 X160.821 Y105.416 E0.01357
G1 X160.782 Y105.000 E0.01309
G1 X160.821 Y104.584 E0.01309
G1 X160.937 Y104.183 E0.01309
G1 X161.127 Y103.811 E0.01309
G1 X161.383 Y103.481 E0.01309
G1 X161.696 Y103.205 E0.01309
G1 X162.055 Y102.993 E0.01309
G1 X162.462 Y102.846 E0.01356
G1 X162.981 Y102.780 E0.01640
G1 X163.415 Y102.821 E0.01366
G1 X163.817 Y102.937 E0.01312
G1 X164.189 Y103.127 E0.01309
G1 X164.519 Y103.383 E0.01309
G1 X164.805 Y103.708 E0.01357
G1 X165.058 Y104.169 E0.01650
G1 X165.179 Y104.584 E0.01357
G1 X165.218 Y105.000 E0.01309
G1 X165.179 Y105.416 E0.01309
G1 X165.058 Y105.831 E0.01357
G1 X164.805 Y106.292 E0.01650
G1 X164.519 Y106.617 E0.01357
G1 X164.189 Y106.873 E0.01309
G1 X163.817 Y107.063 E0.01309
G1 X163.416 Y107.179 E0.01310
G1 X163.060 Y107.213 E0.01121
G1 X163.000 Y106.840 F10800.000
G1 F1200
G1 X162.655 Y106.807 E0.01086
G1 X162.323 Y106.711 E0.01086
G1 X162.014 Y106.553 E0.01086
G1 X161.741 Y106.341 E0.01086
G1 X161.505 Y106.074 E0.01115
G1 X161.292 Y105.686 E0.01389
G1 X161.193 Y105.345 E0.01115
G1 X161.160 Y105.000 E0.01086
