; generated by PrusaSlicer 2.0.0+win64 on 2019-06-30 at 19:44:40

; 

; external perimeters extrusion width = 0.45mm
; perimeters extrusion width = 0.45mm
; infill extrusion width = 0.45mm
; solid infill extrusion width = 0.45mm
; top infill extrusion width = 0.40mm
; first layer extrusion width = 0.42mm

M73 P0 R57
M73 Q0 S57
M201 X1000 Y1000 Z1000 E5000 ; sets maximum accelerations, mm/sec^2
M203 X200 Y200 Z12 E120 ; sets maximum feedrates, mm/sec
M204 P1250 R1250 T1250 ; sets acceleration (P, T) and retract acceleration (R), mm/sec^2
M205 X8.00 Y8.00 Z0.40 E1.50 ; sets the jerk limits, mm/sec
M205 S0 T0 ; sets the minimum extruding and travel feed rate, mm/sec
M107
M115 U3.7.1 ; tell printer latest fw version
G90 ; use absolute coordinates
M83 ; extruder relative mode
M104 S240 ; set extruder temp
M140 S85 ; set bed temp
Tx
M190 S85 ; wait for bed temp
M109 S240 ; wait for extruder temp
G28 W ; home all without mesh bed level
G80 ; mesh bed leveling

G21 ; set units to millimeters

;go outside print area
G1 Y-3.0 F1000.0
G1 Z0.4 F1000.0
; select extruder
Tc
; purge line
G1 X55.0 F2000.0
G1 Z0.3 F1000.0
G92 E0.0
G1 X240.0 E25.0 F2200.0
M73 Q0 S57
M73 P0 R57
G1 Y-2.0 F1000.0
G1 X55.0 E25 F1400.0
G1 Z0.20 F1000.0
G1 X5.0 E4.0 F1000.0

M221 S95
G92 E0.0
M900 K45 ; Filament gcode
G21 ; set units to millimeters
G90 ; use absolute coordinates
M83 ; use relative distances for extrusion
;BEFORE_LAYER_CHANGE
G92 E0.0
;0.2


G1 E-0.80000 F2100.00000
G1 Z0.600 F10800.000
;AFTER_LAYER_CHANGE
;0.2
G1 X107.951 Y85.932
G1 Z0.200
G1 E0.80000 F2100.00000
M204 S1000
G1 F1200
G1 X108.257 Y85.377 E0.01987
G1 X108.594 Y85.023 E0.01532
G1 X109.001 Y84.753 E0.01532
G1 X109.458 Y84.580 E0.01532
G1 X109.942 Y84.512 E0.01532
G1 X140.000 Y84.511 E0.94244
G1 X140.803 Y84.664 E0.02563
G1 X141.494 Y85.101 E0.02563
G1 X141.977 Y85.761 E0.02563
G1 X142.183 Y86.548 E0.02552
G1 X143.188 Y106.718 E0.63319
G1 X143.188 Y123.055 E0.51224
G1 X143.065 Y123.724 E0.02134
G1 X142.743 Y124.324 E0.02134
G1 X141.260 Y125.790 E0.06538
G1 X140.705 Y126.072 E0.01953
G1 X140.092 Y126.187 E0.01953
G1 X109.971 Y126.188 E0.94444
G1 X109.286 Y126.069 E0.02179
G1 X108.676 Y125.743 E0.02168
G1 X107.196 Y124.239 E0.06617
G1 X106.913 Y123.660 E0.02021
G1 X106.812 Y123.023 E0.02021
G1 X106.813 Y106.666 E0.51286
G1 X107.817 Y86.551 E0.63148
G1 X107.938 Y85.990 E0.01799
G1 F8640
G1 X108.257 Y85.377 E-0.15965
G1 X108.594 Y85.023 E-0.11285
G1 X109.001 Y84.753 E-0.11285
G1 X109.458 Y84.580 E-0.11285
G1 X109.942 Y84.512 E-0.11285
G1 X110.588 Y84.512 E-0.14896
G1 E-0.04000 F2100.00000
G1 Z0.800 F10800.000
G1 X139.943 Y122.253
G1 Z0.200
G1 E0.80000 F2100.00000
G1 F1200
G1 X139.779 Y122.466 E0.00843
G1 X139.579 Y122.641 E0.00832
G1 X139.351 Y122.777 E0.00833
G1 X139.101 Y122.867 E0.00833
G1 X138.839 Y122.908 E0.00833
G1 X138.573 Y122.900 E0.00832
G1 X138.314 Y122.842 E0.00833
G1 X138.067 Y122.735 E0.00843
G1 X137.786 Y122.531 E0.01089
G1 X137.609 Y122.329 E0.00843
G1 X137.473 Y122.101 E0.00833
G1 X137.383 Y121.851 E0.00833
G1 X137.342 Y121.589 E0.00833
G1 X137.350 Y121.323 E0.00833
G1 X137.408 Y121.064 E0.00833
G1 X137.515 Y120.817 E0.00843
G1 X137.719 Y120.536 E0.01089
G1 X137.921 Y120.359 E0.00843
G1 X138.149 Y120.223 E0.00833
G1 X138.399 Y120.133 E0.00833
G1 X138.661 Y120.092 E0.00833
G1 X138.927 Y120.100 E0.00832
G1 X139.186 Y120.158 E0.00833
G1 X139.433 Y120.265 E0.00843
G1 X139.714 Y120.469 E0.01089
G1 X139.891 Y120.671 E0.00843
G1 X140.027 Y120.899 E0.00833
G1 X140.117 Y121.149 E0.00833
G1 X140.158 Y121.411 E0.00833
G1 X140.150 Y121.677 E0.00833
G1 X140.091 Y121.939 E0.00843
G1 X139.969 Y122.199 E0.00900
G1 X140.071 Y122.490 F10800.000
G1 F8640
G1 X139.779 Y122.466 E-0.07568
G1 X139.579 Y122.641 E-0.06131
G1 X139.351 Y122.777 E-0.06132
G1 X139.101 Y122.867 E-0.06132
G1 X138.839 Y122.908 E-0.06132
G1 X138.573 Y122.900 E-0.06131
G1 X138.314 Y122.842 E-0.06132
G1 X138.067 Y122.735 E-0.06209
G1 X137.786 Y122.531 E-0.08017
G1 X137.609 Y122.329 E-0.06210
G1 X137.473 Y122.101 E-0.06131
G1 X137.399 Y121.894 E-0.05075
G1 E-0.04000 F2100.00000
G1 Z0.800 F10800.000
G1 X138.839 Y109.408
G1 Z0.200
G1 E0.80000 F2100.00000
G1 F1200
G1 X138.573 Y109.400 E0.00832
G1 X138.314 Y109.342 E0.00833
G1 X138.067 Y109.235 E0.00843
G1 X137.786 Y109.031 E0.01089
G1 X137.609 Y108.829 E0.00843
G1 X137.473 Y108.601 E0.00833
G1 X137.383 Y108.351 E0.00833
G1 X137.342 Y108.089 E0.00833
G1 X137.350 Y107.823 E0.00833
G1 X137.408 Y107.564 E0.00833
G1 X137.515 Y107.317 E0.00843
G1 X137.719 Y107.036 E0.01089
G1 X137.921 Y106.859 E0.00843
G1 X138.149 Y106.723 E0.00833
G1 X138.399 Y106.633 E0.00833
G1 X138.661 Y106.592 E0.00833
G1 X138.927 Y106.600 E0.00832
G1 X139.186 Y106.658 E0.00833
G1 X139.433 Y106.765 E0.00843
G1 X139.714 Y106.969 E0.01089
G1 X139.891 Y107.171 E0.00843
G1 X140.027 Y107.399 E0.00833
G1 X140.117 Y107.649 E0.00833
G1 X140.158 Y107.911 E0.00833
G1 X140.150 Y108.177 E0.00833
G1 X140.091 Y108.439 E0.00843
G1 X139.943 Y108.753 E0.01089
G1 X139.779 Y108.966 E0.00843
G1 X139.579 Y109.141 E0.00832
G1 X139.351 Y109.277 E0.00833
G1 X139.101 Y109.367 E0.00833
G1 X138.898 Y109.399 E0.00645
G1 X138.721 Y109.646 F10800.000
G1 F8640
G1 X138.573 Y109.400 E-0.07496
G1 X138.314 Y109.342 E-0.06132
G1 X138.067 Y109.235 E-0.06209
G1 X137.786 Y109.031 E-0.08017
G1 X137.609 Y108.829 E-0.06210
G1 X137.473 Y108.601 E-0.06131
G1 X137.383 Y108.351 E-0.06132
G1 X137.342 Y108.089 E-0.06132
G1 X137.350 Y107.823 E-0.06131
G1 X137.408 Y107.564 E-0.06132
G1 X137.515 Y107.317 E-0.06209
G1 X137.644 Y107.140 E-0.05069
G1 E-0.04000 F2100.00000
G1 Z0.800 F10800.000
G1 X135.699 Y97.964
G1 Z0.200
G1 E0.80000 F2100.00000
G1 F1200
G1 X114.301 Y97.964 E0.67095
G1 X115.387 Y95.726 E0.07801
G1 X115.742 Y95.125 E0.02189
G1 X116.129 Y94.555 E0.02160
G1 X116.552 Y94.011 E0.02160
G1 X117.007 Y93.494 E0.02159
G1 X117.494 Y93.007 E0.02160
G1 X118.011 Y92.552 E0.02160
G1 X118.555 Y92.129 E0.02159
G1 X119.125 Y91.742 E0.02160
G1 X119.718 Y91.392 E0.02160
G1 X120.331 Y91.079 E0.02160
G1 X120.964 Y90.805 E0.02160
G1 X121.612 Y90.572 E0.02159
G1 X122.273 Y90.380 E0.02160
G1 X122.945 Y90.230 E0.02160
G1 X123.626 Y90.122 E0.02160
G1 X124.312 Y90.057 E0.02160
G1 X124.945 Y90.037 E0.01988
G1 X125.686 Y90.057 E0.02324
G1 X126.374 Y90.122 E0.02167
G1 X127.055 Y90.230 E0.02160
G1 X127.727 Y90.380 E0.02160
G1 X128.388 Y90.572 E0.02160
G1 X129.036 Y90.805 E0.02159
G1 X129.669 Y91.079 E0.02160
G1 X130.282 Y91.392 E0.02160
G1 X130.875 Y91.742 E0.02160
G1 X131.445 Y92.129 E0.02160
G1 X131.989 Y92.552 E0.02160
G1 X132.465 Y92.971 E0.01988
G1 X132.991 Y93.492 E0.02324
G1 X133.448 Y94.011 E0.02167
G1 X133.871 Y94.555 E0.02160
G1 X134.258 Y95.125 E0.02160
G1 X134.613 Y95.726 E0.02189
G1 X135.673 Y97.910 E0.07613
G1 X135.097 Y97.587 F10800.000
G1 F1200
G1 X114.903 Y97.587 E0.63319
G1 X115.719 Y95.904 E0.05864
G1 X116.061 Y95.327 E0.02103
G1 X116.435 Y94.777 E0.02085
G1 X116.842 Y94.251 E0.02086
G1 X117.282 Y93.752 E0.02085
G1 X117.752 Y93.282 E0.02086
G1 X118.251 Y92.842 E0.02086
G1 X118.777 Y92.435 E0.02085
G1 X119.327 Y92.061 E0.02086
G1 X119.900 Y91.722 E0.02086
G1 X120.492 Y91.420 E0.02085
G1 X121.103 Y91.156 E0.02086
G1 X121.728 Y90.931 E0.02085
G1 X122.367 Y90.745 E0.02086
G1 X123.016 Y90.600 E0.02085
G1 X123.673 Y90.496 E0.02085
G1 X124.335 Y90.434 E0.02085
G1 X124.946 Y90.414 E0.01916
G1 X125.663 Y90.433 E0.02250
G1 X126.327 Y90.496 E0.02090
G1 X126.984 Y90.600 E0.02085
G1 X127.633 Y90.745 E0.02085
G1 X128.272 Y90.931 E0.02086
G1 X128.897 Y91.156 E0.02085
G1 X129.508 Y91.420 E0.02086
G1 X130.100 Y91.722 E0.02085
G1 X130.673 Y92.061 E0.02085
G1 X131.223 Y92.435 E0.02085
G1 X131.749 Y92.842 E0.02085
G1 X132.207 Y93.246 E0.01916
G1 X132.717 Y93.751 E0.02250
G1 X133.158 Y94.251 E0.02090
G1 X133.565 Y94.777 E0.02085
G1 X133.939 Y95.327 E0.02085
G1 X134.281 Y95.904 E0.02103
G1 X135.071 Y97.533 E0.05676
G1 X134.495 Y97.210 F10800.000
G1 F1200
G1 X115.505 Y97.210 E0.59543
G1 X116.052 Y96.083 E0.03928
G1 X116.379 Y95.529 E0.02018
G1 X116.740 Y94.999 E0.02011
G1 X117.133 Y94.492 E0.02011
G1 X117.557 Y94.011 E0.02011
G1 X118.011 Y93.557 E0.02011
G1 X118.492 Y93.133 E0.02011
G1 X118.999 Y92.740 E0.02011
G1 X119.529 Y92.379 E0.02011
G1 X120.081 Y92.053 E0.02011
G1 X120.653 Y91.762 E0.02011
G1 X121.241 Y91.507 E0.02011
G1 X121.845 Y91.290 E0.02011
G1 X122.461 Y91.111 E0.02011
G1 X123.087 Y90.971 E0.02011
G1 X123.720 Y90.870 E0.02011
G1 X124.359 Y90.810 E0.02011
G1 X124.947 Y90.792 E0.01845
G1 X125.641 Y90.810 E0.02176
G1 X126.280 Y90.870 E0.02013
G1 X126.913 Y90.971 E0.02011
G1 X127.539 Y91.111 E0.02011
G1 X128.155 Y91.290 E0.02011
G1 X128.759 Y91.507 E0.02011
G1 X129.347 Y91.762 E0.02011
G1 X129.919 Y92.053 E0.02011
G1 X130.471 Y92.379 E0.02011
G1 X131.001 Y92.740 E0.02011
G1 X131.508 Y93.133 E0.02011
G1 X131.949 Y93.522 E0.01845
G1 X132.443 Y94.010 E0.02176
G1 X132.867 Y94.492 E0.02013
G1 X133.260 Y94.999 E0.02011
G1 X133.621 Y95.529 E0.02011
G1 X133.948 Y96.083 E0.02018
G1 X134.469 Y97.156 E0.03740
G1 X134.559 Y97.605 F10800.000
G1 F8640
G1 X131.178 Y97.165 E-0.76000
G1 E-0.04000 F2100.00000
G1 Z0.800 F10800.000
G1 X139.036 Y105.852
G1 Z0.200
G1 E0.80000 F2100.00000
G1 F1200
G1 X138.614 Y105.836 E0.01324
G1 X138.211 Y105.900 E0.01280
G1 X137.827 Y106.038 E0.01280
G1 X137.475 Y106.246 E0.01280
G1 X137.158 Y106.526 E0.01327
G1 X136.856 Y106.941 E0.01611
G1 X136.688 Y107.330 E0.01328
G1 X136.599 Y107.728 E0.01280
G1 X136.586 Y108.136 E0.01280
G1 X136.650 Y108.539 E0.01280
G1 X136.788 Y108.923 E0.01280
G1 X136.996 Y109.274 E0.01279
G1 X137.276 Y109.592 E0.01328
G1 X137.691 Y109.894 E0.01611
G1 X138.080 Y110.062 E0.01328
G1 X138.478 Y110.151 E0.01280
G1 X138.886 Y110.164 E0.01279
G1 X139.289 Y110.100 E0.01280
G1 X139.673 Y109.962 E0.01280
G1 X140.036 Y109.744 E0.01326
G1 X140.036 Y119.771 E0.31437
G1 X139.809 Y119.606 E0.00880
G1 X139.420 Y119.438 E0.01328
G1 X139.022 Y119.349 E0.01280
G1 X138.614 Y119.336 E0.01279
G1 X138.211 Y119.400 E0.01280
G1 X137.827 Y119.538 E0.01280
G1 X137.475 Y119.746 E0.01280
G1 X137.158 Y120.026 E0.01327
G1 X136.856 Y120.441 E0.01611
G1 X136.688 Y120.830 E0.01328
G1 X136.599 Y121.228 E0.01280
G1 X136.586 Y121.636 E0.01280
G1 X136.650 Y122.039 E0.01280
G1 X136.788 Y122.423 E0.01280
G1 X136.996 Y122.774 E0.01279
G1 X137.226 Y123.036 E0.01092
G1 X112.772 Y123.036 E0.76672
G1 X112.842 Y122.974 E0.00291
G1 X113.144 Y122.559 E0.01611
G1 X113.312 Y122.170 E0.01328
G1 X113.401 Y121.772 E0.01280
G1 X113.414 Y121.364 E0.01279
G1 X113.350 Y120.961 E0.01280
G1 X113.212 Y120.577 E0.01280
G1 X113.004 Y120.226 E0.01279
G1 X112.724 Y119.908 E0.01328
G1 X112.309 Y119.606 E0.01611
G1 X111.920 Y119.438 E0.01328
G1 X111.522 Y119.349 E0.01279
G1 X111.114 Y119.336 E0.01279
G1 X110.711 Y119.400 E0.01280
G1 X110.327 Y119.538 E0.01280
G1 X109.964 Y119.756 E0.01326
G1 X109.964 Y109.729 E0.31437
G1 X110.191 Y109.894 E0.00881
G1 X110.580 Y110.062 E0.01328
G1 X110.978 Y110.151 E0.01279
G1 X111.386 Y110.164 E0.01279
G1 X111.789 Y110.100 E0.01280
G1 X112.173 Y109.962 E0.01280
G1 X112.524 Y109.754 E0.01279
G1 X112.842 Y109.474 E0.01328
G1 X113.144 Y109.059 E0.01611
G1 X113.312 Y108.670 E0.01328
G1 X113.401 Y108.272 E0.01280
G1 X113.414 Y107.864 E0.01279
G1 X113.350 Y107.461 E0.01280
G1 X113.212 Y107.077 E0.01280
G1 X113.004 Y106.726 E0.01279
G1 X112.724 Y106.408 E0.01328
G1 X112.309 Y106.106 E0.01611
G1 X111.920 Y105.938 E0.01328
G1 X111.522 Y105.849 E0.01279
G1 X111.114 Y105.836 E0.01279
G1 X110.964 Y105.860 E0.00476
G1 X110.964 Y88.064 E0.55796
G1 X139.036 Y88.064 E0.88017
G1 X139.036 Y105.792 E0.55584
G1 X139.413 Y105.852 F10800.000
G1 F1200
G1 X139.413 Y105.993 E0.00443
G1 X140.413 Y106.993 E0.04434
G1 X140.413 Y107.359 E0.01147
G1 X140.369 Y107.238 E0.00403
G1 X140.198 Y106.948 E0.01056
G1 X139.969 Y106.688 E0.01086
G1 X139.621 Y106.435 E0.01350
G1 X139.303 Y106.298 E0.01086
G1 X138.974 Y106.224 E0.01056
G1 X138.638 Y106.214 E0.01056
G1 X138.305 Y106.267 E0.01056
G1 X137.988 Y106.381 E0.01056
G1 X137.698 Y106.552 E0.01056
G1 X137.438 Y106.781 E0.01085
G1 X137.185 Y107.129 E0.01350
G1 X137.048 Y107.447 E0.01085
G1 X136.974 Y107.776 E0.01056
G1 X136.964 Y108.112 E0.01056
G1 X137.017 Y108.445 E0.01056
G1 X137.131 Y108.762 E0.01056
G1 X137.302 Y109.052 E0.01056
G1 X137.531 Y109.312 E0.01086
G1 X137.879 Y109.565 E0.01350
G1 X138.197 Y109.702 E0.01086
G1 X138.526 Y109.776 E0.01056
G1 X138.862 Y109.786 E0.01056
G1 X139.195 Y109.733 E0.01056
G1 X139.512 Y109.619 E0.01056
G1 X139.802 Y109.448 E0.01056
G1 X140.055 Y109.225 E0.01056
G1 X140.267 Y108.952 E0.01086
G1 X140.413 Y108.641 E0.01076
G1 X140.413 Y120.859 E0.38308
G1 X140.369 Y120.738 E0.00403
G1 X140.198 Y120.448 E0.01056
G1 X139.969 Y120.188 E0.01086
G1 X139.621 Y119.935 E0.01350
G1 X139.303 Y119.798 E0.01086
G1 X138.974 Y119.724 E0.01056
G1 X138.638 Y119.714 E0.01056
G1 X138.305 Y119.767 E0.01056
G1 X137.988 Y119.881 E0.01056
G1 X137.698 Y120.052 E0.01056
G1 X137.438 Y120.281 E0.01085
G1 X137.185 Y120.629 E0.01350
G1 X137.048 Y120.947 E0.01085
G1 X136.974 Y121.276 E0.01056
G1 X136.964 Y121.612 E0.01056
G1 X137.017 Y121.945 E0.01056
G1 X137.131 Y122.262 E0.01056
G1 X137.302 Y122.552 E0.01056
G1 X137.531 Y122.812 E0.01086
G1 X137.879 Y123.065 E0.01350
G1 X138.197 Y123.202 E0.01086
G1 X138.526 Y123.276 E0.01056
G1 X138.862 Y123.286 E0.01056
G1 X139.195 Y123.233 E0.01056
G1 X139.512 Y123.119 E0.01056
G1 X139.802 Y122.948 E0.01056
G1 X140.055 Y122.725 E0.01056
G1 X140.267 Y122.452 E0.01086
G1 X140.413 Y122.141 E0.01076
G1 X140.413 Y122.757 E0.01931
G1 X139.757 Y123.413 E0.02909
G1 X110.243 Y123.413 E0.92538
G1 X109.587 Y122.757 E0.02909
G1 X109.587 Y122.141 E0.01931
G1 X109.631 Y122.262 E0.00403
G1 X109.802 Y122.552 E0.01056
G1 X110.031 Y122.812 E0.01085
G1 X110.379 Y123.065 E0.01350
G1 X110.697 Y123.202 E0.01086
G1 X111.026 Y123.276 E0.01056
G1 X111.362 Y123.286 E0.01056
G1 X111.695 Y123.233 E0.01056
G1 X112.012 Y123.119 E0.01056
G1 X112.302 Y122.948 E0.01056
G1 X112.562 Y122.719 E0.01085
G1 X112.815 Y122.371 E0.01350
G1 X112.952 Y122.053 E0.01086
G1 X113.026 Y121.724 E0.01056
G1 X113.036 Y121.388 E0.01056
G1 X112.983 Y121.055 E0.01056
G1 X112.869 Y120.738 E0.01056
G1 X112.698 Y120.448 E0.01056
G1 X112.469 Y120.188 E0.01085
G1 X112.121 Y119.935 E0.01350
G1 X111.803 Y119.798 E0.01086
G1 X111.474 Y119.724 E0.01056
G1 X111.138 Y119.714 E0.01056
G1 X110.805 Y119.767 E0.01056
G1 X110.488 Y119.881 E0.01056
G1 X110.198 Y120.052 E0.01056
G1 X109.938 Y120.281 E0.01085
G1 X109.685 Y120.629 E0.01350
G1 X109.587 Y120.856 E0.00776
G1 X109.587 Y108.641 E0.38300
G1 X109.631 Y108.762 E0.00403
G1 X109.802 Y109.052 E0.01056
G1 X110.031 Y109.312 E0.01085
G1 X110.379 Y109.565 E0.01350
G1 X110.697 Y109.702 E0.01086
G1 X111.026 Y109.776 E0.01056
G1 X111.362 Y109.786 E0.01056
G1 X111.695 Y109.733 E0.01056
G1 X112.012 Y109.619 E0.01056
G1 X112.302 Y109.448 E0.01056
G1 X112.562 Y109.219 E0.01085
G1 X112.815 Y108.871 E0.01350
G1 X112.952 Y108.553 E0.01086
G1 X113.026 Y108.224 E0.01056
G1 X113.036 Y107.888 E0.01056
G1 X112.983 Y107.555 E0.01056
G1 X112.869 Y107.238 E0.01056
G1 X112.698 Y106.948 E0.01056
G1 X112.469 Y106.688 E0.01085
G1 X112.121 Y106.435 E0.01350
G1 X111.803 Y106.298 E0.01086
G1 X111.474 Y106.224 E0.01056
G1 X111.138 Y106.214 E0.01056
G1 X110.805 Y106.267 E0.01056
G1 X110.488 Y106.381 E0.01056
G1 X110.198 Y106.552 E0.01056
G1 X109.938 Y106.781 E0.01085
G1 X109.685 Y107.129 E0.01350
G1 X109.587 Y107.356 E0.00776
G1 X109.587 Y106.993 E0.01139
G1 X110.587 Y105.993 E0.04434
G1 X110.587 Y87.687 E0.57397
G1 X139.413 Y87.687 E0.90381
G1 X139.413 Y105.792 E0.56766
G1 F8640
G1 X139.413 Y105.993 E-0.04649
G1 X140.413 Y106.993 E-0.32655
G1 X140.413 Y107.359 E-0.08447
G1 X140.369 Y107.238 E-0.02969
G1 X140.198 Y106.948 E-0.07777
G1 X139.969 Y106.688 E-0.07994
G1 X139.621 Y106.435 E-0.09940
G1 X139.558 Y106.408 E-0.01569
G1 E-0.04000 F2100.00000
G1 Z0.800 F10800.000
G1 X112.658 Y107.911
G1 Z0.200
G1 E0.80000 F2100.00000
G1 F1200
G1 X112.650 Y108.177 E0.00832
G1 X112.592 Y108.436 E0.00833
G1 X112.485 Y108.683 E0.00843
G1 X112.281 Y108.964 E0.01089
G1 X112.079 Y109.141 E0.00843
G1 X111.851 Y109.277 E0.00833
