; generated by PrusaSlicer 2.0.0+win64 on 2019-08-13 at 12:15:52

; 

; external perimeters extrusion width = 0.45mm
; perimeters extrusion width = 0.45mm
; infill extrusion width = 0.45mm
; solid infill extrusion width = 0.45mm
; top infill extrusion width = 0.40mm
; first layer extrusion width = 0.42mm

M73 P0 R20
M73 Q0 S20
M201 X1000 Y1000 Z1000 E5000 ; sets maximum accelerations, mm/sec^2
M203 X200 Y200 Z12 E120 ; sets maximum feedrates, mm/sec
M204 P1250 R1250 T1250 ; sets acceleration (P, T) and retract acceleration (R), mm/sec^2
M205 X8.00 Y8.00 Z0.40 E1.50 ; sets the jerk limits, mm/sec
M205 S0 T0 ; sets the minimum extruding and travel feed rate, mm/sec
M107
M115 U3.7.2 ; tell printer latest fw version
G90 ; use absolute coordinates
M83 ; extruder relative mode
M104 S240 ; set extruder temp
M140 S85 ; set bed temp
Tx
M190 S85 ; wait for bed temp
M109 S240 ; wait for extruder temp
G28 W ; home all without mesh bed level
G80 ; mesh bed leveling

G21 ; set units to millimeters

;go outside print area
G1 Y-3.0 F1000.0
G1 Z0.4 F1000.0
; select extruder
Tc
; purge line
G1 X55.0 F2000.0
G1 Z0.3 F1000.0
G92 E0.0
G1 X240.0 E25.0 F2200.0
M73 Q0 S20
M73 P0 R20
G1 Y-2.0 F1000.0
G1 X55.0 E25 F1400.0
G1 Z0.20 F1000.0
G1 X5.0 E4.0 F1000.0

M221 S95
G92 E0.0
M900 K45 ; Filament gcode
G21 ; set units to millimeters
G90 ; use absolute coordinates
M83 ; use relative distances for extrusion
;BEFORE_LAYER_CHANGE
G92 E0.0
;0.2


G1 E-0.80000 F2100.00000
G1 Z0.600 F10800.000
;AFTER_LAYER_CHANGE
;0.2
G1 X112.034 Y100.661
G1 Z0.200
G1 E0.80000 F2100.00000
M204 S1000
G1 F1200
G1 X112.507 Y100.298 E0.01869
G1 X120.784 Y95.741 E0.29625
G1 X121.434 Y95.498 E0.02177
G1 X121.987 Y95.434 E0.01746
G1 X134.003 Y95.434 E0.37675
G1 X134.883 Y95.489 E0.02763
G1 X135.756 Y95.652 E0.02784
G1 X137.414 Y96.253 E0.05531
G1 X137.873 Y96.575 E0.01758
G1 X138.253 Y96.993 E0.01771
G1 X138.530 Y97.480 E0.01758
G1 X138.697 Y98.020 E0.01771
G1 X138.734 Y111.698 E0.42886
G1 X138.615 Y112.298 E0.01919
G1 X138.358 Y112.849 E0.01906
G1 X137.977 Y113.328 E0.01919
G1 X137.493 Y113.702 E0.01919
G1 X136.688 Y114.060 E0.02763
G1 X135.841 Y114.326 E0.02784
G1 X134.418 Y114.553 E0.04517
G1 X121.524 Y114.521 E0.40428
G1 X120.791 Y114.263 E0.02435
G1 X112.542 Y109.722 E0.29525
G1 X112.024 Y109.328 E0.02042
G1 X111.621 Y108.816 E0.02042
G1 X111.370 Y108.250 E0.01943
G1 X111.262 Y107.635 E0.01956
G1 X111.272 Y102.235 E0.16931
G1 X111.402 Y101.653 E0.01869
G1 X111.660 Y101.121 E0.01857
G1 X111.997 Y100.708 E0.01669
G1 X112.287 Y100.948 F10800.000
G1 F1200
G1 X112.726 Y100.607 E0.01744
G1 X120.961 Y96.074 E0.29472
G1 X121.517 Y95.865 E0.01862
G1 X121.992 Y95.811 E0.01498
G1 X134.003 Y95.811 E0.37660
G1 X134.834 Y95.863 E0.02612
G1 X135.657 Y96.016 E0.02622
G1 X137.199 Y96.565 E0.05134
G1 X137.606 Y96.843 E0.01544
G1 X137.940 Y97.205 E0.01544
G1 X138.184 Y97.628 E0.01532
G1 X138.328 Y98.099 E0.01544
G1 X138.360 Y111.650 E0.42487
G1 X138.258 Y112.176 E0.01680
G1 X138.033 Y112.658 E0.01669
G1 X137.699 Y113.072 E0.01669
G1 X137.274 Y113.393 E0.01669
G1 X135.729 Y113.966 E0.05166
G1 X134.395 Y114.177 E0.04235
G1 X121.593 Y114.150 E0.40139
G1 X120.965 Y113.928 E0.02089
G1 X112.733 Y109.398 E0.29460
G1 X112.279 Y109.050 E0.01794
G1 X111.930 Y108.597 E0.01794
G1 X111.723 Y108.114 E0.01646
G1 X111.637 Y107.596 E0.01646
G1 X111.646 Y102.281 E0.16665
G1 X111.757 Y101.779 E0.01612
G1 X111.985 Y101.314 E0.01623
G1 X112.249 Y100.994 E0.01300
G1 F8640
G1 X112.726 Y100.607 E-0.14198
G1 X115.071 Y99.316 E-0.61802
G1 E-0.04000 F2100.00000
G1 Z0.800 F10800.000
G1 X134.024 Y110.632
G1 Z0.200
G1 E0.80000 F2100.00000
G1 F1200
G1 X123.364 Y110.636 E0.33423
G1 X123.364 Y106.636 E0.12542
G1 X115.976 Y106.632 E0.23165
G1 X115.976 Y103.368 E0.10237
G1 X123.364 Y103.364 E0.23165
G1 X123.364 Y99.365 E0.12540
G1 X134.024 Y99.372 E0.33423
G1 X134.024 Y99.632 E0.00816
G1 X133.969 Y99.636 E0.00173
G1 X126.636 Y99.636 E0.22992
G1 X126.636 Y110.364 E0.33638
G1 X133.969 Y110.364 E0.22992
G1 X134.024 Y110.368 E0.00173
G1 X134.024 Y110.572 E0.00642
G1 F8640
G1 X130.732 Y110.592 E-0.76000
G1 E-0.04000 F2100.00000
G1 Z0.800 F10800.000
G1 X127.013 Y100.013
G1 Z0.200
G1 E0.80000 F2100.00000
G1 F1200
G1 X127.013 Y109.987 E0.31273
G1 X133.981 Y109.987 E0.21847
G1 X134.401 Y110.013 E0.01320
G1 X134.401 Y110.987 E0.03051
G1 X133.981 Y111.013 E0.01320
G1 X122.987 Y111.013 E0.34470
G1 X122.987 Y107.013 E0.12542
G1 X116.019 Y107.013 E0.21847
G1 X115.599 Y106.987 E0.01320
G1 X115.599 Y103.013 E0.12457
G1 X116.019 Y102.987 E0.01320
G1 X122.987 Y102.987 E0.21847
G1 X122.987 Y98.987 E0.12540
G1 X134.230 Y98.995 E0.35252
G1 X134.401 Y99.010 E0.00537
G1 X134.401 Y99.987 E0.03063
G1 X133.981 Y100.013 E0.01320
G1 X127.073 Y100.013 E0.21659
G1 X127.390 Y100.390 F10800.000
G1 F1200
G1 X127.390 Y109.610 E0.28909
G1 X133.993 Y109.610 E0.20702
G1 X134.595 Y109.648 E0.01891
G1 X134.778 Y109.678 E0.00583
G1 X134.778 Y111.322 E0.05154
G1 X134.595 Y111.352 E0.00583
G1 X133.993 Y111.390 E0.01891
G1 X122.610 Y111.390 E0.35689
G1 X122.610 Y107.390 E0.12542
G1 X116.007 Y107.390 E0.20702
G1 X115.406 Y107.352 E0.01891
G1 X115.222 Y107.322 E0.00583
G1 X115.222 Y102.678 E0.14560
G1 X115.406 Y102.648 E0.00583
G1 X116.007 Y102.610 E0.01891
G1 X122.610 Y102.610 E0.20702
G1 X122.610 Y98.610 E0.12541
G1 X134.246 Y98.618 E0.36485
G1 X134.778 Y98.678 E0.01677
G1 X134.778 Y100.322 E0.05154
G1 X134.595 Y100.352 E0.00583
G1 X133.993 Y100.390 E0.01891
G1 X127.450 Y100.390 E0.20514
G1 X126.990 Y100.391 F10800.000
G1 X126.523 Y100.265
G1 F1200
G1 X125.907 Y99.649 E0.02807
G1 X125.358 Y99.649 E0.01769
G1 X126.353 Y100.644 E0.04536
G1 X126.353 Y101.192 E0.01768
G1 X124.810 Y99.649 E0.07038
G1 X124.261 Y99.648 E0.01769
G1 X126.353 Y101.740 E0.09540
G1 X126.353 Y102.289 E0.01768
G1 X123.712 Y99.648 E0.12042
G1 X123.647 Y99.648 E0.00210
G1 X123.647 Y100.131 E0.01558
G1 X126.353 Y102.837 E0.12339
G1 X126.353 Y103.386 E0.01768
G1 X123.647 Y100.679 E0.12339
G1 X123.647 Y101.228 E0.01768
G1 X126.353 Y103.934 E0.12339
G1 X126.353 Y104.482 E0.01768
G1 X123.647 Y101.776 E0.12339
G1 X123.647 Y102.325 E0.01768
G1 X126.353 Y105.031 E0.12339
G1 X126.353 Y105.579 E0.01768
G1 X123.647 Y102.873 E0.12339
G1 X123.647 Y103.421 E0.01768
G1 X126.353 Y106.128 E0.12339
G1 X126.353 Y106.676 E0.01768
G1 X123.324 Y103.647 E0.13811
G1 X122.776 Y103.647 E0.01767
G1 X126.353 Y107.224 E0.16311
G1 X126.353 Y107.773 E0.01768
G1 X122.228 Y103.647 E0.18810
G1 X121.680 Y103.648 E0.01767
G1 X126.353 Y108.321 E0.21309
G1 X126.353 Y108.869 E0.01768
G1 X121.132 Y103.648 E0.23809
G1 X120.584 Y103.648 E0.01767
G1 X123.288 Y106.353 E0.12333
G1 X122.740 Y106.353 E0.01769
G1 X120.035 Y103.649 E0.12331
G1 X119.487 Y103.649 E0.01767
G1 X122.191 Y106.353 E0.12329
G1 X121.642 Y106.352 E0.01769
G1 X118.939 Y103.649 E0.12326
G1 X118.391 Y103.649 E0.01767
G1 X121.094 Y106.352 E0.12324
G1 X120.545 Y106.352 E0.01769
G1 X117.843 Y103.650 E0.12322
G1 X117.295 Y103.650 E0.01767
G1 X119.996 Y106.351 E0.12319
G1 X119.448 Y106.351 E0.01769
G1 X116.747 Y103.650 E0.12317
G1 X116.259 Y103.650 E0.01573
G1 X116.259 Y103.711 E0.00195
G1 X118.899 Y106.351 E0.12039
G1 X118.351 Y106.351 E0.01769
G1 X116.259 Y104.259 E0.09538
G1 X116.259 Y104.807 E0.01768
G1 X117.802 Y106.350 E0.07036
G1 X117.253 Y106.350 E0.01769
G1 X116.259 Y105.356 E0.04534
G1 X116.259 Y105.904 E0.01768
G1 X116.874 Y106.520 E0.02807
G1 F8640
G1 X116.259 Y105.904 E-0.20099
G1 X116.259 Y105.356 E-0.12662
G1 X117.253 Y106.350 E-0.32471
G1 X117.720 Y106.350 E-0.10768
G1 E-0.04000 F2100.00000
G1 Z0.800 F10800.000
G1 X123.477 Y109.832
G1 Z0.200
G1 E0.80000 F2100.00000
G1 F1200
G1 X123.998 Y110.353 E0.02374
G1 X124.546 Y110.353 E0.01768
G1 X123.647 Y109.454 E0.04100
G1 X123.647 Y108.905 E0.01768
G1 X125.094 Y110.352 E0.06599
G1 X125.642 Y110.352 E0.01768
G1 X123.647 Y108.357 E0.09099
G1 X123.647 Y107.808 E0.01768
G1 X126.191 Y110.352 E0.11599
G1 X126.353 Y110.352 E0.00524
G1 X126.353 Y109.966 E0.01244
G1 X123.647 Y107.260 E0.12339
G1 X123.647 Y106.712 E0.01768
G1 X126.523 Y109.587 E0.13113
;BEFORE_LAYER_CHANGE
G92 E0.0
;0.4


G1 F8640
G1 X124.195 Y107.260 E-0.76000
G1 E-0.04000 F2100.00000
G1 Z0.800 F10800.000
;AFTER_LAYER_CHANGE
;0.4
M104 S250 ; set temperature
M140 S90 ; set bed temperature
G1 X121.524 Y114.521
G1 Z0.400
G1 E0.80000 F2100.00000
G1 F1536
G1 X120.791 Y114.263 E0.02435
G1 X112.542 Y109.722 E0.29525
G1 X112.024 Y109.328 E0.02042
G1 X111.621 Y108.816 E0.02042
G1 X111.370 Y108.250 E0.01943
G1 X111.262 Y107.635 E0.01956
G1 X111.272 Y102.235 E0.16931
G1 X111.402 Y101.653 E0.01869
G1 X111.660 Y101.121 E0.01857
G1 X112.034 Y100.661 E0.01857
G1 X112.507 Y100.298 E0.01869
G1 X120.784 Y95.741 E0.29625
G1 X121.434 Y95.498 E0.02177
G1 X121.987 Y95.434 E0.01746
G1 X134.003 Y95.434 E0.37675
G1 X134.883 Y95.489 E0.02763
G1 X135.756 Y95.652 E0.02784
G1 X137.414 Y96.253 E0.05531
G1 X137.873 Y96.575 E0.01758
G1 X138.253 Y96.993 E0.01771
G1 X138.530 Y97.480 E0.01758
G1 X138.697 Y98.020 E0.01771
G1 X138.734 Y111.698 E0.42886
G1 X138.615 Y112.298 E0.01919
G1 X138.358 Y112.849 E0.01906
G1 X137.977 Y113.328 E0.01919
G1 X137.493 Y113.702 E0.01919
G1 X136.688 Y114.060 E0.02763
G1 X135.841 Y114.326 E0.02784
G1 X134.418 Y114.553 E0.04517
G1 X121.584 Y114.521 E0.40240
G1 F8640
G1 X120.791 Y114.263 E-0.19245
G1 X118.638 Y113.078 E-0.56756
G1 E-0.04000 F2100.00000
G1 Z1.000 F10800.000
G1 X134.659 Y110.701
G1 Z0.400
G1 E0.80000 F2100.00000
M204 S800
G1 F1536
G1 X133.967 Y110.761 E0.02354
G1 X123.239 Y110.761 E0.36311
G1 X123.239 Y106.762 E0.13535
G1 X115.771 Y106.752 E0.25280
G1 X115.341 Y106.698 E0.01468
G1 X115.341 Y103.302 E0.11493
G1 X115.771 Y103.248 E0.01468
G1 X123.239 Y103.238 E0.25280
G1 X123.239 Y99.240 E0.13533
G1 X134.090 Y99.243 E0.36729
G1 X134.659 Y99.299 E0.01937
G1 X134.659 Y99.698 E0.01348
G1 X134.229 Y99.752 E0.01468
G1 X126.761 Y99.762 E0.25280
G1 X126.761 Y110.238 E0.35458
G1 X134.229 Y110.248 E0.25280
G1 X134.659 Y110.302 E0.01468
G1 X134.659 Y110.641 E0.01145
M204 S1000
G1 F8640
G1 X133.967 Y110.761 E-0.16238
G1 X131.378 Y110.761 E-0.59762
G1 E-0.04000 F2100.00000
G1 Z1.000 F10800.000
G1 X127.168 Y100.169
G1 Z0.400
G1 E0.80000 F2100.00000
M204 S800
G1 F1536
G1 X127.168 Y109.831 E0.32706
G1 X134.255 Y109.841 E0.23989
G1 X134.780 Y109.907 E0.01790
G1 X135.067 Y109.979 E0.01000
G1 X135.067 Y111.030 E0.03558
G1 X134.524 Y111.134 E0.01869
G1 X133.979 Y111.168 E0.01848
G1 X122.832 Y111.168 E0.37732
G1 X122.832 Y107.169 E0.13536
G1 X115.745 Y107.159 E0.23989
G1 X115.211 Y107.092 E0.01822
G1 X114.933 Y107.030 E0.00963
G1 X114.933 Y102.970 E0.13740
G1 X115.211 Y102.908 E0.00963
G1 X115.745 Y102.841 E0.01822
G1 X122.832 Y102.831 E0.23989
G1 X122.832 Y98.832 E0.13536
G1 X134.105 Y98.836 E0.38156
G1 X134.522 Y98.866 E0.01415
G1 X135.067 Y98.970 E0.01878
G1 X135.067 Y100.030 E0.03586
G1 X134.789 Y100.092 E0.00963
G1 X134.255 Y100.159 E0.01822
G1 X127.228 Y100.169 E0.23786
M204 S1000
G1 X127.575 Y100.575 F10800.000
M204 S800
G1 F1500
G1 X127.575 Y109.425 E0.29954
G1 X134.281 Y109.434 E0.22698
G1 X134.855 Y109.506 E0.01958
G1 X135.474 Y109.661 E0.02160
G1 X135.474 Y111.333 E0.05657
G1 X134.855 Y111.494 E0.02166
G1 X134.569 Y111.539 E0.00980
G1 X133.992 Y111.575 E0.01955
G1 X122.425 Y111.575 E0.39153
G1 X122.425 Y107.575 E0.13538
G1 X115.719 Y107.566 E0.22698
G1 X115.142 Y107.493 E0.01969
G1 X114.526 Y107.333 E0.02154
G1 X114.526 Y102.667 E0.15791
G1 X115.142 Y102.507 E0.02154
G1 X115.719 Y102.434 E0.01969
G1 X122.425 Y102.425 E0.22698
G1 X122.425 Y98.425 E0.13538
G1 X134.119 Y98.429 E0.39584
G1 X134.568 Y98.461 E0.01522
G1 X134.855 Y98.506 E0.00983
G1 X135.474 Y98.667 E0.02166
G1 X135.474 Y100.333 E0.05636
G1 X135.150 Y100.430 E0.01144
G1 X134.858 Y100.493 E0.01011
G1 X134.281 Y100.566 E0.01969
G1 X127.635 Y100.575 E0.22495
M204 S1000
G1 X127.175 Y100.577 F10800.000
G1 F8640
G1 X127.613 Y103.867 E-0.76000
G1 E-0.04000 F2100.00000
G1 Z1.000 F10800.000
G1 X126.557 Y99.502
G1 Z0.400
G1 E0.80000 F2100.00000
G1 F1536
G1 X134.435 Y99.496 E0.06028
G1 F8640
G1 X131.143 Y99.498 E-0.76000
G1 E-0.04000 F2100.00000
G1 Z1.000 F10800.000
G1 X123.895 Y99.362
G1 Z0.400
G1 E0.80000 F2100.00000
M204 S1250
G1 F1536
G1 X123.544 Y99.712 E0.01719
G1 X123.544 Y100.302 E0.02044
G1 X124.301 Y99.545 E0.03712
G1 X124.891 Y99.545 E0.02044
G1 X123.544 Y100.892 E0.06602
G1 X123.544 Y101.481 E0.02045
G1 X125.480 Y99.546 E0.09492
G1 X126.070 Y99.546 E0.02044
G1 X123.544 Y102.071 E0.12383
G1 X123.544 Y102.661 E0.02044
G1 X126.331 Y99.875 E0.13662
G1 X126.456 Y99.874 E0.00433
G1 X126.456 Y100.339 E0.01612
G1 X120.342 Y106.453 E0.29976
G1 X120.931 Y106.454 E0.02042
G1 X126.456 Y100.929 E0.27088
G1 X126.456 Y101.519 E0.02044
G1 X121.520 Y106.455 E0.24201
G1 X122.109 Y106.455 E0.02042
G1 X126.456 Y102.109 E0.21314
G1 X126.456 Y102.698 E0.02044
G1 X122.697 Y106.456 E0.18427
G1 X123.286 Y106.457 E0.02042
G1 X126.456 Y103.288 E0.15539
M73 Q5 S19
G1 X126.456 Y103.878 E0.02044
G1 X123.544 Y106.789 E0.14274
G1 X123.544 Y107.378 E0.02044
G1 X126.456 Y104.467 E0.14274
M73 P5 R19
G1 X126.456 Y105.057 E0.02044
G1 X123.544 Y107.968 E0.14274
G1 X123.544 Y108.558 E0.02044
G1 X126.456 Y105.647 E0.14274
G1 X126.456 Y106.236 E0.02044
G1 X123.544 Y109.147 E0.14274
G1 X123.544 Y109.737 E0.02044
G1 X126.456 Y106.826 E0.14274
G1 X126.456 Y107.416 E0.02044
G1 X123.544 Y110.327 E0.14274
G1 X123.544 Y110.456 E0.00447
G1 X124.005 Y110.456 E0.01598
G1 X126.456 Y108.005 E0.12014
G1 X126.456 Y108.595 E0.02044
G1 X124.595 Y110.456 E0.09123
G1 X125.185 Y110.456 E0.02045
G1 X126.456 Y109.185 E0.06231
G1 X126.456 Y109.774 E0.02045
G1 X125.591 Y110.639 E0.04238
M204 S1000
G1 X126.557 Y110.499 F10800.000
G1 F1536
G1 X134.430 Y110.503 E0.05858
G1 F8640
G1 X131.139 Y110.502 E-0.76000
G1 E-0.04000 F2100.00000
G1 Z1.000 F10800.000
G1 X119.570 Y106.635
G1 Z0.400
G1 E0.80000 F2100.00000
M204 S1250
G1 F1536
G1 X122.662 Y103.544 E0.15157
G1 X122.071 Y103.545 E0.02047
G1 X119.164 Y106.451 E0.14252
G1 X118.576 Y106.450 E0.02042
G1 X121.480 Y103.545 E0.14243
G1 X120.890 Y103.546 E0.02047
G1 X117.987 Y106.450 E0.14235
G1 X117.398 Y106.449 E0.02042
G1 X120.299 Y103.547 E0.14227
G1 X119.709 Y103.548 E0.02047
G1 X116.809 Y106.448 E0.14219
G1 X116.220 Y106.447 E0.02042
G1 X119.118 Y103.549 E0.14211
G1 X118.528 Y103.550 E0.02047
G1 X115.649 Y106.429 E0.14117
G1 X115.646 Y105.842 E0.02034
G1 X117.937 Y103.551 E0.11236
G1 X117.347 Y103.551 E0.02047
G1 X115.646 Y105.252 E0.08340
G1 X115.646 Y104.663 E0.02044
G1 X116.756 Y103.552 E0.05445
G1 X116.166 Y103.553 E0.02047
G1 X115.463 Y104.256 E0.03448
M204 S1000
;BEFORE_LAYER_CHANGE
G92 E0.0
;0.6


G1 F8640
G1 X116.166 Y103.553 E-0.22960
G1 X116.756 Y103.552 E-0.13635
G1 X115.646 Y104.663 E-0.36262
G1 X115.646 Y104.799 E-0.03143
G1 E-0.04000 F2100.00000
G1 Z1.000 F10800.000
;AFTER_LAYER_CHANGE
;0.6
G1 X111.370 Y108.250
G1 Z0.600
G1 E0.80000 F2100.00000
G1 F1735
G1 X111.262 Y107.635 E0.01956
G1 X111.272 Y102.235 E0.16931
G1 X111.402 Y101.653 E0.01869
G1 X111.660 Y101.121 E0.01857
G1 X112.034 Y100.661 E0.01857
G1 X112.507 Y100.298 E0.01869
G1 X120.784 Y95.741 E0.29625
G1 X121.434 Y95.498 E0.02177
G1 X121.987 Y95.434 E0.01746
G1 X134.003 Y95.434 E0.37675
G1 X134.883 Y95.489 E0.02763
G1 X135.756 Y95.652 E0.02784
G1 X137.414 Y96.253 E0.05531
G1 X137.873 Y96.575 E0.01758
G1 X138.253 Y96.993 E0.01771
G1 X138.530 Y97.480 E0.01758
G1 X138.697 Y98.020 E0.01771
G1 X138.734 Y111.698 E0.42886
G1 X138.615 Y112.298 E0.01919
G1 X138.358 Y112.849 E0.01906
G1 X137.977 Y113.328 E0.01919
G1 X137.493 Y113.702 E0.01919
G1 X136.688 Y114.060 E0.02763
G1 X135.841 Y114.326 E0.02784
G1 X134.418 Y114.553 E0.04517
G1 X121.524 Y114.521 E0.40428
G1 X120.791 Y114.263 E0.02435
G1 X112.542 Y109.722 E0.29525
G1 X112.024 Y109.328 E0.02042
G1 X111.621 Y108.816 E0.02042
G1 X111.394 Y108.304 E0.01755
G1 F8640
G1 X111.262 Y107.635 E-0.15749
G1 X111.267 Y105.026 E-0.60251
G1 E-0.04000 F2100.00000
G1 Z1.200 F10800.000
G1 X135.137 Y110.772
G1 Z0.600
G1 E0.80000 F2100.00000
M204 S800
G1 F1735
G1 X134.682 Y110.894 E0.01595
G1 X134.217 Y110.952 E0.01586
G1 X123.039 Y110.960 E0.37836
G1 X123.039 Y106.962 E0.13532
