; generated by PrusaSlicer 2.0.0+win64 on 2019-08-07 at 22:19:54

; 

; external perimeters extrusion width = 0.45mm
; perimeters extrusion width = 0.45mm
; infill extrusion width = 0.45mm
; solid infill extrusion width = 0.45mm
; top infill extrusion width = 0.40mm
; first layer extrusion width = 0.42mm

M73 P0 R16
M73 Q0 S16
M201 X1000 Y1000 Z1000 E5000 ; sets maximum accelerations, mm/sec^2
M203 X200 Y200 Z12 E120 ; sets maximum feedrates, mm/sec
M204 P1250 R1250 T1250 ; sets acceleration (P, T) and retract acceleration (R), mm/sec^2
M205 X8.00 Y8.00 Z0.40 E1.50 ; sets the jerk limits, mm/sec
M205 S0 T0 ; sets the minimum extruding and travel feed rate, mm/sec
M107
M115 U3.7.2 ; tell printer latest fw version
G90 ; use absolute coordinates
M83 ; extruder relative mode
M104 S240 ; set extruder temp
M140 S85 ; set bed temp
Tx
M190 S85 ; wait for bed temp
M109 S240 ; wait for extruder temp
G28 W ; home all without mesh bed level
G80 ; mesh bed leveling

G21 ; set units to millimeters

;go outside print area
G1 Y-3.0 F1000.0
G1 Z0.4 F1000.0
; select extruder
Tc
; purge line
G1 X55.0 F2000.0
G1 Z0.3 F1000.0
G92 E0.0
G1 X240.0 E25.0 F2200.0
M73 Q0 S16
M73 P0 R16
G1 Y-2.0 F1000.0
G1 X55.0 E25 F1400.0
G1 Z0.20 F1000.0
G1 X5.0 E4.0 F1000.0

M221 S95
G92 E0.0
M900 K45 ; Filament gcode
G21 ; set units to millimeters
G90 ; use absolute coordinates
M83 ; use relative distances for extrusion
;BEFORE_LAYER_CHANGE
G92 E0.0
;0.2


G1 E-0.80000 F2100.00000
G1 Z0.600 F10800.000
;AFTER_LAYER_CHANGE
;0.2
G1 X109.747 Y109.873
G1 Z0.200
G1 E0.80000 F2100.00000
M204 S1000
G1 F1200
G1 X109.171 Y109.076 E0.03083
G1 X109.002 Y108.587 E0.01623
G1 X108.935 Y108.074 E0.01623
G1 X108.957 Y101.661 E0.20108
G1 X109.121 Y101.039 E0.02017
G1 X109.435 Y100.477 E0.02017
G1 X109.879 Y100.011 E0.02017
G1 X110.425 Y99.671 E0.02017
G1 X123.126 Y95.562 E0.41858
G1 X138.504 Y95.534 E0.48215
G1 X139.450 Y95.717 E0.03022
G1 X140.263 Y96.236 E0.03022
G1 X140.826 Y97.017 E0.03022
G1 X141.061 Y97.952 E0.03022
G1 X141.055 Y112.133 E0.44464
G1 X140.907 Y112.787 E0.02103
G1 X140.595 Y113.381 E0.02103
G1 X140.139 Y113.874 E0.02103
G1 X139.575 Y114.229 E0.02091
G1 X139.067 Y114.402 E0.01684
G1 X138.529 Y114.465 E0.01697
G1 X123.071 Y114.429 E0.48470
G1 X110.577 Y110.394 E0.41168
G1 X109.798 Y109.905 E0.02882
G1 X110.000 Y109.594 F10800.000
G1 F1200
G1 X109.503 Y108.896 E0.02687
G1 X109.312 Y108.053 E0.02709
G1 X109.328 Y101.730 E0.19824
G1 X109.468 Y101.187 E0.01760
G1 X109.740 Y100.700 E0.01749
G1 X110.128 Y100.295 E0.01760
G1 X110.607 Y100.002 E0.01760
G1 X123.183 Y95.935 E0.41440
G1 X138.504 Y95.911 E0.48038
G1 X139.317 Y96.070 E0.02597
G1 X140.010 Y96.516 E0.02586
G1 X140.491 Y97.191 E0.02597
G1 X140.686 Y97.992 E0.02586
G1 X140.681 Y112.079 E0.44169
G1 X140.557 Y112.648 E0.01828
G1 X140.286 Y113.165 E0.01828
G1 X139.889 Y113.592 E0.01828
G1 X139.393 Y113.898 E0.01828
G1 X138.520 Y114.088 E0.02799
G1 X123.140 Y114.059 E0.48225
G1 X110.724 Y110.046 E0.40913
G1 X110.051 Y109.626 E0.02488
G1 F8640
G1 X109.503 Y108.896 E-0.21074
G1 X109.312 Y108.053 E-0.19953
G1 X109.316 Y106.538 E-0.34973
G1 E-0.04000 F2100.00000
G1 Z0.800 F10800.000
G1 X137.536 Y110.936
G1 Z0.200
G1 E0.80000 F2100.00000
G1 F1200
G1 X124.464 Y110.936 E0.40985
G1 X124.464 Y107.036 E0.12228
G1 X112.464 Y107.036 E0.37625
G1 X112.464 Y102.964 E0.12766
G1 X124.464 Y102.964 E0.37625
G1 X124.464 Y99.064 E0.12228
G1 X137.536 Y99.064 E0.40985
G1 X137.536 Y100.136 E0.03360
G1 X125.536 Y100.136 E0.37625
G1 X125.536 Y109.864 E0.30502
G1 X137.536 Y109.864 E0.37625
G1 X137.536 Y110.876 E0.03172
G1 F8640
G1 X134.244 Y110.891 E-0.76000
G1 E-0.04000 F2100.00000
G1 Z0.800 F10800.000
G1 X125.913 Y100.513
G1 Z0.200
G1 E0.80000 F2100.00000
G1 F1200
G1 X125.913 Y109.487 E0.28138
G1 X137.913 Y109.487 E0.37625
G1 X137.913 Y111.313 E0.05725
G1 X124.087 Y111.313 E0.43350
G1 X124.087 Y107.413 E0.12228
G1 X112.087 Y107.413 E0.37625
G1 X112.087 Y102.587 E0.15131
G1 X124.087 Y102.587 E0.37625
G1 X124.087 Y98.687 E0.12228
G1 X137.913 Y98.687 E0.43350
G1 X137.913 Y100.513 E0.05725
G1 X125.973 Y100.513 E0.37437
G1 X126.290 Y100.890 F10800.000
G1 F1200
G1 X126.290 Y109.110 E0.25773
G1 X138.290 Y109.110 E0.37625
G1 X138.290 Y111.690 E0.08089
G1 X123.710 Y111.690 E0.45715
G1 X123.710 Y107.790 E0.12228
G1 X111.710 Y107.790 E0.37625
G1 X111.710 Y102.210 E0.17496
G1 X123.710 Y102.210 E0.37625
G1 X123.710 Y98.310 E0.12228
G1 X138.290 Y98.310 E0.45715
G1 X138.290 Y100.890 E0.08089
G1 X126.350 Y100.890 E0.37437
G1 X125.891 Y100.918 F10800.000
G1 F8640
G1 X126.326 Y104.181 E-0.76000
G1 E-0.04000 F2100.00000
G1 Z0.800 F10800.000
G1 X124.053 Y106.923
G1 Z0.200
G1 E0.80000 F2100.00000
G1 F1200
G1 X120.377 Y103.247 E0.16368
G1 X119.842 Y103.247 E0.01686
G1 X123.348 Y106.753 E0.15612
G1 X122.812 Y106.753 E0.01686
G1 X119.306 Y103.247 E0.15612
G1 X118.771 Y103.247 E0.01686
G1 X122.277 Y106.753 E0.15612
G1 X121.741 Y106.753 E0.01686
G1 X118.235 Y103.247 E0.15612
G1 X117.700 Y103.247 E0.01686
G1 X121.206 Y106.753 E0.15612
G1 X120.670 Y106.753 E0.01686
G1 X117.164 Y103.247 E0.15612
G1 X116.629 Y103.247 E0.01686
G1 X120.135 Y106.753 E0.15612
G1 X119.599 Y106.753 E0.01686
G1 X116.093 Y103.247 E0.15612
G1 X115.558 Y103.247 E0.01686
G1 X119.064 Y106.753 E0.15612
G1 X118.528 Y106.753 E0.01686
G1 X115.022 Y103.247 E0.15612
G1 X114.487 Y103.247 E0.01686
G1 X117.993 Y106.753 E0.15612
G1 X117.457 Y106.753 E0.01686
G1 X113.951 Y103.247 E0.15612
G1 X113.416 Y103.247 E0.01686
G1 X116.922 Y106.753 E0.15612
G1 X116.386 Y106.753 E0.01686
G1 X112.880 Y103.247 E0.15612
G1 X112.747 Y103.247 E0.00419
G1 X112.747 Y103.649 E0.01267
G1 X115.851 Y106.753 E0.13820
G1 X115.315 Y106.753 E0.01686
G1 X112.747 Y104.185 E0.11436
G1 X112.747 Y104.720 E0.01686
G1 X114.780 Y106.753 E0.09051
G1 X114.244 Y106.753 E0.01686
G1 X112.747 Y105.256 E0.06667
G1 X112.747 Y105.791 E0.01686
G1 X113.709 Y106.753 E0.04282
G1 X113.173 Y106.753 E0.01686
G1 X112.577 Y106.157 E0.02653
G1 F8640
G1 X113.173 Y106.753 E-0.19458
G1 X113.709 Y106.753 E-0.12365
G1 X112.747 Y105.791 E-0.31404
G1 X112.747 Y105.256 E-0.12365
G1 X112.759 Y105.268 E-0.00407
G1 E-0.04000 F2100.00000
G1 Z0.800 F10800.000
G1 X125.276 Y110.823
G1 Z0.200
G1 E0.80000 F2100.00000
G1 F1200
G1 X124.747 Y110.294 E0.02354
G1 X124.747 Y109.759 E0.01686
G1 X125.811 Y110.823 E0.04738
G1 F8640
G1 X124.747 Y109.759 E-0.34747
G1 X124.747 Y110.294 E-0.12365
G1 X125.276 Y110.823 E-0.17260
G1 E-0.15627 F2100.00000
G1 Z0.800 F10800.000
G1 X136.747 Y109.977
G1 Z0.200
G1 E0.80000 F2100.00000
G1 F1200
G1 X137.253 Y110.483 E0.02254
G1 X137.253 Y110.653 E0.00534
G1 X136.887 Y110.653 E0.01152
G1 X136.381 Y110.147 E0.02254
G1 X135.846 Y110.147 E0.01686
G1 X136.352 Y110.653 E0.02254
G1 X135.816 Y110.653 E0.01686
G1 X135.310 Y110.147 E0.02254
G1 X134.774 Y110.147 E0.01686
G1 X135.281 Y110.653 E0.02254
G1 X134.745 Y110.653 E0.01686
G1 X134.239 Y110.147 E0.02254
G1 X133.703 Y110.147 E0.01686
G1 X134.210 Y110.653 E0.02254
G1 X133.674 Y110.653 E0.01686
G1 X133.168 Y110.147 E0.02254
G1 X132.632 Y110.147 E0.01686
G1 X133.139 Y110.653 E0.02254
G1 X132.603 Y110.653 E0.01686
G1 X132.097 Y110.147 E0.02254
G1 X131.561 Y110.147 E0.01686
G1 X132.068 Y110.653 E0.02254
G1 X131.532 Y110.653 E0.01686
G1 X131.026 Y110.147 E0.02254
G1 X130.490 Y110.147 E0.01686
G1 X130.996 Y110.653 E0.02254
G1 X130.461 Y110.653 E0.01686
G1 X129.955 Y110.147 E0.02254
G1 X129.419 Y110.147 E0.01686
G1 X129.925 Y110.653 E0.02254
G1 X129.390 Y110.653 E0.01686
G1 X128.884 Y110.147 E0.02254
G1 X128.348 Y110.147 E0.01686
G1 X128.854 Y110.653 E0.02254
G1 X128.319 Y110.653 E0.01686
G1 X127.813 Y110.147 E0.02254
G1 X127.277 Y110.147 E0.01686
G1 X127.783 Y110.653 E0.02254
G1 X127.248 Y110.653 E0.01686
G1 X126.742 Y110.147 E0.02254
G1 X126.206 Y110.147 E0.01686
G1 X126.712 Y110.653 E0.02254
G1 X126.177 Y110.653 E0.01686
G1 X125.671 Y110.147 E0.02254
G1 X125.253 Y110.147 E0.01315
G1 X125.253 Y109.729 E0.01315
G1 X124.747 Y109.223 E0.02254
G1 X124.747 Y108.688 E0.01686
G1 X125.253 Y109.194 E0.02254
G1 X125.253 Y108.658 E0.01686
G1 X124.747 Y108.152 E0.02254
G1 X124.747 Y107.617 E0.01686
G1 X125.253 Y108.123 E0.02254
G1 X125.253 Y107.587 E0.01686
G1 X120.913 Y103.247 E0.19326
G1 X121.448 Y103.247 E0.01686
G1 X125.253 Y107.052 E0.16942
G1 X125.253 Y106.516 E0.01686
G1 X121.984 Y103.247 E0.14557
G1 X122.519 Y103.247 E0.01686
G1 X125.253 Y105.981 E0.12173
G1 X125.253 Y105.445 E0.01686
G1 X123.055 Y103.247 E0.09788
G1 X123.590 Y103.247 E0.01686
G1 X125.253 Y104.910 E0.07404
G1 X125.253 Y104.374 E0.01686
G1 X124.126 Y103.247 E0.05019
G1 X124.661 Y103.247 E0.01686
G1 X125.253 Y103.839 E0.02635
G1 X125.253 Y103.303 E0.01686
G1 X124.747 Y102.797 E0.02254
G1 X124.747 Y102.261 E0.01686
G1 X125.253 Y102.768 E0.02254
G1 X125.253 Y102.232 E0.01686
G1 X124.747 Y101.726 E0.02254
G1 X124.747 Y101.190 E0.01686
G1 X125.253 Y101.697 E0.02254
G1 X125.253 Y101.161 E0.01686
G1 X124.747 Y100.655 E0.02254
G1 X124.747 Y100.119 E0.01686
G1 X125.253 Y100.626 E0.02254
G1 X125.253 Y100.090 E0.01686
G1 X124.747 Y99.584 E0.02254
G1 X124.747 Y99.347 E0.00746
G1 X125.046 Y99.347 E0.00940
G1 X125.552 Y99.853 E0.02254
G1 X126.087 Y99.853 E0.01686
G1 X125.581 Y99.347 E0.02254
G1 X126.117 Y99.347 E0.01686
G1 X126.623 Y99.853 E0.02254
G1 X127.158 Y99.853 E0.01686
G1 X126.652 Y99.347 E0.02254
G1 X127.188 Y99.347 E0.01686
G1 X127.694 Y99.853 E0.02254
G1 X128.229 Y99.853 E0.01686
G1 X127.723 Y99.347 E0.02254
G1 X128.259 Y99.347 E0.01686
G1 X128.765 Y99.853 E0.02254
G1 X129.300 Y99.853 E0.01686
G1 X128.794 Y99.347 E0.02254
G1 X129.330 Y99.347 E0.01686
G1 X129.836 Y99.853 E0.02254
G1 X130.371 Y99.853 E0.01686
G1 X129.865 Y99.347 E0.02254
G1 X130.401 Y99.347 E0.01686
G1 X130.907 Y99.853 E0.02254
G1 X131.442 Y99.853 E0.01686
G1 X130.936 Y99.347 E0.02254
G1 X131.472 Y99.347 E0.01686
G1 X131.978 Y99.853 E0.02254
G1 X132.513 Y99.853 E0.01686
G1 X132.007 Y99.347 E0.02254
G1 X132.543 Y99.347 E0.01686
G1 X133.049 Y99.853 E0.02254
G1 X133.584 Y99.853 E0.01686
G1 X133.078 Y99.347 E0.02254
G1 X133.614 Y99.347 E0.01686
G1 X134.120 Y99.853 E0.02254
G1 X134.655 Y99.853 E0.01686
G1 X134.149 Y99.347 E0.02254
G1 X134.685 Y99.347 E0.01686
G1 X135.191 Y99.853 E0.02254
G1 X135.726 Y99.853 E0.01686
G1 X135.220 Y99.347 E0.02254
G1 X135.756 Y99.347 E0.01686
G1 X136.262 Y99.853 E0.02254
G1 X136.797 Y99.853 E0.01686
G1 X136.291 Y99.347 E0.02254
G1 X136.827 Y99.347 E0.01686
G1 X137.423 Y99.943 E0.02654
;BEFORE_LAYER_CHANGE
G92 E0.0
;0.4


G1 F8640
G1 X136.827 Y99.347 E-0.19460
G1 X136.291 Y99.347 E-0.12365
G1 X136.797 Y99.853 E-0.16527
G1 X136.262 Y99.853 E-0.12365
G1 X135.794 Y99.385 E-0.15282
G1 E-0.04000 F2100.00000
G1 Z0.800 F10800.000
;AFTER_LAYER_CHANGE
;0.4
M104 S250 ; set temperature
M140 S90 ; set bed temperature
G1 X139.450 Y95.717
G1 Z0.400
G1 E0.80000 F2100.00000
G1 F1816
G1 X140.263 Y96.236 E0.03022
G1 X140.826 Y97.017 E0.03022
G1 X141.061 Y97.952 E0.03022
G1 X141.055 Y112.133 E0.44464
G1 X140.907 Y112.787 E0.02103
G1 X140.595 Y113.381 E0.02103
G1 X140.139 Y113.874 E0.02103
G1 X139.575 Y114.229 E0.02091
G1 X139.067 Y114.402 E0.01684
G1 X138.529 Y114.465 E0.01697
G1 X123.071 Y114.429 E0.48470
G1 X110.577 Y110.394 E0.41168
G1 X109.747 Y109.873 E0.03071
G1 X109.171 Y109.076 E0.03083
G1 X109.002 Y108.587 E0.01623
G1 X108.935 Y108.074 E0.01623
G1 X108.957 Y101.661 E0.20108
G1 X109.121 Y101.039 E0.02017
G1 X109.435 Y100.477 E0.02017
G1 X109.879 Y100.011 E0.02017
G1 X110.425 Y99.671 E0.02017
G1 X123.126 Y95.562 E0.41858
G1 X138.504 Y95.534 E0.48215
G1 X139.391 Y95.705 E0.02834
G1 F8640
G1 X140.263 Y96.236 E-0.23547
G1 X140.826 Y97.017 E-0.22253
G1 X141.061 Y97.952 E-0.22253
G1 X141.061 Y98.296 E-0.07947
G1 E-0.04000 F2100.00000
G1 Z1.000 F10800.000
G1 X137.461 Y110.861
G1 Z0.400
G1 E0.80000 F2100.00000
M204 S800
G1 F1816
G1 X124.539 Y110.861 E0.43738
G1 X124.539 Y106.961 E0.13201
G1 X112.539 Y106.961 E0.40619
G1 X112.539 Y103.039 E0.13274
G1 X124.539 Y103.039 E0.40619
G1 X124.539 Y99.139 E0.13201
G1 X137.461 Y99.139 E0.43738
G1 X137.461 Y100.061 E0.03120
G1 X125.461 Y100.061 E0.40619
G1 X125.461 Y109.939 E0.33437
G1 X137.461 Y109.939 E0.40619
G1 X137.461 Y110.801 E0.02917
M204 S1000
G1 F8640
G1 X134.169 Y110.816 E-0.76000
G1 E-0.04000 F2100.00000
G1 Z1.000 F10800.000
G1 X125.868 Y100.468
G1 Z0.400
G1 E0.80000 F2100.00000
M204 S800
G1 F1816
G1 X125.868 Y109.532 E0.30681
G1 X137.868 Y109.532 E0.40619
G1 X137.868 Y111.268 E0.05876
G1 X124.132 Y111.268 E0.46494
M73 Q6 S15
G1 X124.132 Y107.368 E0.13201
M73 P6 R15
G1 X112.132 Y107.368 E0.40619
G1 X112.132 Y102.632 E0.16030
G1 X124.132 Y102.632 E0.40619
G1 X124.132 Y98.732 E0.13201
G1 X137.868 Y98.732 E0.46494
G1 X137.868 Y100.468 E0.05876
G1 X125.928 Y100.468 E0.40415
M204 S1000
G1 X126.275 Y100.875 F10800.000
M204 S800
G1 F1500
G1 X126.275 Y109.125 E0.27925
G1 X138.275 Y109.125 E0.40619
G1 X138.275 Y111.675 E0.08631
G1 X123.725 Y111.675 E0.49250
G1 X123.725 Y107.775 E0.13201
G1 X111.725 Y107.775 E0.40619
G1 X111.725 Y102.225 E0.18786
G1 X123.725 Y102.225 E0.40619
G1 X123.725 Y98.325 E0.13201
G1 X138.275 Y98.325 E0.49250
G1 X138.275 Y100.875 E0.08631
G1 X126.335 Y100.875 E0.40415
M204 S1000
G1 X125.876 Y100.903 F10800.000
G1 F8640
G1 X126.311 Y104.166 E-0.76000
G1 E-0.04000 F2100.00000
G1 Z1.000 F10800.000
G1 X125.339 Y102.280
G1 Z0.400
G1 E0.80000 F2100.00000
M204 S1250
G1 F1816
G1 X124.844 Y102.775 E0.02373
G1 X124.844 Y102.197 E0.01960
G1 X125.156 Y101.886 E0.01494
G1 X125.156 Y101.309 E0.01960
G1 X124.844 Y101.620 E0.01494
G1 X124.844 Y101.042 E0.01960
G1 X125.156 Y100.731 E0.01494
G1 X125.156 Y100.154 E0.01960
G1 X124.844 Y100.465 E0.01494
G1 X124.844 Y99.888 E0.01960
G1 X125.288 Y99.444 E0.02128
G1 X125.865 Y99.444 E0.01960
G1 X125.554 Y99.756 E0.01494
G1 X126.131 Y99.756 E0.01960
G1 X126.442 Y99.444 E0.01494
G1 X127.020 Y99.444 E0.01960
G1 X126.709 Y99.756 E0.01494
G1 X127.286 Y99.756 E0.01960
G1 X127.597 Y99.444 E0.01494
G1 X128.175 Y99.444 E0.01960
G1 X127.864 Y99.756 E0.01494
G1 X128.441 Y99.756 E0.01960
G1 X128.752 Y99.444 E0.01494
G1 X129.330 Y99.444 E0.01960
G1 X129.019 Y99.756 E0.01494
G1 X129.596 Y99.756 E0.01960
G1 X129.907 Y99.444 E0.01494
G1 X130.484 Y99.444 E0.01960
G1 X130.173 Y99.756 E0.01494
G1 X130.751 Y99.756 E0.01960
G1 X131.062 Y99.444 E0.01494
G1 X131.639 Y99.444 E0.01960
G1 X131.328 Y99.756 E0.01494
G1 X131.906 Y99.756 E0.01960
G1 X132.217 Y99.444 E0.01494
G1 X132.794 Y99.444 E0.01960
G1 X132.483 Y99.756 E0.01494
G1 X133.061 Y99.756 E0.01960
G1 X133.372 Y99.444 E0.01494
G1 X133.949 Y99.444 E0.01960
G1 X133.638 Y99.756 E0.01494
G1 X134.215 Y99.756 E0.01960
G1 X134.527 Y99.444 E0.01494
G1 X135.104 Y99.444 E0.01960
G1 X134.793 Y99.756 E0.01494
G1 X135.370 Y99.756 E0.01960
G1 X135.681 Y99.444 E0.01494
G1 X136.259 Y99.444 E0.01960
G1 X135.948 Y99.756 E0.01494
G1 X136.525 Y99.756 E0.01960
G1 X136.836 Y99.444 E0.01494
G1 X137.156 Y99.444 E0.01084
G1 X137.156 Y99.703 E0.00876
G1 X136.919 Y99.939 E0.01134
M204 S1000
G1 F8640
G1 X137.156 Y99.703 E-0.07711
G1 X137.156 Y99.444 E-0.05961
G1 X136.836 Y99.444 E-0.07372
G1 X136.525 Y99.756 E-0.10159
G1 X135.948 Y99.756 E-0.13333
G1 X136.259 Y99.444 E-0.10159
G1 X135.681 Y99.444 E-0.13333
G1 X135.437 Y99.689 E-0.07973
G1 E-0.04000 F2100.00000
G1 Z1.000 F10800.000
G1 X136.513 Y110.739
G1 Z0.400
G1 E0.80000 F2100.00000
M204 S1250
G1 F1816
G1 X137.007 Y110.244 E0.02373
G1 X136.430 Y110.244 E0.01960
G1 X136.119 Y110.556 E0.01494
G1 X135.542 Y110.556 E0.01960
G1 X135.853 Y110.244 E0.01494
G1 X135.275 Y110.244 E0.01960
G1 X134.964 Y110.556 E0.01494
G1 X134.387 Y110.556 E0.01960
G1 X134.698 Y110.244 E0.01494
G1 X134.120 Y110.244 E0.01960
G1 X133.809 Y110.556 E0.01494
G1 X133.232 Y110.556 E0.01960
G1 X133.543 Y110.244 E0.01494
G1 X132.965 Y110.244 E0.01960
G1 X132.654 Y110.556 E0.01494
G1 X132.077 Y110.556 E0.01960
G1 X132.388 Y110.244 E0.01494
G1 X131.811 Y110.244 E0.01960
G1 X131.500 Y110.556 E0.01494
G1 X130.922 Y110.556 E0.01960
G1 X131.233 Y110.244 E0.01494
G1 X130.656 Y110.244 E0.01960
G1 X130.345 Y110.556 E0.01494
G1 X129.767 Y110.556 E0.01960
G1 X130.078 Y110.244 E0.01494
G1 X129.501 Y110.244 E0.01960
G1 X129.190 Y110.556 E0.01494
