; generated by PrusaSlicer 2.0.0+win64 on 2019-08-13 at 08:48:29

; 

; external perimeters extrusion width = 0.45mm
; perimeters extrusion width = 0.45mm
; infill extrusion width = 0.45mm
; solid infill extrusion width = 0.45mm
; top infill extrusion width = 0.40mm
; first layer extrusion width = 0.42mm

M73 P0 R16
M73 Q0 S16
M201 X1000 Y1000 Z1000 E5000 ; sets maximum accelerations, mm/sec^2
M203 X200 Y200 Z12 E120 ; sets maximum feedrates, mm/sec
M204 P1250 R1250 T1250 ; sets acceleration (P, T) and retract acceleration (R), mm/sec^2
M205 X8.00 Y8.00 Z0.40 E1.50 ; sets the jerk limits, mm/sec
M205 S0 T0 ; sets the minimum extruding and travel feed rate, mm/sec
M107
M115 U3.7.2 ; tell printer latest fw version
G90 ; use absolute coordinates
M83 ; extruder relative mode
M104 S240 ; set extruder temp
M140 S85 ; set bed temp
Tx
M190 S85 ; wait for bed temp
M109 S240 ; wait for extruder temp
G28 W ; home all without mesh bed level
G80 ; mesh bed leveling

G21 ; set units to millimeters

;go outside print area
G1 Y-3.0 F1000.0
G1 Z0.4 F1000.0
; select extruder
Tc
; purge line
G1 X55.0 F2000.0
G1 Z0.3 F1000.0
G92 E0.0
G1 X240.0 E25.0 F2200.0
M73 Q0 S16
M73 P0 R16
G1 Y-2.0 F1000.0
G1 X55.0 E25 F1400.0
G1 Z0.20 F1000.0
G1 X5.0 E4.0 F1000.0

M221 S95
G92 E0.0
M900 K45 ; Filament gcode
G21 ; set units to millimeters
G90 ; use absolute coordinates
M83 ; use relative distances for extrusion
;BEFORE_LAYER_CHANGE
G92 E0.0
;0.2


G1 E-0.80000 F2100.00000
G1 Z0.600 F10800.000
;AFTER_LAYER_CHANGE
;0.2
G1 X110.249 Y109.875
G1 Z0.200
G1 E0.80000 F2100.00000
M204 S1000
G1 F1200
G1 X109.686 Y109.108 E0.02985
G1 X109.507 Y108.605 E0.01672
G1 X109.436 Y108.081 E0.01660
G1 X109.455 Y101.672 E0.20093
G1 X109.615 Y101.053 E0.02005
G1 X109.921 Y100.496 E0.01992
G1 X110.358 Y100.029 E0.02005
G1 X110.892 Y99.686 E0.01992
G1 X123.110 Y95.564 E0.40428
G1 X138.004 Y95.534 E0.46700
G1 X138.947 Y95.715 E0.03010
G1 X139.760 Y96.233 E0.03022
G1 X140.324 Y97.014 E0.03022
G1 X140.561 Y97.948 E0.03022
G1 X140.555 Y112.129 E0.44464
G1 X140.411 Y112.776 E0.02079
G1 X140.106 Y113.365 E0.02079
G1 X139.661 Y113.856 E0.02079
G1 X139.108 Y114.214 E0.02066
G1 X138.582 Y114.399 E0.01746
G1 X138.033 Y114.465 E0.01734
G1 X123.063 Y114.428 E0.46939
G1 X111.053 Y110.385 E0.39732
G1 X110.300 Y109.907 E0.02797
G1 F8640
G1 X109.686 Y109.108 E-0.23279
G1 X109.507 Y108.605 E-0.12313
G1 X109.436 Y108.081 E-0.12222
G1 X109.439 Y106.860 E-0.28185
G1 E-0.04000 F2100.00000
G1 Z0.800 F10800.000
G1 X110.016 Y108.923
G1 Z0.200
G1 E0.80000 F2100.00000
G1 F1200
G1 X109.812 Y108.058 E0.02788
G1 X109.827 Y101.741 E0.19806
G1 X109.961 Y101.204 E0.01737
G1 X110.227 Y100.717 E0.01737
G1 X110.609 Y100.311 E0.01749
G1 X111.077 Y100.015 E0.01737
G1 X123.169 Y95.937 E0.40013
G1 X138.004 Y95.911 E0.46512
G1 X138.817 Y96.070 E0.02597
G1 X139.510 Y96.516 E0.02586
G1 X139.989 Y97.187 E0.02586
G1 X140.186 Y97.988 E0.02586
G1 X140.182 Y112.075 E0.44169
G1 X140.060 Y112.638 E0.01805
G1 X139.796 Y113.150 E0.01805
G1 X139.408 Y113.575 E0.01805
G1 X138.923 Y113.885 E0.01805
G1 X138.024 Y114.088 E0.02889
G1 X123.129 Y114.057 E0.46703
G1 X111.201 Y110.037 E0.39466
G1 X110.501 Y109.595 E0.02597
G1 X110.051 Y108.972 E0.02409
G1 F8640
G1 X109.812 Y108.058 E-0.21817
G1 X109.818 Y105.711 E-0.54183
G1 E-0.04000 F2100.00000
G1 Z0.800 F10800.000
G1 X136.636 Y110.536
G1 Z0.200
G1 E0.80000 F2100.00000
G1 F1200
G1 X124.864 Y110.536 E0.36909
G1 X124.864 Y106.636 E0.12228
G1 X113.364 Y106.636 E0.36057
G1 X113.364 Y103.364 E0.10258
G1 X124.864 Y103.364 E0.36057
G1 X124.864 Y99.464 E0.12228
G1 X136.636 Y99.464 E0.36909
G1 X136.636 Y99.736 E0.00852
G1 X125.136 Y99.736 E0.36057
G1 X125.136 Y110.264 E0.33011
G1 X136.636 Y110.264 E0.36057
G1 X136.636 Y110.476 E0.00664
G1 F8640
G1 X133.344 Y110.493 E-0.76000
G1 E-0.04000 F2100.00000
G1 Z0.800 F10800.000
G1 X125.513 Y100.113
G1 Z0.200
G1 E0.80000 F2100.00000
G1 F1200
G1 X125.513 Y109.887 E0.30646
G1 X137.013 Y109.887 E0.36057
G1 X137.013 Y110.913 E0.03216
G1 X124.487 Y110.913 E0.39274
G1 X124.487 Y107.013 E0.12228
G1 X112.987 Y107.013 E0.36057
G1 X112.987 Y102.987 E0.12623
G1 X124.487 Y102.987 E0.36057
G1 X124.487 Y99.087 E0.12228
G1 X137.013 Y99.087 E0.39274
G1 X137.013 Y100.113 E0.03216
G1 X125.573 Y100.113 E0.35869
G1 X125.890 Y100.490 F10800.000
G1 F1200
G1 X125.890 Y109.510 E0.28282
G1 X137.390 Y109.510 E0.36057
G1 X137.390 Y111.290 E0.05581
G1 X124.110 Y111.290 E0.41639
G1 X124.110 Y107.390 E0.12228
G1 X112.610 Y107.390 E0.36057
G1 X112.610 Y102.610 E0.14987
G1 X124.110 Y102.610 E0.36057
G1 X124.110 Y98.710 E0.12228
G1 X137.390 Y98.710 E0.41639
G1 X137.390 Y100.490 E0.05581
G1 X125.950 Y100.490 E0.35869
G1 X125.491 Y100.510 F10800.000
G1 F8640
G1 X125.928 Y103.781 E-0.76000
G1 E-0.04000 F2100.00000
G1 Z0.800 F10800.000
G1 X125.023 Y104.254
G1 Z0.200
G1 E0.80000 F2100.00000
G1 F1200
G1 X124.415 Y103.647 E0.02744
G1 X123.872 Y103.647 E0.01735
G1 X124.853 Y104.628 E0.04431
G1 X124.853 Y105.171 E0.01735
G1 X123.329 Y103.647 E0.06884
G1 X122.786 Y103.647 E0.01735
G1 X124.853 Y105.714 E0.09338
G1 X124.853 Y106.258 E0.01735
G1 X122.242 Y103.647 E0.11791
G1 X121.699 Y103.647 E0.01735
G1 X124.405 Y106.353 E0.12223
G1 X123.862 Y106.353 E0.01735
G1 X121.156 Y103.647 E0.12223
G1 X120.613 Y103.647 E0.01735
G1 X123.319 Y106.353 E0.12223
G1 X122.776 Y106.353 E0.01735
G1 X120.070 Y103.647 E0.12223
G1 X119.526 Y103.647 E0.01735
G1 X122.233 Y106.353 E0.12223
G1 X121.689 Y106.353 E0.01735
G1 X118.983 Y103.647 E0.12223
G1 X118.440 Y103.647 E0.01735
G1 X121.146 Y106.353 E0.12223
G1 X120.603 Y106.353 E0.01735
G1 X117.897 Y103.647 E0.12223
G1 X117.354 Y103.647 E0.01735
G1 X120.060 Y106.353 E0.12223
G1 X119.517 Y106.353 E0.01735
G1 X116.810 Y103.647 E0.12223
G1 X116.267 Y103.647 E0.01735
G1 X118.973 Y106.353 E0.12223
G1 X118.430 Y106.353 E0.01735
G1 X115.724 Y103.647 E0.12223
G1 X115.181 Y103.647 E0.01735
G1 X117.887 Y106.353 E0.12223
G1 X117.344 Y106.353 E0.01735
G1 X114.638 Y103.647 E0.12223
G1 X114.095 Y103.647 E0.01735
G1 X116.801 Y106.353 E0.12223
G1 X116.257 Y106.353 E0.01735
G1 X113.647 Y103.743 E0.11791
G1 X113.647 Y104.286 E0.01735
G1 X115.714 Y106.353 E0.09337
G1 X115.171 Y106.353 E0.01735
G1 X113.647 Y104.829 E0.06884
G1 X113.647 Y105.372 E0.01735
G1 X114.628 Y106.353 E0.04430
G1 X114.085 Y106.353 E0.01735
G1 X113.477 Y105.746 E0.02743
;BEFORE_LAYER_CHANGE
G92 E0.0
;0.4


G1 F8640
G1 X114.085 Y106.353 E-0.19833
G1 X114.628 Y106.353 E-0.12543
G1 X113.647 Y105.372 E-0.32030
G1 X113.647 Y104.870 E-0.11594
G1 E-0.04000 F2100.00000
G1 Z0.800 F10800.000
;AFTER_LAYER_CHANGE
;0.4
M104 S250 ; set temperature
M140 S90 ; set bed temperature
G1 X110.249 Y109.875
G1 Z0.400
G1 E0.80000 F2100.00000
G1 F1573
G1 X109.686 Y109.108 E0.02985
G1 X109.507 Y108.605 E0.01672
G1 X109.436 Y108.081 E0.01660
G1 X109.455 Y101.672 E0.20093
G1 X109.615 Y101.053 E0.02005
G1 X109.921 Y100.496 E0.01992
G1 X110.358 Y100.029 E0.02005
G1 X110.892 Y99.686 E0.01992
G1 X123.110 Y95.564 E0.40428
G1 X138.004 Y95.534 E0.46700
G1 X138.947 Y95.715 E0.03010
G1 X139.760 Y96.233 E0.03022
G1 X140.324 Y97.014 E0.03022
G1 X140.561 Y97.948 E0.03022
G1 X140.555 Y112.129 E0.44464
G1 X140.411 Y112.776 E0.02079
G1 X140.106 Y113.365 E0.02079
G1 X139.661 Y113.856 E0.02079
G1 X139.108 Y114.214 E0.02066
G1 X138.582 Y114.399 E0.01746
G1 X138.033 Y114.465 E0.01734
G1 X123.063 Y114.428 E0.46939
G1 X111.053 Y110.385 E0.39732
G1 X110.300 Y109.907 E0.02797
G1 F8640
G1 X109.686 Y109.108 E-0.23279
G1 X109.507 Y108.605 E-0.12313
G1 X109.436 Y108.081 E-0.12222
G1 X109.439 Y106.860 E-0.28185
G1 E-0.04000 F2100.00000
G1 Z1.000 F10800.000
G1 X136.761 Y110.661
G1 Z0.400
G1 E0.80000 F2100.00000
M204 S800
G1 F1573
G1 X124.739 Y110.661 E0.40692
G1 X124.739 Y106.761 E0.13201
G1 X113.239 Y106.761 E0.38926
G1 X113.239 Y103.239 E0.11920
G1 X124.739 Y103.239 E0.38926
G1 X124.739 Y99.339 E0.13201
G1 X136.761 Y99.339 E0.40692
G1 X136.761 Y99.861 E0.01766
G1 X125.261 Y99.861 E0.38926
G1 X125.261 Y110.139 E0.34791
G1 X136.761 Y110.139 E0.38926
G1 X136.761 Y110.601 E0.01563
M204 S1000
G1 F8640
G1 X133.469 Y110.617 E-0.76000
G1 E-0.04000 F2100.00000
G1 Z1.000 F10800.000
G1 X125.668 Y100.268
G1 Z0.400
G1 E0.80000 F2100.00000
M204 S800
G1 F1573
G1 X125.668 Y109.732 E0.32035
G1 X137.168 Y109.732 E0.38926
G1 X137.168 Y111.068 E0.04522
G1 X124.332 Y111.068 E0.43448
G1 X124.332 Y107.168 E0.13201
G1 X112.832 Y107.168 E0.38926
G1 X112.832 Y102.832 E0.14676
G1 X124.332 Y102.832 E0.38926
G1 X124.332 Y98.932 E0.13201
G1 X137.168 Y98.932 E0.43448
G1 X137.168 Y100.268 E0.04522
G1 X125.728 Y100.268 E0.38723
M204 S1000
G1 X126.075 Y100.675 F10800.000
M204 S800
G1 F1500
G1 X126.075 Y109.325 E0.29279
G1 X137.575 Y109.325 E0.38926
G1 X137.575 Y111.475 E0.07278
G1 X123.925 Y111.475 E0.46204
G1 X123.925 Y107.575 E0.13201
G1 X112.425 Y107.575 E0.38926
G1 X112.425 Y102.425 E0.17432
G1 X123.925 Y102.425 E0.38926
G1 X123.925 Y98.525 E0.13201
G1 X137.575 Y98.525 E0.46204
G1 X137.575 Y100.675 E0.07278
G1 X126.135 Y100.675 E0.38723
M204 S1000
G1 X125.676 Y100.700 F10800.000
G1 F8640
G1 X126.112 Y103.966 E-0.76000
G1 E-0.04000 F2100.00000
G1 Z1.000 F10800.000
G1 X125.000 Y103.443
G1 Z0.400
G1 E0.80000 F2100.00000
G1 F1573
G1 X125.010 Y99.610 E0.03653
M73 Q7 S15
G1 X136.557 Y99.600 E0.11004
M73 P7 R15
G1 F8640
G1 X133.266 Y99.603 E-0.76000
G1 E-0.04000 F2100.00000
G1 Z1.000 F10800.000
G1 X136.557 Y110.400
G1 Z0.400
G1 E0.80000 F2100.00000
G1 F1573
G1 X125.010 Y110.390 E0.11004
G1 X125.000 Y106.557 E0.03653
G1 X124.080 Y106.639 F10800.000
M204 S1250
G1 F1573
G1 X124.956 Y105.763 E0.04349
G1 X124.956 Y105.166 E0.02098
G1 X123.666 Y106.456 E0.06406
G1 X123.068 Y106.456 E0.02098
G1 X124.956 Y104.568 E0.09373
G1 X124.956 Y103.971 E0.02098
G1 X122.471 Y106.456 E0.12339
G1 X121.874 Y106.456 E0.02098
G1 X124.616 Y103.713 E0.13619
G1 X124.616 Y103.544 E0.00593
G1 X124.188 Y103.544 E0.01504
G1 X121.276 Y106.456 E0.14458
G1 X120.679 Y106.456 E0.02098
G1 X123.590 Y103.544 E0.14458
G1 X122.993 Y103.544 E0.02098
G1 X120.082 Y106.456 E0.14458
G1 X119.485 Y106.456 E0.02098
G1 X122.396 Y103.544 E0.14458
G1 X121.798 Y103.544 E0.02098
G1 X118.887 Y106.456 E0.14458
G1 X118.290 Y106.456 E0.02098
G1 X121.201 Y103.544 E0.14458
G1 X120.604 Y103.544 E0.02098
G1 X117.693 Y106.456 E0.14458
G1 X117.095 Y106.456 E0.02098
G1 X120.006 Y103.544 E0.14458
G1 X119.409 Y103.544 E0.02098
G1 X116.498 Y106.456 E0.14458
G1 X115.901 Y106.456 E0.02098
G1 X118.812 Y103.544 E0.14458
G1 X118.214 Y103.544 E0.02098
G1 X115.303 Y106.456 E0.14458
G1 X114.706 Y106.456 E0.02098
G1 X117.617 Y103.544 E0.14458
G1 X117.020 Y103.544 E0.02098
G1 X114.109 Y106.456 E0.14458
G1 X113.544 Y106.456 E0.01982
G1 X113.544 Y106.423 E0.00116
G1 X116.423 Y103.544 E0.14294
G1 X115.825 Y103.544 E0.02098
G1 X113.544 Y105.825 E0.11328
G1 X113.544 Y105.228 E0.02098
G1 X115.228 Y103.544 E0.08361
G1 X114.631 Y103.544 E0.02098
G1 X113.544 Y104.631 E0.05395
G1 X113.544 Y104.033 E0.02098
G1 X114.216 Y103.361 E0.03338
M204 S1000
;BEFORE_LAYER_CHANGE
G92 E0.0
;0.6


G1 F8640
G1 X113.544 Y104.033 E-0.21945
G1 X113.544 Y104.631 E-0.13792
G1 X114.631 Y103.544 E-0.35468
G1 X114.838 Y103.544 E-0.04796
G1 E-0.04000 F2100.00000
G1 Z1.000 F10800.000
;AFTER_LAYER_CHANGE
;0.6
G1 X139.760 Y96.233
G1 Z0.600
G1 E0.80000 F2100.00000
G1 F1774
G1 X140.324 Y97.014 E0.03022
G1 X140.561 Y97.948 E0.03022
G1 X140.555 Y112.129 E0.44464
G1 X140.411 Y112.776 E0.02079
G1 X140.106 Y113.365 E0.02079
G1 X139.661 Y113.856 E0.02079
G1 X139.108 Y114.214 E0.02066
G1 X138.582 Y114.399 E0.01746
G1 X138.033 Y114.465 E0.01734
G1 X123.063 Y114.428 E0.46939
G1 X111.053 Y110.385 E0.39732
G1 X110.249 Y109.875 E0.02985
G1 X109.686 Y109.108 E0.02985
G1 X109.507 Y108.605 E0.01672
G1 X109.436 Y108.081 E0.01660
G1 X109.455 Y101.672 E0.20093
G1 X109.615 Y101.053 E0.02005
G1 X109.921 Y100.496 E0.01992
G1 X110.358 Y100.029 E0.02005
G1 X110.892 Y99.686 E0.01992
G1 X123.110 Y95.564 E0.40428
G1 X138.004 Y95.534 E0.46700
G1 X138.947 Y95.715 E0.03010
G1 X139.709 Y96.201 E0.02834
G1 F8640
G1 X140.324 Y97.014 E-0.23547
G1 X140.561 Y97.948 E-0.22253
G1 X140.561 Y99.256 E-0.30200
G1 E-0.04000 F2100.00000
G1 Z1.200 F10800.000
G1 X136.961 Y110.861
G1 Z0.600
G1 E0.80000 F2100.00000
M204 S800
G1 F1774
G1 X124.539 Y110.861 E0.42046
G1 X124.539 Y106.961 E0.13201
G1 X113.039 Y106.961 E0.38926
G1 X113.039 Y103.039 E0.13274
G1 X124.539 Y103.039 E0.38926
G1 X124.539 Y99.139 E0.13201
G1 X136.961 Y99.139 E0.42046
G1 X136.961 Y100.061 E0.03120
G1 X125.461 Y100.061 E0.38926
G1 X125.461 Y109.939 E0.33437
G1 X136.961 Y109.939 E0.38926
G1 X136.961 Y110.801 E0.02917
M204 S1000
G1 F8640
G1 X133.669 Y110.817 E-0.76000
G1 E-0.04000 F2100.00000
G1 Z1.200 F10800.000
G1 X125.868 Y100.468
G1 Z0.600
G1 E0.80000 F2100.00000
M204 S800
G1 F1774
G1 X125.868 Y109.532 E0.30681
G1 X137.368 Y109.532 E0.38926
G1 X137.368 Y111.268 E0.05876
G1 X124.132 Y111.268 E0.44802
G1 X124.132 Y107.368 E0.13201
G1 X112.632 Y107.368 E0.38926
G1 X112.632 Y102.632 E0.16030
G1 X124.132 Y102.632 E0.38926
G1 X124.132 Y98.732 E0.13201
G1 X137.368 Y98.732 E0.44802
G1 X137.368 Y100.468 E0.05876
G1 X125.928 Y100.468 E0.38723
M204 S1000
G1 X126.275 Y100.875 F10800.000
M204 S800
G1 F1500
G1 X126.275 Y109.125 E0.27925
G1 X137.775 Y109.125 E0.38926
G1 X137.775 Y111.675 E0.08631
G1 X123.725 Y111.675 E0.47558
G1 X123.725 Y107.775 E0.13201
G1 X112.225 Y107.775 E0.38926
G1 X112.225 Y102.225 E0.18786
G1 X123.725 Y102.225 E0.38926
G1 X123.725 Y98.325 E0.13201
G1 X137.775 Y98.325 E0.47558
G1 X137.775 Y100.875 E0.08631
G1 X126.335 Y100.875 E0.38723
M204 S1000
G1 X125.876 Y100.904 F10800.000
G1 F8640
G1 X126.311 Y104.166 E-0.76000
G1 E-0.04000 F2100.00000
G1 Z1.200 F10800.000
G1 X125.339 Y107.741
G1 Z0.600
G1 E0.80000 F2100.00000
M204 S1250
G1 F1774
G1 X124.844 Y107.247 E0.02385
G1 X124.844 Y107.827 E0.01980
G1 X125.156 Y108.138 E0.01501
G1 X125.156 Y108.718 E0.01980
G1 X124.844 Y108.407 E0.01501
G1 X124.844 Y108.988 E0.01980
G1 X125.339 Y109.482 E0.02385
M204 S1000
G1 X125.918 Y110.061 F10800.000
M204 S1250
G1 F1774
G1 X126.412 Y110.556 E0.02385
G1 X126.993 Y110.556 E0.01980
G1 X126.682 Y110.244 E0.01501
G1 X127.262 Y110.244 E0.01980
G1 X127.573 Y110.556 E0.01501
G1 X128.153 Y110.556 E0.01980
G1 X127.842 Y110.244 E0.01501
G1 X128.422 Y110.244 E0.01980
G1 X128.734 Y110.556 E0.01501
G1 X129.314 Y110.556 E0.01980
G1 X129.003 Y110.244 E0.01501
G1 X129.583 Y110.244 E0.01980
G1 X129.894 Y110.556 E0.01501
G1 X130.474 Y110.556 E0.01980
G1 X130.163 Y110.244 E0.01501
G1 X130.744 Y110.244 E0.01980
G1 X131.055 Y110.556 E0.01501
G1 X131.635 Y110.556 E0.01980
G1 X131.324 Y110.244 E0.01501
G1 X131.904 Y110.244 E0.01980
G1 X132.215 Y110.556 E0.01501
G1 X132.796 Y110.556 E0.01980
G1 X132.485 Y110.244 E0.01501
G1 X133.065 Y110.244 E0.01980
G1 X133.376 Y110.556 E0.01501
G1 X133.956 Y110.556 E0.01980
G1 X133.645 Y110.244 E0.01501
G1 X134.225 Y110.244 E0.01980
G1 X134.537 Y110.556 E0.01501
G1 X135.117 Y110.556 E0.01980
G1 X134.806 Y110.244 E0.01501
G1 X135.386 Y110.244 E0.01980
G1 X135.697 Y110.556 E0.01501
G1 X136.277 Y110.556 E0.01980
G1 X135.966 Y110.244 E0.01501
G1 X136.547 Y110.244 E0.01980
G1 X136.839 Y110.537 E0.01409
M204 S1000
G1 F8640
G1 X136.547 Y110.244 E-0.09537
G1 X135.966 Y110.244 E-0.13399
G1 X136.277 Y110.556 E-0.10159
G1 X135.697 Y110.556 E-0.13399
G1 X135.386 Y110.244 E-0.10159
G1 X134.806 Y110.244 E-0.13399
G1 X134.988 Y110.427 E-0.05948
G1 E-0.04000 F2100.00000
G1 Z1.200 F10800.000
G1 X136.686 Y99.939
G1 Z0.600
G1 E0.80000 F2100.00000
M204 S1250
G1 F1774
G1 X136.192 Y99.444 E0.02385
G1 X135.612 Y99.444 E0.01980
G1 X135.923 Y99.756 E0.01501
G1 X135.343 Y99.756 E0.01980
G1 X135.031 Y99.444 E0.01501
G1 X134.451 Y99.444 E0.01980
G1 X134.762 Y99.756 E0.01501
G1 X134.182 Y99.756 E0.01980
G1 X133.871 Y99.444 E0.01501
G1 X133.291 Y99.444 E0.01980
G1 X133.602 Y99.756 E0.01501
G1 X133.021 Y99.756 E0.01980
G1 X132.710 Y99.444 E0.01501
G1 X132.130 Y99.444 E0.01980
G1 X132.441 Y99.756 E0.01501
G1 X131.861 Y99.756 E0.01980
G1 X131.550 Y99.444 E0.01501
G1 X130.969 Y99.444 E0.01980
G1 X131.280 Y99.756 E0.01501
G1 X130.700 Y99.756 E0.01980
G1 X130.389 Y99.444 E0.01501
