; generated by PrusaSlicer 2.0.0+win64 on 2019-08-13 at 13:41:38

; 

; external perimeters extrusion width = 0.45mm
; perimeters extrusion width = 0.45mm
; infill extrusion width = 0.45mm
; solid infill extrusion width = 0.45mm
; top infill extrusion width = 0.40mm
; first layer extrusion width = 0.42mm

M73 P0 R20
M73 Q0 S20
M201 X1000 Y1000 Z1000 E5000 ; sets maximum accelerations, mm/sec^2
M203 X200 Y200 Z12 E120 ; sets maximum feedrates, mm/sec
M204 P1250 R1250 T1250 ; sets acceleration (P, T) and retract acceleration (R), mm/sec^2
M205 X8.00 Y8.00 Z0.40 E1.50 ; sets the jerk limits, mm/sec
M205 S0 T0 ; sets the minimum extruding and travel feed rate, mm/sec
M107
M115 U3.7.2 ; tell printer latest fw version
G90 ; use absolute coordinates
M83 ; extruder relative mode
M104 S240 ; set extruder temp
M140 S85 ; set bed temp
Tx
M190 S85 ; wait for bed temp
M109 S240 ; wait for extruder temp
G28 W ; home all without mesh bed level
G80 ; mesh bed leveling

G21 ; set units to millimeters

;go outside print area
G1 Y-3.0 F1000.0
G1 Z0.4 F1000.0
; select extruder
Tc
; purge line
G1 X55.0 F2000.0
G1 Z0.3 F1000.0
G92 E0.0
G1 X240.0 E25.0 F2200.0
M73 Q0 S20
M73 P0 R20
G1 Y-2.0 F1000.0
G1 X55.0 E25 F1400.0
G1 Z0.20 F1000.0
G1 X5.0 E4.0 F1000.0

M221 S95
G92 E0.0
M900 K45 ; Filament gcode
G21 ; set units to millimeters
G90 ; use absolute coordinates
M83 ; use relative distances for extrusion
;BEFORE_LAYER_CHANGE
G92 E0.0
;0.2


G1 E-0.80000 F2100.00000
G1 Z0.600 F10800.000
;AFTER_LAYER_CHANGE
;0.2
G1 X111.922 Y99.778
G1 Z0.200
G1 E0.80000 F2100.00000
M204 S1000
G1 F1200
G1 X112.358 Y99.395 E0.01820
G1 X120.780 Y94.743 E0.30169
G1 X121.426 Y94.499 E0.02165
G1 X121.987 Y94.434 E0.01771
G1 X134.003 Y94.434 E0.37675
G1 X134.883 Y94.489 E0.02763
G1 X135.756 Y94.652 E0.02784
G1 X137.421 Y95.257 E0.05555
G1 X137.885 Y95.586 E0.01783
G1 X138.262 Y96.006 E0.01771
G1 X138.538 Y96.498 E0.01771
G1 X138.701 Y97.043 E0.01783
G1 X138.737 Y112.654 E0.48947
G1 X138.638 Y113.222 E0.01808
G1 X138.415 Y113.754 E0.01808
G1 X138.078 Y114.222 E0.01808
G1 X137.643 Y114.605 E0.01820
G1 X137.127 Y114.885 E0.01838
G1 X136.187 Y115.230 E0.03140
G1 X135.323 Y115.442 E0.02789
G1 X134.434 Y115.552 E0.02810
G1 X121.547 Y115.525 E0.40405
G1 X120.791 Y115.263 E0.02508
G1 X112.559 Y110.732 E0.29463
G1 X112.095 Y110.396 E0.01795
G1 X111.718 Y109.966 E0.01795
G1 X111.397 Y109.332 E0.02226
G1 X111.262 Y108.635 E0.02226
G1 X111.263 Y101.346 E0.22856
G1 X111.362 Y100.778 E0.01808
G1 X111.585 Y100.246 E0.01808
G1 X111.887 Y99.827 E0.01620
G1 X112.191 Y100.049 F10800.000
G1 F1200
G1 X112.596 Y99.688 E0.01701
G1 X120.958 Y95.076 E0.29941
G1 X121.513 Y94.866 E0.01862
G1 X121.992 Y94.811 E0.01510
G1 X134.003 Y94.811 E0.37660
G1 X134.834 Y94.863 E0.02612
G1 X135.660 Y95.016 E0.02634
G1 X137.209 Y95.570 E0.05157
G1 X137.617 Y95.853 E0.01555
G1 X137.951 Y96.219 E0.01555
G1 X138.194 Y96.652 E0.01555
G1 X138.332 Y97.124 E0.01544
G1 X138.362 Y112.617 E0.48576
G1 X138.277 Y113.113 E0.01578
G1 X138.082 Y113.577 E0.01578
G1 X137.785 Y113.983 E0.01578
G1 X137.404 Y114.312 E0.01578
G1 X136.066 Y114.872 E0.04547
G1 X134.406 Y115.176 E0.05293
G1 X121.611 Y115.154 E0.40117
G1 X120.965 Y114.928 E0.02146
G1 X112.746 Y110.405 E0.29414
G1 X112.340 Y110.108 E0.01578
G1 X112.013 Y109.730 E0.01567
G1 X111.746 Y109.187 E0.01896
G1 X111.637 Y108.596 E0.01885
G1 X111.639 Y101.372 E0.22650
G1 X111.725 Y100.880 E0.01567
G1 X111.920 Y100.420 E0.01567
G1 X112.156 Y100.097 E0.01253
G1 F8640
G1 X112.596 Y99.688 E-0.13882
G1 X114.952 Y98.389 E-0.62118
G1 E-0.04000 F2100.00000
G1 Z0.800 F10800.000
G1 X134.024 Y111.632
G1 Z0.200
G1 E0.80000 F2100.00000
G1 F1200
G1 X123.364 Y111.636 E0.33423
G1 X123.364 Y107.636 E0.12542
G1 X115.976 Y107.632 E0.23165
G1 X115.976 Y102.368 E0.16507
G1 X123.364 Y102.364 E0.23165
G1 X123.364 Y98.365 E0.12540
G1 X134.024 Y98.372 E0.33423
G1 X134.024 Y98.632 E0.00816
G1 X133.969 Y98.636 E0.00173
G1 X126.636 Y98.636 E0.22992
G1 X126.636 Y111.364 E0.39909
G1 X133.969 Y111.364 E0.22992
G1 X134.024 Y111.368 E0.00173
G1 X134.024 Y111.572 E0.00642
G1 F8640
G1 X130.732 Y111.592 E-0.76000
G1 E-0.04000 F2100.00000
G1 Z0.800 F10800.000
G1 X127.013 Y99.013
G1 Z0.200
G1 E0.80000 F2100.00000
G1 F1200
G1 X127.013 Y110.987 E0.37544
G1 X133.981 Y110.987 E0.21847
G1 X134.401 Y111.013 E0.01320
G1 X134.401 Y111.987 E0.03051
G1 X133.981 Y112.013 E0.01320
G1 X122.987 Y112.013 E0.34470
G1 X122.987 Y108.013 E0.12542
G1 X116.019 Y108.013 E0.21847
G1 X115.599 Y107.987 E0.01320
G1 X115.599 Y102.013 E0.18728
G1 X116.019 Y101.987 E0.01320
G1 X122.987 Y101.987 E0.21847
G1 X122.987 Y97.987 E0.12540
G1 X134.230 Y97.995 E0.35252
G1 X134.401 Y98.010 E0.00537
G1 X134.401 Y98.987 E0.03063
G1 X133.981 Y99.013 E0.01320
G1 X127.073 Y99.013 E0.21659
G1 X127.390 Y99.390 F10800.000
G1 F1200
G1 X127.390 Y110.610 E0.35180
G1 X133.993 Y110.610 E0.20702
G1 X134.595 Y110.648 E0.01891
G1 X134.778 Y110.678 E0.00583
G1 X134.778 Y112.322 E0.05154
G1 X134.595 Y112.352 E0.00583
G1 X133.993 Y112.390 E0.01891
G1 X122.610 Y112.390 E0.35689
G1 X122.610 Y108.390 E0.12542
G1 X116.007 Y108.390 E0.20702
G1 X115.406 Y108.352 E0.01891
G1 X115.222 Y108.322 E0.00583
G1 X115.222 Y101.678 E0.20831
G1 X115.406 Y101.648 E0.00583
G1 X116.007 Y101.610 E0.01891
G1 X122.610 Y101.610 E0.20702
G1 X122.610 Y97.610 E0.12541
G1 X134.246 Y97.618 E0.36485
G1 X134.778 Y97.678 E0.01677
G1 X134.778 Y99.322 E0.05154
G1 X134.595 Y99.352 E0.00583
G1 X133.993 Y99.390 E0.01891
G1 X127.450 Y99.390 E0.20514
G1 X126.990 Y99.391 F10800.000
G1 X126.523 Y99.257
G1 F1200
G1 X125.915 Y98.649 E0.02743
G1 X125.372 Y98.649 E0.01735
G1 X126.353 Y99.630 E0.04431
G1 X126.353 Y100.173 E0.01734
G1 X124.828 Y98.649 E0.06884
G1 X124.285 Y98.648 E0.01735
G1 X126.353 Y100.716 E0.09337
G1 X126.353 Y101.259 E0.01734
G1 X123.742 Y98.648 E0.11791
G1 X123.647 Y98.648 E0.00302
G1 X123.647 Y99.096 E0.01432
G1 X126.353 Y101.802 E0.12218
G1 X126.353 Y102.345 E0.01734
G1 X123.647 Y99.639 E0.12218
G1 X123.647 Y100.182 E0.01734
G1 X126.353 Y102.888 E0.12218
G1 X126.353 Y103.431 E0.01734
G1 X123.647 Y100.725 E0.12218
G1 X123.647 Y101.268 E0.01734
G1 X126.353 Y103.974 E0.12218
G1 X126.353 Y104.517 E0.01734
G1 X123.647 Y101.811 E0.12218
G1 X123.647 Y102.354 E0.01734
G1 X126.353 Y105.060 E0.12218
G1 X126.353 Y105.603 E0.01734
G1 X123.397 Y102.647 E0.13348
G1 X122.854 Y102.647 E0.01733
G1 X126.353 Y106.146 E0.15799
G1 X126.353 Y106.689 E0.01734
G1 X122.311 Y102.647 E0.18250
G1 X121.768 Y102.648 E0.01733
G1 X126.353 Y107.232 E0.20700
G1 X126.353 Y107.775 E0.01734
G1 X121.226 Y102.648 E0.23151
G1 X120.683 Y102.648 E0.01733
G1 X126.353 Y108.318 E0.25601
G1 X126.353 Y108.861 E0.01734
G1 X120.140 Y102.648 E0.28052
G1 X119.597 Y102.649 E0.01733
G1 X126.353 Y109.404 E0.30503
G1 X126.353 Y109.947 E0.01734
G1 X119.055 Y102.649 E0.32953
G1 X118.512 Y102.649 E0.01733
G1 X123.216 Y107.353 E0.21238
G1 X122.672 Y107.353 E0.01734
G1 X117.969 Y102.649 E0.21236
G1 X117.426 Y102.650 E0.01733
G1 X122.129 Y107.352 E0.21233
G1 X121.586 Y107.352 E0.01734
G1 X116.884 Y102.650 E0.21231
G1 X116.341 Y102.650 E0.01733
G1 X121.043 Y107.352 E0.21229
G1 X120.499 Y107.352 E0.01734
G1 X116.259 Y103.111 E0.19146
G1 X116.259 Y103.654 E0.01734
G1 X119.956 Y107.351 E0.16693
G1 X119.413 Y107.351 E0.01734
G1 X116.259 Y104.197 E0.14240
G1 X116.259 Y104.740 E0.01734
G1 X118.870 Y107.351 E0.11788
G1 X118.326 Y107.351 E0.01734
G1 X116.259 Y105.283 E0.09335
G1 X116.259 Y105.826 E0.01734
G1 X117.783 Y107.350 E0.06882
G1 X117.240 Y107.350 E0.01734
G1 X116.259 Y106.369 E0.04429
G1 X116.259 Y106.912 E0.01734
G1 X116.866 Y107.520 E0.02743
G1 F8640
G1 X116.259 Y106.912 E-0.19835
G1 X116.259 Y106.369 E-0.12538
G1 X117.240 Y107.350 E-0.32032
G1 X117.742 Y107.350 E-0.11595
G1 E-0.04000 F2100.00000
G1 Z0.800 F10800.000
G1 X123.477 Y110.873
G1 Z0.200
G1 E0.80000 F2100.00000
G1 F1200
G1 X123.958 Y111.353 E0.02168
G1 X124.500 Y111.353 E0.01733
G1 X123.647 Y110.499 E0.03853
G1 X123.647 Y109.956 E0.01734
G1 X125.043 Y111.353 E0.06304
G1 X125.586 Y111.352 E0.01733
G1 X123.647 Y109.413 E0.08755
G1 X123.647 Y108.870 E0.01734
G1 X126.129 Y111.352 E0.11206
G1 X126.353 Y111.352 E0.00716
G1 X126.353 Y111.033 E0.01018
G1 X123.647 Y108.327 E0.12218
G1 X123.647 Y107.784 E0.01734
G1 X126.523 Y110.660 E0.12985
;BEFORE_LAYER_CHANGE
G92 E0.0
;0.4


G1 F8640
G1 X124.195 Y108.333 E-0.76000
G1 E-0.04000 F2100.00000
G1 Z0.800 F10800.000
;AFTER_LAYER_CHANGE
;0.4
M104 S250 ; set temperature
M140 S90 ; set bed temperature
G1 X121.547 Y115.525
G1 Z0.400
G1 E0.80000 F2100.00000
G1 F1812
G1 X120.791 Y115.263 E0.02508
G1 X112.559 Y110.732 E0.29463
G1 X112.095 Y110.396 E0.01795
G1 X111.718 Y109.966 E0.01795
G1 X111.397 Y109.332 E0.02226
G1 X111.262 Y108.635 E0.02226
G1 X111.263 Y101.346 E0.22856
G1 X111.362 Y100.778 E0.01808
G1 X111.585 Y100.246 E0.01808
G1 X111.922 Y99.778 E0.01808
G1 X112.358 Y99.395 E0.01820
G1 X120.780 Y94.743 E0.30169
G1 X121.426 Y94.499 E0.02165
G1 X121.987 Y94.434 E0.01771
G1 X134.003 Y94.434 E0.37675
G1 X134.883 Y94.489 E0.02763
G1 X135.756 Y94.652 E0.02784
G1 X137.421 Y95.257 E0.05555
G1 X137.885 Y95.586 E0.01783
G1 X138.262 Y96.006 E0.01771
G1 X138.538 Y96.498 E0.01771
G1 X138.701 Y97.043 E0.01783
G1 X138.737 Y112.654 E0.48947
G1 X138.638 Y113.222 E0.01808
G1 X138.415 Y113.754 E0.01808
G1 X138.078 Y114.222 E0.01808
G1 X137.643 Y114.605 E0.01820
G1 X137.127 Y114.885 E0.01838
G1 X136.187 Y115.230 E0.03140
G1 X135.323 Y115.442 E0.02789
G1 X134.434 Y115.552 E0.02810
G1 X121.607 Y115.525 E0.40217
G1 F8640
G1 X120.791 Y115.263 E-0.19788
G1 X118.659 Y114.089 E-0.56212
G1 E-0.04000 F2100.00000
G1 Z1.000 F10800.000
G1 X134.659 Y111.701
G1 Z0.400
G1 E0.80000 F2100.00000
M204 S800
G1 F1812
G1 X133.967 Y111.761 E0.02354
G1 X123.239 Y111.761 E0.36311
G1 X123.239 Y107.762 E0.13535
G1 X115.771 Y107.752 E0.25280
G1 X115.341 Y107.698 E0.01468
G1 X115.341 Y102.302 E0.18263
G1 X115.771 Y102.248 E0.01468
G1 X123.239 Y102.238 E0.25280
G1 X123.239 Y98.240 E0.13533
G1 X134.090 Y98.243 E0.36729
G1 X134.659 Y98.299 E0.01937
G1 X134.659 Y98.698 E0.01348
G1 X134.229 Y98.752 E0.01468
G1 X126.761 Y98.762 E0.25280
G1 X126.761 Y111.238 E0.42228
G1 X134.229 Y111.248 E0.25280
G1 X134.659 Y111.302 E0.01468
G1 X134.659 Y111.641 E0.01145
M204 S1000
G1 F8640
G1 X133.967 Y111.761 E-0.16238
G1 X131.378 Y111.761 E-0.59762
G1 E-0.04000 F2100.00000
G1 Z1.000 F10800.000
G1 X127.168 Y99.169
G1 Z0.400
G1 E0.80000 F2100.00000
M204 S800
G1 F1812
G1 X127.168 Y110.831 E0.39476
G1 X134.255 Y110.841 E0.23989
G1 X134.780 Y110.907 E0.01790
G1 X135.067 Y110.979 E0.01000
G1 X135.067 Y112.030 E0.03558
G1 X134.524 Y112.134 E0.01869
G1 X133.979 Y112.168 E0.01848
G1 X122.832 Y112.168 E0.37732
G1 X122.832 Y108.169 E0.13536
G1 X115.745 Y108.159 E0.23989
G1 X115.211 Y108.092 E0.01822
G1 X114.933 Y108.030 E0.00963
G1 X114.933 Y101.970 E0.20510
G1 X115.211 Y101.908 E0.00963
G1 X115.745 Y101.841 E0.01822
G1 X122.832 Y101.831 E0.23989
G1 X122.832 Y97.832 E0.13536
G1 X134.105 Y97.836 E0.38156
G1 X134.522 Y97.866 E0.01415
G1 X135.067 Y97.970 E0.01878
G1 X135.067 Y99.030 E0.03586
G1 X134.789 Y99.092 E0.00963
G1 X134.255 Y99.159 E0.01822
G1 X127.228 Y99.169 E0.23786
M204 S1000
G1 X127.575 Y99.575 F10800.000
M204 S800
G1 F1500
G1 X127.575 Y110.425 E0.36724
G1 X134.281 Y110.434 E0.22698
G1 X134.855 Y110.506 E0.01958
G1 X135.474 Y110.661 E0.02160
G1 X135.474 Y112.333 E0.05657
G1 X134.855 Y112.494 E0.02166
G1 X134.569 Y112.539 E0.00980
G1 X133.992 Y112.575 E0.01955
G1 X122.425 Y112.575 E0.39153
G1 X122.425 Y108.575 E0.13538
G1 X115.719 Y108.566 E0.22698
G1 X115.142 Y108.493 E0.01969
G1 X114.526 Y108.333 E0.02154
G1 X114.526 Y101.667 E0.22561
G1 X115.142 Y101.507 E0.02154
G1 X115.719 Y101.434 E0.01969
G1 X122.425 Y101.425 E0.22698
G1 X122.425 Y97.425 E0.13538
G1 X134.119 Y97.429 E0.39584
G1 X134.568 Y97.461 E0.01522
G1 X134.855 Y97.506 E0.00983
G1 X135.474 Y97.667 E0.02166
G1 X135.474 Y99.333 E0.05636
G1 X135.150 Y99.430 E0.01144
G1 X134.858 Y99.493 E0.01011
G1 X134.281 Y99.566 E0.01969
G1 X127.635 Y99.575 E0.22495
M204 S1000
G1 X127.175 Y99.577 F10800.000
G1 F8640
G1 X127.617 Y102.867 E-0.76000
G1 E-0.04000 F2100.00000
G1 Z1.000 F10800.000
G1 X126.557 Y98.502
G1 Z0.400
G1 E0.80000 F2100.00000
G1 F1812
G1 X134.435 Y98.496 E0.06028
M73 Q5 S19
G1 F8640
G1 X131.143 Y98.498 E-0.76000
G1 E-0.04000 F2100.00000
G1 Z1.000 F10800.000
G1 X123.818 Y98.362
G1 Z0.400
G1 E0.80000 F2100.00000
M73 P5 R19
M204 S1250
G1 F1812
G1 X123.544 Y98.636 E0.01319
G1 X123.544 Y99.215 E0.01974
G1 X124.214 Y98.545 E0.03228
G1 X124.794 Y98.545 E0.01973
G1 X123.544 Y99.794 E0.06018
G1 X123.544 Y100.374 E0.01974
G1 X125.373 Y98.546 E0.08809
G1 X125.952 Y98.546 E0.01973
G1 X123.544 Y100.953 E0.11600
G1 X123.544 Y101.533 E0.01974
G1 X126.252 Y98.825 E0.13046
G1 X126.252 Y98.875 E0.00169
G1 X126.456 Y98.874 E0.00693
G1 X126.456 Y99.201 E0.01113
G1 X123.361 Y102.295 E0.14908
M204 S1000
G1 F8640
G1 X125.689 Y99.968 E-0.76000
G1 E-0.04000 F2100.00000
G1 Z1.000 F10800.000
G1 X116.334 Y102.370
G1 Z0.400
G1 E0.80000 F2100.00000
M204 S1250
G1 F1812
G1 X115.646 Y103.058 E0.03315
G1 X115.646 Y103.637 E0.01974
G1 X116.731 Y102.552 E0.05227
G1 X117.311 Y102.551 E0.01977
G1 X115.646 Y104.216 E0.08022
G1 X115.646 Y104.796 E0.01974
G1 X117.891 Y102.551 E0.10818
G1 X118.471 Y102.550 E0.01977
G1 X115.646 Y105.375 E0.13614
G1 X115.646 Y105.955 E0.01974
G1 X119.052 Y102.549 E0.16409
G1 X119.632 Y102.548 E0.01977
G1 X115.646 Y106.534 E0.19205
G1 X115.646 Y107.114 E0.01974
G1 X120.212 Y102.547 E0.22001
G1 X120.792 Y102.546 E0.01977
G1 X115.892 Y107.447 E0.23609
G1 X116.471 Y107.447 E0.01971
G1 X121.373 Y102.546 E0.23617
G1 X121.953 Y102.545 E0.01977
G1 X117.050 Y107.448 E0.23625
G1 X117.628 Y107.449 E0.01971
G1 X122.533 Y102.544 E0.23633
G1 X123.113 Y102.543 E0.01977
G1 X118.207 Y107.450 E0.23641
G1 X118.785 Y107.451 E0.01971
G1 X126.456 Y99.781 E0.36955
G1 X126.456 Y100.360 E0.01974
G1 X119.364 Y107.452 E0.34167
G1 X119.943 Y107.452 E0.01971
G1 X126.456 Y100.939 E0.31379
G1 X126.456 Y101.519 E0.01974
G1 X120.521 Y107.453 E0.28592
G1 X121.100 Y107.454 E0.01971
G1 X126.456 Y102.098 E0.25804
G1 X126.456 Y102.678 E0.01974
G1 X121.678 Y107.455 E0.23016
G1 X122.257 Y107.456 E0.01971
G1 X126.456 Y103.257 E0.20228
G1 X126.456 Y103.837 E0.01974
G1 X122.836 Y107.456 E0.17441
G1 X123.414 Y107.457 E0.01971
G1 X126.456 Y104.416 E0.14653
G1 X126.456 Y104.995 E0.01974
G1 X123.544 Y107.907 E0.14026
G1 X123.544 Y108.486 E0.01974
G1 X126.456 Y105.575 E0.14026
G1 X126.456 Y106.154 E0.01974
G1 X123.544 Y109.065 E0.14026
G1 X123.544 Y109.645 E0.01974
G1 X126.456 Y106.734 E0.14026
G1 X126.456 Y107.313 E0.01974
G1 X123.544 Y110.224 E0.14026
G1 X123.544 Y110.804 E0.01974
G1 X126.456 Y107.893 E0.14026
G1 X126.456 Y108.472 E0.01974
G1 X123.544 Y111.383 E0.14026
G1 X123.544 Y111.456 E0.00247
G1 X124.051 Y111.456 E0.01727
G1 X126.456 Y109.051 E0.11583
G1 X126.456 Y109.631 E0.01974
G1 X124.631 Y111.456 E0.08791
G1 X125.210 Y111.456 E0.01974
G1 X126.456 Y110.210 E0.05999
G1 X126.456 Y110.790 E0.01974
G1 X125.607 Y111.639 E0.04090
M204 S1000
G1 X126.557 Y111.499 F10800.000
G1 F1812
G1 X134.430 Y111.503 E0.05858
;BEFORE_LAYER_CHANGE
G92 E0.0
;0.6


G1 F8640
G1 X131.139 Y111.502 E-0.76000
G1 E-0.04000 F2100.00000
G1 Z1.000 F10800.000
;AFTER_LAYER_CHANGE
;0.6
G1 X121.547 Y115.525
G1 Z0.600
G1 E0.80000 F2100.00000
G1 F1999
G1 X120.791 Y115.263 E0.02508
G1 X112.559 Y110.732 E0.29463
G1 X112.095 Y110.396 E0.01795
G1 X111.718 Y109.966 E0.01795
G1 X111.397 Y109.332 E0.02226
G1 X111.262 Y108.635 E0.02226
G1 X111.263 Y101.346 E0.22856
G1 X111.362 Y100.778 E0.01808
G1 X111.585 Y100.246 E0.01808
G1 X111.922 Y99.778 E0.01808
G1 X112.358 Y99.395 E0.01820
G1 X120.780 Y94.743 E0.30169
G1 X121.426 Y94.499 E0.02165
G1 X121.987 Y94.434 E0.01771
G1 X134.003 Y94.434 E0.37675
G1 X134.883 Y94.489 E0.02763
G1 X135.756 Y94.652 E0.02784
G1 X137.421 Y95.257 E0.05555
G1 X137.885 Y95.586 E0.01783
G1 X138.262 Y96.006 E0.01771
G1 X138.538 Y96.498 E0.01771
G1 X138.701 Y97.043 E0.01783
G1 X138.737 Y112.654 E0.48947
G1 X138.638 Y113.222 E0.01808
G1 X138.415 Y113.754 E0.01808
G1 X138.078 Y114.222 E0.01808
