; generated by PrusaSlicer 2.0.0+win64 on 2019-07-19 at 09:16:07

; 

; external perimeters extrusion width = 0.45mm
; perimeters extrusion width = 0.45mm
; infill extrusion width = 0.45mm
; solid infill extrusion width = 0.45mm
; top infill extrusion width = 0.40mm
; first layer extrusion width = 0.42mm

M73 P0 R16
M73 Q0 S17
M201 X1000 Y1000 Z1000 E5000 ; sets maximum accelerations, mm/sec^2
M203 X200 Y200 Z12 E120 ; sets maximum feedrates, mm/sec
M204 P1250 R1250 T1250 ; sets acceleration (P, T) and retract acceleration (R), mm/sec^2
M205 X8.00 Y8.00 Z0.40 E1.50 ; sets the jerk limits, mm/sec
M205 S0 T0 ; sets the minimum extruding and travel feed rate, mm/sec
M107
M115 U3.7.1 ; tell printer latest fw version
G90 ; use absolute coordinates
M83 ; extruder relative mode
M104 S240 ; set extruder temp
M140 S85 ; set bed temp
Tx
M190 S85 ; wait for bed temp
M109 S240 ; wait for extruder temp
G28 W ; home all without mesh bed level
G80 ; mesh bed leveling

G21 ; set units to millimeters

;go outside print area
G1 Y-3.0 F1000.0
G1 Z0.4 F1000.0
; select extruder
Tc
; purge line
G1 X55.0 F2000.0
G1 Z0.3 F1000.0
G92 E0.0
G1 X240.0 E25.0 F2200.0
M73 Q0 S16
M73 P0 R16
G1 Y-2.0 F1000.0
G1 X55.0 E25 F1400.0
G1 Z0.20 F1000.0
G1 X5.0 E4.0 F1000.0

M221 S95
G92 E0.0
M900 K45 ; Filament gcode
G21 ; set units to millimeters
G90 ; use absolute coordinates
M83 ; use relative distances for extrusion
;BEFORE_LAYER_CHANGE
G92 E0.0
;0.2


G1 E-0.80000 F2100.00000
G1 Z0.600 F10800.000
;AFTER_LAYER_CHANGE
;0.2
G1 X146.980 Y97.068
G1 Z0.200
G1 E0.80000 F2100.00000
M204 S1000
G1 F1200
G1 X147.188 Y97.970 E0.02900
G1 X147.188 Y112.022 E0.44060
G1 X147.094 Y112.638 E0.01953
G1 X146.829 Y113.201 E0.01953
G1 X134.529 Y125.566 E0.54682
G1 X134.100 Y125.892 E0.01692
G1 X133.604 Y126.104 E0.01692
G1 X133.008 Y126.189 E0.01885
G1 X109.909 Y126.187 E0.72428
G1 X109.008 Y126.117 E0.02833
G1 X107.569 Y125.762 E0.04646
G1 X106.686 Y125.379 E0.03018
G1 X105.956 Y124.943 E0.02665
G1 X105.239 Y124.386 E0.02848
G1 X104.627 Y123.776 E0.02710
G1 X104.086 Y123.087 E0.02745
G1 X103.645 Y122.361 E0.02665
G1 X103.281 Y121.556 E0.02768
G1 X103.025 Y120.739 E0.02687
G1 X102.814 Y119.110 E0.05148
G1 X102.813 Y90.916 E0.88401
G1 X102.883 Y90.008 E0.02856
G1 X103.237 Y88.572 E0.04635
G1 X103.621 Y87.686 E0.03030
G1 X104.057 Y86.956 E0.02665
G1 X105.147 Y85.700 E0.05216
G1 X106.023 Y85.015 E0.03486
G1 X107.471 Y84.271 E0.05103
G1 X108.286 Y84.019 E0.02676
G1 X109.162 Y83.861 E0.02790
G1 X133.004 Y83.811 E0.74754
G1 X133.813 Y83.968 E0.02586
G1 X134.505 Y84.411 E0.02574
G1 X146.558 Y96.463 E0.53443
G1 X146.946 Y97.019 E0.02127
G1 F8640
G1 X147.188 Y97.970 E-0.22649
G1 X147.188 Y100.280 E-0.53351
G1 E-0.04000 F2100.00000
G1 Z0.800 F10800.000
G1 X137.010 Y118.044
G1 Z0.200
G1 E0.80000 F2100.00000
G1 F1200
G1 X136.714 Y118.378 E0.01399
G1 X136.349 Y118.630 E0.01392
G1 X135.934 Y118.788 E0.01392
G1 X135.493 Y118.841 E0.01392
G1 X135.052 Y118.788 E0.01392
G1 X134.637 Y118.630 E0.01392
G1 X134.272 Y118.378 E0.01392
G1 X133.977 Y118.046 E0.01392
G1 X133.771 Y117.653 E0.01392
G1 X133.665 Y117.222 E0.01392
G1 X133.665 Y116.778 E0.01392
G1 X133.771 Y116.347 E0.01392
G1 X133.977 Y115.954 E0.01392
G1 X134.272 Y115.622 E0.01392
G1 X134.639 Y115.368 E0.01399
G1 X135.064 Y115.211 E0.01422
G1 X135.493 Y115.159 E0.01353
G1 X135.934 Y115.212 E0.01392
G1 X136.349 Y115.370 E0.01392
G1 X136.714 Y115.622 E0.01392
G1 X137.008 Y115.954 E0.01392
G1 X137.215 Y116.347 E0.01392
G1 X137.321 Y116.778 E0.01392
G1 X137.321 Y117.222 E0.01392
G1 X137.218 Y117.641 E0.01353
G1 X137.037 Y117.991 E0.01234
G1 X136.696 Y117.830 F10800.000
G1 F1200
G1 X136.462 Y118.094 E0.01107
G1 X136.172 Y118.294 E0.01105
G1 X135.843 Y118.419 E0.01105
G1 X135.493 Y118.462 E0.01105
G1 X135.143 Y118.419 E0.01105
G1 X134.814 Y118.294 E0.01105
G1 X134.524 Y118.094 E0.01105
G1 X134.290 Y117.830 E0.01105
G1 X134.126 Y117.518 E0.01105
G1 X134.042 Y117.176 E0.01105
G1 X134.042 Y116.824 E0.01105
G1 X134.126 Y116.482 E0.01105
G1 X134.290 Y116.170 E0.01105
G1 X134.524 Y115.906 E0.01105
G1 X134.814 Y115.705 E0.01107
G1 X135.154 Y115.580 E0.01135
G1 X135.493 Y115.538 E0.01071
G1 X135.843 Y115.581 E0.01105
G1 X136.172 Y115.706 E0.01105
G1 X136.462 Y115.906 E0.01105
G1 X136.696 Y116.170 E0.01105
G1 X136.859 Y116.482 E0.01105
G1 X136.944 Y116.824 E0.01105
G1 X136.944 Y117.176 E0.01105
G1 X136.862 Y117.508 E0.01071
G1 X136.724 Y117.776 E0.00947
G1 X136.848 Y118.149 F10800.000
G1 F8640
G1 X136.462 Y118.094 E-0.09503
G1 X136.172 Y118.294 E-0.08136
G1 X135.843 Y118.419 E-0.08136
G1 X135.493 Y118.462 E-0.08136
G1 X135.143 Y118.419 E-0.08136
G1 X134.814 Y118.294 E-0.08136
G1 X134.524 Y118.094 E-0.08136
G1 X134.290 Y117.830 E-0.08136
G1 X134.126 Y117.518 E-0.08135
G1 X134.112 Y117.459 E-0.01412
G1 E-0.04000 F2100.00000
G1 Z0.800 F10800.000
G1 X141.144 Y106.631
G1 Z0.200
G1 E0.80000 F2100.00000
G1 F1200
G1 X140.779 Y106.379 E0.01392
G1 X140.485 Y106.047 E0.01392
G1 X140.278 Y105.654 E0.01392
G1 X140.172 Y105.223 E0.01392
G1 X140.172 Y104.779 E0.01392
G1 X140.278 Y104.348 E0.01392
G1 X140.485 Y103.955 E0.01392
G1 X140.779 Y103.623 E0.01392
G1 X141.146 Y103.369 E0.01399
G1 X141.572 Y103.211 E0.01422
G1 X142.000 Y103.159 E0.01353
G1 X142.441 Y103.213 E0.01392
G1 X142.856 Y103.370 E0.01392
G1 X143.221 Y103.623 E0.01392
G1 X143.515 Y103.955 E0.01392
G1 X143.722 Y104.348 E0.01392
G1 X143.828 Y104.779 E0.01392
G1 X143.828 Y105.223 E0.01392
G1 X143.722 Y105.654 E0.01392
G1 X143.515 Y106.047 E0.01392
G1 X143.221 Y106.379 E0.01392
G1 X142.856 Y106.631 E0.01392
G1 X142.441 Y106.789 E0.01392
G1 X142.000 Y106.842 E0.01392
G1 X141.559 Y106.789 E0.01392
G1 X141.200 Y106.653 E0.01204
G1 X141.321 Y106.295 F10800.000
G1 F1200
G1 X141.031 Y106.095 E0.01105
G1 X140.797 Y105.831 E0.01105
G1 X140.633 Y105.519 E0.01105
G1 X140.549 Y105.177 E0.01105
G1 X140.549 Y104.825 E0.01105
G1 X140.633 Y104.483 E0.01105
G1 X140.797 Y104.171 E0.01105
G1 X141.031 Y103.907 E0.01105
G1 X141.321 Y103.706 E0.01107
G1 X141.661 Y103.580 E0.01135
G1 X142.000 Y103.539 E0.01071
G1 X142.350 Y103.582 E0.01105
G1 X142.679 Y103.707 E0.01105
G1 X142.969 Y103.907 E0.01105
G1 X143.203 Y104.171 E0.01105
G1 X143.367 Y104.483 E0.01105
G1 X143.451 Y104.825 E0.01105
G1 X143.451 Y105.177 E0.01105
G1 X143.367 Y105.519 E0.01105
G1 X143.203 Y105.831 E0.01105
G1 X142.969 Y106.095 E0.01105
G1 X142.679 Y106.295 E0.01105
G1 X142.350 Y106.420 E0.01105
G1 X142.000 Y106.462 E0.01105
G1 X141.650 Y106.420 E0.01105
G1 X141.377 Y106.316 E0.00917
G1 X141.023 Y106.483 F10800.000
G1 F8640
G1 X141.031 Y106.095 E-0.09487
G1 X140.797 Y105.831 E-0.08136
G1 X140.633 Y105.519 E-0.08136
G1 X140.549 Y105.177 E-0.08136
G1 X140.549 Y104.825 E-0.08136
G1 X140.633 Y104.483 E-0.08136
G1 X140.797 Y104.171 E-0.08136
G1 X141.031 Y103.907 E-0.08136
G1 X141.321 Y103.706 E-0.08155
G1 X141.379 Y103.685 E-0.01410
G1 E-0.04000 F2100.00000
G1 Z0.800 F10800.000
G1 X136.395 Y94.628
G1 Z0.200
G1 E0.80000 F2100.00000
G1 F1200
G1 X135.980 Y94.786 E0.01392
G1 X135.539 Y94.839 E0.01392
G1 X135.099 Y94.786 E0.01392
G1 X134.684 Y94.628 E0.01392
G1 X134.318 Y94.376 E0.01392
G1 X134.024 Y94.044 E0.01392
G1 X133.818 Y93.651 E0.01392
G1 X133.711 Y93.220 E0.01392
G1 X133.711 Y92.776 E0.01392
G1 X133.815 Y92.357 E0.01353
G1 X134.022 Y91.953 E0.01422
G1 X134.318 Y91.619 E0.01399
G1 X134.686 Y91.366 E0.01399
G1 X135.111 Y91.208 E0.01422
G1 X135.539 Y91.156 E0.01353
G1 X135.980 Y91.210 E0.01392
G1 X136.395 Y91.367 E0.01392
G1 X136.760 Y91.619 E0.01392
G1 X137.055 Y91.952 E0.01392
G1 X137.261 Y92.345 E0.01392
G1 X137.367 Y92.776 E0.01392
G1 X137.367 Y93.220 E0.01392
G1 X137.264 Y93.639 E0.01353
G1 X137.056 Y94.042 E0.01422
G1 X136.760 Y94.376 E0.01399
G1 X136.445 Y94.594 E0.01204
G1 X136.219 Y94.292 F10800.000
G1 F1200
G1 X135.889 Y94.417 E0.01105
G1 X135.539 Y94.459 E0.01105
G1 X135.190 Y94.417 E0.01105
G1 X134.860 Y94.292 E0.01105
G1 X134.570 Y94.092 E0.01105
G1 X134.337 Y93.828 E0.01105
G1 X134.173 Y93.516 E0.01105
G1 X134.089 Y93.174 E0.01105
G1 X134.089 Y92.822 E0.01105
G1 X134.170 Y92.490 E0.01071
G1 X134.336 Y92.168 E0.01135
G1 X134.570 Y91.904 E0.01107
G1 X134.861 Y91.703 E0.01107
G1 X135.200 Y91.577 E0.01135
G1 X135.539 Y91.536 E0.01071
G1 X135.889 Y91.579 E0.01105
G1 X136.219 Y91.704 E0.01105
G1 X136.509 Y91.904 E0.01105
G1 X136.742 Y92.167 E0.01105
G1 X136.906 Y92.479 E0.01105
G1 X136.990 Y92.822 E0.01105
G1 X136.990 Y93.174 E0.01105
G1 X136.909 Y93.505 E0.01071
G1 X136.743 Y93.827 E0.01135
G1 X136.509 Y94.092 E0.01107
G1 X136.268 Y94.258 E0.00917
G1 X136.204 Y94.644 F10800.000
G1 F8640
G1 X135.889 Y94.417 E-0.09486
G1 X135.539 Y94.459 E-0.08136
G1 X135.190 Y94.417 E-0.08136
G1 X134.860 Y94.292 E-0.08136
G1 X134.570 Y94.092 E-0.08135
G1 X134.337 Y93.828 E-0.08136
G1 X134.173 Y93.516 E-0.08136
G1 X134.089 Y93.174 E-0.08136
G1 X134.089 Y92.822 E-0.08135
G1 X134.103 Y92.761 E-0.01429
G1 E-0.04000 F2100.00000
G1 Z0.800 F10800.000
G1 X108.627 Y93.136
G1 Z0.200
G1 E0.80000 F2100.00000
G1 F1200
G1 X122.355 Y93.136 E0.43044
G1 X122.355 Y114.864 E0.68128
G1 X108.627 Y114.864 E0.43044
G1 X108.627 Y93.196 E0.67939
G1 X109.004 Y93.513 F10800.000
G1 F1200
G1 X121.978 Y93.513 E0.40680
G1 X121.978 Y114.487 E0.65763
G1 X109.004 Y114.487 E0.40680
G1 X109.004 Y93.573 E0.65575
G1 X109.381 Y93.890 F10800.000
G1 F1200
G1 X121.601 Y93.890 E0.38315
G1 X121.601 Y114.110 E0.63398
G1 X109.381 Y114.110 E0.38315
G1 X109.381 Y93.950 E0.63210
G1 X109.309 Y93.496 F10800.000
G1 F8640
G1 X112.673 Y93.934 E-0.76000
G1 E-0.04000 F2100.00000
G1 Z0.800 F10800.000
G1 X135.890 Y90.819
G1 Z0.200
G1 E0.80000 F2100.00000
G1 F1200
G1 X135.539 Y90.776 E0.01107
G1 X135.022 Y90.839 E0.01636
G1 X134.510 Y91.029 E0.01710
G1 X134.066 Y91.335 E0.01691
G1 X133.709 Y91.739 E0.01691
G1 X133.459 Y92.223 E0.01710
G1 X133.334 Y92.730 E0.01636
G1 X133.334 Y93.265 E0.01679
G1 X133.462 Y93.785 E0.01679
G1 X133.711 Y94.259 E0.01679
G1 X134.066 Y94.660 E0.01679
G1 X134.507 Y94.964 E0.01679
G1 X135.008 Y95.154 E0.01679
G1 X135.539 Y95.219 E0.01679
G1 X136.071 Y95.154 E0.01679
G1 X136.572 Y94.964 E0.01679
G1 X137.012 Y94.660 E0.01679
G1 X137.370 Y94.257 E0.01691
G1 X137.620 Y93.772 E0.01710
G1 X137.744 Y93.265 E0.01636
G1 X137.744 Y92.730 E0.01679
G1 X137.726 Y92.655 E0.00241
G1 X143.636 Y98.565 E0.26205
G1 X143.636 Y103.522 E0.15542
G1 X143.473 Y103.338 E0.00770
G1 X143.032 Y103.034 E0.01679
G1 X142.532 Y102.844 E0.01679
G1 X142.000 Y102.780 E0.01679
G1 X141.482 Y102.842 E0.01636
G1 X140.971 Y103.032 E0.01710
G1 X140.527 Y103.338 E0.01691
G1 X140.172 Y103.739 E0.01679
G1 X139.923 Y104.213 E0.01679
G1 X139.795 Y104.733 E0.01679
G1 X139.795 Y105.269 E0.01679
G1 X139.923 Y105.789 E0.01679
G1 X140.172 Y106.263 E0.01679
G1 X140.527 Y106.663 E0.01679
G1 X140.968 Y106.968 E0.01679
G1 X141.468 Y107.158 E0.01679
G1 X142.000 Y107.222 E0.01679
G1 X142.532 Y107.158 E0.01679
G1 X143.032 Y106.968 E0.01679
G1 X143.473 Y106.663 E0.01679
G1 X143.636 Y106.480 E0.00770
G1 X143.636 Y111.435 E0.15537
G1 X137.663 Y117.407 E0.26482
G1 X137.698 Y117.268 E0.00451
G1 X137.698 Y116.732 E0.01679
G1 X137.570 Y116.212 E0.01679
G1 X137.321 Y115.738 E0.01679
G1 X136.966 Y115.337 E0.01679
G1 X136.525 Y115.033 E0.01679
G1 X136.024 Y114.843 E0.01679
G1 X135.493 Y114.779 E0.01679
G1 X134.975 Y114.842 E0.01636
G1 X134.464 Y115.031 E0.01710
G1 X134.020 Y115.337 E0.01691
G1 X133.665 Y115.738 E0.01679
G1 X133.416 Y116.212 E0.01679
G1 X133.288 Y116.732 E0.01679
G1 X133.288 Y117.268 E0.01679
G1 X133.416 Y117.788 E0.01679
G1 X133.665 Y118.262 E0.01679
G1 X134.020 Y118.663 E0.01679
G1 X134.461 Y118.967 E0.01679
G1 X134.961 Y119.157 E0.01679
G1 X135.493 Y119.221 E0.01679
G1 X135.899 Y119.172 E0.01282
G1 X132.435 Y122.636 E0.15360
G1 X110.031 Y122.636 E0.70246
G1 X109.534 Y122.604 E0.01563
G1 X109.075 Y122.514 E0.01465
G1 X108.632 Y122.366 E0.01465
G1 X108.211 Y122.162 E0.01465
G1 X107.826 Y121.910 E0.01445
G1 X107.394 Y121.530 E0.01805
G1 X107.093 Y121.179 E0.01447
G1 X106.838 Y120.789 E0.01465
G1 X106.634 Y120.368 E0.01465
G1 X106.486 Y119.925 E0.01465
G1 X106.396 Y119.466 E0.01465
G1 X106.364 Y118.969 E0.01563
G1 X106.364 Y91.031 E0.87597
G1 X106.396 Y90.534 E0.01563
G1 X106.486 Y90.075 E0.01465
G1 X106.634 Y89.632 E0.01465
G1 X106.838 Y89.211 E0.01465
G1 X107.093 Y88.821 E0.01465
G1 X107.394 Y88.470 E0.01447
G1 X107.826 Y88.090 E0.01805
G1 X108.211 Y87.838 E0.01445
G1 X108.632 Y87.634 E0.01465
G1 X109.075 Y87.486 E0.01465
G1 X109.534 Y87.396 E0.01465
G1 X110.031 Y87.364 E0.01563
G1 X132.435 Y87.364 E0.70246
G1 X135.847 Y90.777 E0.15131
G1 F8640
G1 X135.539 Y90.776 E-0.07111
G1 X135.022 Y90.839 E-0.12045
G1 X134.510 Y91.029 E-0.12590
G1 X134.066 Y91.335 E-0.12452
G1 X133.709 Y91.739 E-0.12452
G1 X133.459 Y92.223 E-0.12590
G1 X133.389 Y92.508 E-0.06761
G1 E-0.04000 F2100.00000
G1 Z0.800 F10800.000
G1 X132.591 Y86.987
G1 Z0.200
G1 E0.80000 F2100.00000
G1 F1200
G1 X144.013 Y98.409 E0.50646
G1 X144.013 Y111.591 E0.41332
G1 X132.591 Y123.013 E0.50646
G1 X110.019 Y123.013 E0.70774
G1 X109.485 Y122.978 E0.01677
G1 X108.979 Y122.879 E0.01618
G1 X108.490 Y122.716 E0.01617
G1 X108.025 Y122.491 E0.01617
G1 X107.597 Y122.211 E0.01605
G1 X107.125 Y121.795 E0.01972
G1 X106.791 Y121.406 E0.01606
G1 X106.509 Y120.975 E0.01617
G1 X106.284 Y120.510 E0.01617
G1 X106.121 Y120.021 E0.01617
G1 X106.022 Y119.515 E0.01618
G1 X105.987 Y118.981 E0.01677
G1 X105.987 Y91.019 E0.87673
G1 X106.022 Y90.485 E0.01677
G1 X106.121 Y89.979 E0.01618
G1 X106.284 Y89.490 E0.01617
G1 X106.509 Y89.025 E0.01617
G1 X106.791 Y88.594 E0.01617
G1 X107.125 Y88.205 E0.01606
G1 X107.597 Y87.789 E0.01972
G1 X108.025 Y87.509 E0.01605
G1 X108.490 Y87.284 E0.01617
G1 X108.979 Y87.121 E0.01617
G1 X109.485 Y87.022 E0.01618
G1 X110.019 Y86.987 E0.01677
G1 X132.531 Y86.987 E0.70585
G1 X132.747 Y86.610 F10800.000
G1 F1200
G1 X144.390 Y98.253 E0.51626
G1 X144.390 Y111.747 E0.42312
G1 X132.747 Y123.390 E0.51626
G1 X110.007 Y123.390 E0.71301
G1 X109.437 Y123.353 E0.01791
G1 X108.883 Y123.245 E0.01770
G1 X108.347 Y123.066 E0.01770
G1 X107.839 Y122.820 E0.01770
G1 X107.368 Y122.512 E0.01766
G1 X106.856 Y122.061 E0.02139
G1 X106.489 Y121.633 E0.01766
G1 X106.180 Y121.161 E0.01770
G1 X105.934 Y120.653 E0.01770
G1 X105.755 Y120.117 E0.01770
G1 X105.647 Y119.563 E0.01770
G1 X105.610 Y118.993 E0.01791
G1 X105.610 Y91.007 E0.87750
G1 X105.647 Y90.437 E0.01791
G1 X105.755 Y89.883 E0.01770
G1 X105.934 Y89.347 E0.01770
G1 X106.180 Y88.839 E0.01770
G1 X106.489 Y88.367 E0.01770
G1 X106.856 Y87.939 E0.01766
G1 X107.368 Y87.488 E0.02139
G1 X107.839 Y87.180 E0.01766
G1 X108.347 Y86.934 E0.01770
G1 X108.883 Y86.755 E0.01770
G1 X109.437 Y86.647 E0.01770
G1 X110.007 Y86.610 E0.01791
G1 X132.687 Y86.610 E0.71113
G1 X132.748 Y87.010 F10800.000
G1 F8640
G1 X135.021 Y88.931 E-0.76000
G1 E-0.04000 F2100.00000
G1 Z0.800 F10800.000
G1 X135.354 Y90.685
G1 Z0.200
G1 E0.80000 F2100.00000
G1 F1200
G1 X132.316 Y87.647 E0.13535
G1 X131.781 Y87.647 E0.01688
G1 X134.766 Y90.632 E0.13301
G1 X134.376 Y90.778 E0.01312
G1 X131.245 Y87.647 E0.13949
G1 X130.709 Y87.647 E0.01688
G1 X134.059 Y90.997 E0.14924
G1 X133.878 Y91.122 E0.00694
G1 X133.770 Y91.243 E0.00512
G1 X130.173 Y87.647 E0.16024
M73 Q6 S15
G1 X129.637 Y87.647 E0.01688
G1 X133.518 Y91.528 E0.17290
G1 X133.474 Y91.578 E0.00211
G1 X133.324 Y91.869 E0.01032
G1 X129.102 Y87.647 E0.18811
M73 P6 R15
G1 X128.566 Y87.647 E0.01688
G1 X133.163 Y92.244 E0.20482
G1 X133.057 Y92.674 E0.01395
G1 X128.030 Y87.647 E0.22397
G1 X127.494 Y87.647 E0.01688
G1 X133.252 Y93.405 E0.25655
G1 X133.196 Y93.884 F10800.000
G1 F1200
G1 X126.958 Y87.647 E0.27789
G1 X126.422 Y87.647 E0.01688
G1 X141.361 Y102.586 E0.66557
G1 X140.970 Y102.731 E0.01314
G1 X125.887 Y87.647 E0.67202
G1 X125.351 Y87.647 E0.01688
G1 X140.628 Y102.925 E0.68067
G1 X140.317 Y103.149 E0.01209
G1 X124.815 Y87.647 E0.69066
G1 X124.279 Y87.647 E0.01688
G1 X140.065 Y103.433 E0.70332
G1 X139.938 Y103.577 E0.00607
G1 X139.847 Y103.750 E0.00616
G1 X123.743 Y87.647 E0.71745
G1 X123.208 Y87.647 E0.01688
G1 X139.662 Y104.102 E0.73311
G1 X139.554 Y104.529 E0.01389
G1 X122.672 Y87.647 E0.75216
G1 X122.136 Y87.647 E0.01688
