; generated by PrusaSlicer 2.0.0+win64 on 2019-07-24 at 20:47:39

; 

; external perimeters extrusion width = 0.45mm
; perimeters extrusion width = 0.45mm
; infill extrusion width = 0.45mm
; solid infill extrusion width = 0.45mm
; top infill extrusion width = 0.40mm
; first layer extrusion width = 0.42mm

M73 P0 R18
M73 Q0 S18
M201 X1000 Y1000 Z1000 E5000 ; sets maximum accelerations, mm/sec^2
M203 X200 Y200 Z12 E120 ; sets maximum feedrates, mm/sec
M204 P1250 R1250 T1250 ; sets acceleration (P, T) and retract acceleration (R), mm/sec^2
M205 X8.00 Y8.00 Z0.40 E1.50 ; sets the jerk limits, mm/sec
M205 S0 T0 ; sets the minimum extruding and travel feed rate, mm/sec
M107
M115 U3.7.2 ; tell printer latest fw version
G90 ; use absolute coordinates
M83 ; extruder relative mode
M104 S240 ; set extruder temp
M140 S85 ; set bed temp
Tx
M190 S85 ; wait for bed temp
M109 S240 ; wait for extruder temp
G28 W ; home all without mesh bed level
G80 ; mesh bed leveling

G21 ; set units to millimeters

;go outside print area
G1 Y-3.0 F1000.0
G1 Z0.4 F1000.0
; select extruder
Tc
; purge line
G1 X55.0 F2000.0
G1 Z0.3 F1000.0
G92 E0.0
G1 X240.0 E25.0 F2200.0
M73 Q0 S18
M73 P0 R18
G1 Y-2.0 F1000.0
G1 X55.0 E25 F1400.0
G1 Z0.20 F1000.0
G1 X5.0 E4.0 F1000.0

M221 S95
G92 E0.0
M900 K45 ; Filament gcode
G21 ; set units to millimeters
G90 ; use absolute coordinates
M83 ; use relative distances for extrusion
;BEFORE_LAYER_CHANGE
G92 E0.0
;0.2


G1 E-0.80000 F2100.00000
G1 Z0.600 F10800.000
;AFTER_LAYER_CHANGE
;0.2
G1 X94.154 Y89.982
G1 Z0.200
G1 E0.80000 F2100.00000
M204 S1000
G1 F1200
G1 X94.994 Y89.811 E0.02687
G1 X155.004 Y89.811 E1.88156
G1 X155.793 Y89.960 E0.02518
G1 X156.478 Y90.386 E0.02529
G1 X156.961 Y91.028 E0.02518
G1 X157.180 Y91.804 E0.02529
G1 X157.145 Y113.775 E0.68887
G1 X156.983 Y114.705 E0.02962
G1 X156.720 Y115.552 E0.02779
G1 X156.357 Y116.356 E0.02767
G1 X155.854 Y117.169 E0.02996
G1 X155.290 Y117.863 E0.02805
G1 X154.187 Y118.840 E0.04619
G1 X153.370 Y119.349 E0.03018
G1 X152.618 Y119.694 E0.02596
G1 X151.607 Y120.004 E0.03315
G1 X150.019 Y120.188 E0.05012
G1 X99.247 Y120.147 E1.59192
G1 X98.298 Y119.984 E0.03019
G1 X97.452 Y119.722 E0.02779
G1 X96.644 Y119.357 E0.02779
G1 X95.834 Y118.856 E0.02984
G1 X95.140 Y118.294 E0.02801
G1 X94.160 Y117.187 E0.04635
G1 X93.651 Y116.370 E0.03018
G1 X93.306 Y115.618 E0.02596
G1 X92.996 Y114.610 E0.03304
G1 X92.812 Y113.045 E0.04943
G1 X92.813 Y91.927 E0.66213
G1 X92.922 Y91.314 E0.01953
G1 X93.199 Y90.756 E0.01953
G1 X93.620 Y90.302 E0.01942
G1 X94.103 Y90.012 E0.01765
G1 F8640
G1 X94.994 Y89.811 E-0.21099
G1 X97.372 Y89.811 E-0.54901
G1 E-0.04000 F2100.00000
G1 Z0.800 F10800.000
G1 X106.878 Y112.971
G1 Z0.200
G1 E0.80000 F2100.00000
G1 F1200
G1 X106.546 Y113.265 E0.01392
G1 X106.153 Y113.472 E0.01392
G1 X105.722 Y113.578 E0.01392
G1 X105.278 Y113.578 E0.01392
G1 X104.847 Y113.472 E0.01392
G1 X104.454 Y113.265 E0.01392
G1 X104.122 Y112.971 E0.01392
G1 X103.868 Y112.604 E0.01399
G1 X103.711 Y112.178 E0.01422
G1 X103.659 Y111.750 E0.01353
G1 X103.712 Y111.309 E0.01392
G1 X103.870 Y110.894 E0.01392
G1 X104.122 Y110.529 E0.01392
G1 X104.454 Y110.235 E0.01392
G1 X104.847 Y110.028 E0.01392
G1 X105.278 Y109.922 E0.01392
G1 X105.722 Y109.922 E0.01392
G1 X106.153 Y110.028 E0.01392
G1 X106.546 Y110.235 E0.01392
G1 X106.878 Y110.529 E0.01392
G1 X107.132 Y110.896 E0.01399
G1 X107.289 Y111.322 E0.01422
G1 X107.341 Y111.750 E0.01353
G1 X107.288 Y112.191 E0.01392
G1 X107.130 Y112.606 E0.01392
G1 X106.912 Y112.922 E0.01204
G1 X106.594 Y112.719 F10800.000
G1 F1200
G1 X106.330 Y112.953 E0.01105
G1 X106.018 Y113.117 E0.01105
G1 X105.676 Y113.201 E0.01105
G1 X105.324 Y113.201 E0.01105
G1 X104.982 Y113.117 E0.01105
G1 X104.670 Y112.953 E0.01105
G1 X104.406 Y112.719 E0.01105
G1 X104.205 Y112.429 E0.01107
G1 X104.080 Y112.089 E0.01135
G1 X104.038 Y111.750 E0.01071
G1 X104.081 Y111.400 E0.01105
G1 X104.206 Y111.071 E0.01105
G1 X104.406 Y110.781 E0.01105
G1 X104.670 Y110.547 E0.01105
G1 X104.982 Y110.383 E0.01105
G1 X105.324 Y110.299 E0.01105
G1 X105.676 Y110.299 E0.01105
G1 X106.018 Y110.383 E0.01105
G1 X106.330 Y110.547 E0.01105
G1 X106.594 Y110.781 E0.01105
G1 X106.795 Y111.071 E0.01107
G1 X106.920 Y111.411 E0.01135
G1 X106.962 Y111.750 E0.01071
G1 X106.919 Y112.100 E0.01105
G1 X106.794 Y112.429 E0.01105
G1 X106.628 Y112.670 E0.00917
G1 X106.706 Y113.053 F10800.000
G1 F8640
G1 X106.330 Y112.953 E-0.09487
G1 X106.018 Y113.117 E-0.08135
G1 X105.676 Y113.201 E-0.08136
G1 X105.324 Y113.201 E-0.08136
G1 X104.982 Y113.117 E-0.08136
G1 X104.670 Y112.953 E-0.08135
G1 X104.406 Y112.719 E-0.08136
G1 X104.205 Y112.429 E-0.08155
G1 X104.080 Y112.089 E-0.08361
G1 X104.073 Y112.038 E-0.01184
G1 E-0.04000 F2100.00000
G1 Z0.800 F10800.000
G1 X131.659 Y111.750
G1 Z0.200
G1 E0.80000 F2100.00000
G1 F1200
G1 X131.712 Y111.309 E0.01392
G1 X131.870 Y110.894 E0.01392
G1 X132.122 Y110.529 E0.01392
G1 X132.454 Y110.235 E0.01392
G1 X132.847 Y110.028 E0.01392
G1 X133.278 Y109.922 E0.01392
G1 X133.722 Y109.922 E0.01392
G1 X134.155 Y110.029 E0.01399
G1 X134.555 Y110.243 E0.01422
G1 X134.878 Y110.529 E0.01353
G1 X135.130 Y110.894 E0.01392
G1 X135.288 Y111.309 E0.01392
G1 X135.341 Y111.750 E0.01392
G1 X135.288 Y112.191 E0.01392
G1 X135.130 Y112.606 E0.01392
G1 X134.878 Y112.971 E0.01392
G1 X134.546 Y113.265 E0.01392
G1 X134.153 Y113.472 E0.01392
G1 X133.722 Y113.578 E0.01392
G1 X133.278 Y113.578 E0.01392
G1 X132.845 Y113.471 E0.01399
G1 X132.445 Y113.257 E0.01422
G1 X132.122 Y112.971 E0.01353
G1 X131.870 Y112.606 E0.01392
G1 X131.712 Y112.191 E0.01392
G1 X131.666 Y111.810 E0.01204
G1 X132.038 Y111.750 F10800.000
G1 F1200
G1 X132.081 Y111.400 E0.01105
G1 X132.206 Y111.071 E0.01105
G1 X132.406 Y110.781 E0.01105
G1 X132.670 Y110.547 E0.01105
G1 X132.982 Y110.383 E0.01105
G1 X133.324 Y110.299 E0.01105
G1 X133.676 Y110.299 E0.01105
G1 X134.019 Y110.384 E0.01107
G1 X134.338 Y110.554 E0.01135
G1 X134.594 Y110.781 E0.01071
G1 X134.794 Y111.071 E0.01105
G1 X134.919 Y111.400 E0.01105
G1 X134.962 Y111.750 E0.01105
G1 X134.919 Y112.100 E0.01105
G1 X134.794 Y112.429 E0.01105
G1 X134.594 Y112.719 E0.01105
G1 X134.330 Y112.953 E0.01105
G1 X134.018 Y113.117 E0.01105
G1 X133.676 Y113.201 E0.01105
G1 X133.324 Y113.201 E0.01105
G1 X132.981 Y113.116 E0.01107
G1 X132.662 Y112.946 E0.01135
G1 X132.406 Y112.719 E0.01071
G1 X132.206 Y112.429 E0.01105
G1 X132.081 Y112.100 E0.01105
G1 X132.046 Y111.810 E0.00917
G1 X131.733 Y111.574 F10800.000
G1 F8640
G1 X132.081 Y111.400 E-0.09486
G1 X132.206 Y111.071 E-0.08136
G1 X132.406 Y110.781 E-0.08136
G1 X132.670 Y110.547 E-0.08136
G1 X132.982 Y110.383 E-0.08136
G1 X133.324 Y110.299 E-0.08136
G1 X133.676 Y110.299 E-0.08136
G1 X134.019 Y110.384 E-0.08155
G1 X134.338 Y110.554 E-0.08361
G1 X134.377 Y110.588 E-0.01184
G1 E-0.04000 F2100.00000
G1 Z0.800 F10800.000
G1 X102.726 Y98.572
G1 Z0.200
G1 E0.80000 F2100.00000
G1 F1200
G1 X102.431 Y99.040 E0.01734
G1 X102.040 Y99.431 E0.01734
G1 X101.572 Y99.726 E0.01734
G1 X101.050 Y99.908 E0.01734
G1 X100.500 Y99.970 E0.01734
G1 X99.947 Y99.908 E0.01745
G1 X99.416 Y99.718 E0.01769
G1 X98.960 Y99.431 E0.01688
G1 X98.569 Y99.040 E0.01734
G1 X98.274 Y98.572 E0.01734
G1 X98.092 Y98.050 E0.01734
G1 X98.030 Y97.500 E0.01734
G1 X98.092 Y96.950 E0.01734
G1 X98.274 Y96.428 E0.01734
G1 X98.569 Y95.960 E0.01734
G1 X98.960 Y95.569 E0.01734
G1 X99.431 Y95.273 E0.01745
G1 X99.965 Y95.090 E0.01769
G1 X100.500 Y95.030 E0.01688
G1 X101.050 Y95.092 E0.01734
G1 X101.572 Y95.274 E0.01734
G1 X102.040 Y95.569 E0.01734
G1 X102.431 Y95.960 E0.01734
G1 X102.726 Y96.428 E0.01734
G1 X102.908 Y96.950 E0.01734
G1 X102.970 Y97.500 E0.01734
G1 X102.908 Y98.050 E0.01734
G1 X102.745 Y98.515 E0.01546
G1 X102.384 Y98.407 F10800.000
G1 F1200
G1 X102.135 Y98.804 E0.01468
G1 X101.804 Y99.135 E0.01468
G1 X101.407 Y99.384 E0.01468
G1 X100.965 Y99.538 E0.01468
G1 X100.500 Y99.591 E0.01468
G1 X100.033 Y99.538 E0.01475
G1 X99.582 Y99.377 E0.01502
G1 X99.196 Y99.135 E0.01426
G1 X98.865 Y98.804 E0.01468
G1 X98.616 Y98.407 E0.01468
G1 X98.462 Y97.965 E0.01468
G1 X98.409 Y97.500 E0.01468
G1 X98.462 Y97.035 E0.01468
G1 X98.616 Y96.593 E0.01468
G1 X98.865 Y96.196 E0.01468
G1 X99.196 Y95.865 E0.01468
G1 X99.595 Y95.615 E0.01475
G1 X100.048 Y95.460 E0.01502
G1 X100.500 Y95.409 E0.01426
G1 X100.965 Y95.462 E0.01468
G1 X101.407 Y95.616 E0.01468
G1 X101.804 Y95.865 E0.01468
G1 X102.135 Y96.196 E0.01468
G1 X102.384 Y96.593 E0.01468
G1 X102.538 Y97.035 E0.01468
G1 X102.591 Y97.500 E0.01468
G1 X102.538 Y97.965 E0.01468
G1 X102.404 Y98.351 E0.01280
G1 X102.042 Y98.243 F10800.000
G1 F1200
G1 X101.838 Y98.567 E0.01202
G1 X101.567 Y98.838 E0.01202
G1 X101.243 Y99.042 E0.01202
G1 X100.881 Y99.168 E0.01202
G1 X100.500 Y99.211 E0.01202
G1 X100.118 Y99.168 E0.01204
G1 X99.747 Y99.035 E0.01236
G1 X99.433 Y98.838 E0.01164
G1 X99.162 Y98.567 E0.01202
G1 X98.958 Y98.243 E0.01202
G1 X98.832 Y97.881 E0.01202
G1 X98.789 Y97.500 E0.01202
G1 X98.832 Y97.119 E0.01202
G1 X98.958 Y96.757 E0.01202
G1 X99.162 Y96.433 E0.01202
G1 X99.433 Y96.162 E0.01202
G1 X99.758 Y95.958 E0.01204
G1 X100.131 Y95.830 E0.01236
G1 X100.500 Y95.789 E0.01164
G1 X100.881 Y95.832 E0.01202
G1 X101.243 Y95.958 E0.01202
G1 X101.567 Y96.162 E0.01202
G1 X101.838 Y96.433 E0.01202
G1 X102.042 Y96.757 E0.01202
G1 X102.168 Y97.119 E0.01202
G1 X102.211 Y97.500 E0.01202
G1 X102.168 Y97.881 E0.01202
G1 X102.062 Y98.186 E0.01013
G1 X102.258 Y98.559 F10800.000
G1 F8640
G1 X101.838 Y98.567 E-0.10204
G1 X101.567 Y98.838 E-0.08849
G1 X101.243 Y99.042 E-0.08848
G1 X100.881 Y99.168 E-0.08849
G1 X100.500 Y99.211 E-0.08849
G1 X100.118 Y99.168 E-0.08866
G1 X99.747 Y99.035 E-0.09101
G1 X99.433 Y98.838 E-0.08572
G1 X99.315 Y98.720 E-0.03863
G1 E-0.04000 F2100.00000
G1 Z0.800 F10800.000
G1 X147.030 Y97.500
G1 Z0.200
G1 E0.80000 F2100.00000
G1 F1200
G1 X147.092 Y96.950 E0.01734
G1 X147.274 Y96.428 E0.01734
G1 X147.569 Y95.960 E0.01734
G1 X147.960 Y95.569 E0.01734
G1 X148.431 Y95.273 E0.01745
G1 X148.965 Y95.090 E0.01769
G1 X149.500 Y95.030 E0.01688
G1 X150.050 Y95.092 E0.01734
G1 X150.572 Y95.274 E0.01734
G1 X151.043 Y95.571 E0.01745
G1 X151.439 Y95.972 E0.01769
G1 X151.726 Y96.428 E0.01688
G1 X151.908 Y96.950 E0.01734
G1 X151.970 Y97.500 E0.01734
G1 X151.908 Y98.050 E0.01734
G1 X151.726 Y98.572 E0.01734
G1 X151.431 Y99.040 E0.01734
G1 X151.040 Y99.431 E0.01734
G1 X150.572 Y99.726 E0.01734
G1 X150.050 Y99.908 E0.01734
G1 X149.500 Y99.970 E0.01734
G1 X148.950 Y99.908 E0.01734
G1 X148.428 Y99.726 E0.01734
G1 X147.960 Y99.431 E0.01734
G1 X147.569 Y99.040 E0.01734
G1 X147.274 Y98.572 E0.01734
G1 X147.092 Y98.050 E0.01734
G1 X147.036 Y97.560 E0.01546
G1 X147.409 Y97.500 F10800.000
G1 F1200
G1 X147.462 Y97.035 E0.01468
G1 X147.616 Y96.593 E0.01468
G1 X147.865 Y96.196 E0.01468
G1 X148.196 Y95.865 E0.01468
G1 X148.595 Y95.615 E0.01475
G1 X149.048 Y95.460 E0.01502
G1 X149.500 Y95.409 E0.01426
G1 X149.965 Y95.462 E0.01468
G1 X150.407 Y95.616 E0.01468
G1 X150.805 Y95.866 E0.01475
G1 X151.142 Y96.208 E0.01502
G1 X151.384 Y96.593 E0.01426
G1 X151.538 Y97.035 E0.01468
G1 X151.591 Y97.500 E0.01468
G1 X151.538 Y97.965 E0.01468
G1 X151.384 Y98.407 E0.01468
G1 X151.135 Y98.804 E0.01468
G1 X150.804 Y99.135 E0.01468
G1 X150.407 Y99.384 E0.01468
G1 X149.965 Y99.538 E0.01468
G1 X149.500 Y99.591 E0.01468
G1 X149.035 Y99.538 E0.01468
G1 X148.593 Y99.384 E0.01468
G1 X148.196 Y99.135 E0.01468
G1 X147.865 Y98.804 E0.01468
G1 X147.616 Y98.407 E0.01468
G1 X147.462 Y97.965 E0.01468
G1 X147.416 Y97.560 E0.01280
G1 X147.789 Y97.500 F10800.000
G1 F1200
G1 X147.832 Y97.119 E0.01202
G1 X147.958 Y96.757 E0.01202
G1 X148.162 Y96.433 E0.01202
G1 X148.433 Y96.162 E0.01202
G1 X148.758 Y95.958 E0.01204
G1 X149.131 Y95.830 E0.01236
G1 X149.500 Y95.789 E0.01164
G1 X149.881 Y95.832 E0.01202
G1 X150.243 Y95.958 E0.01202
G1 X150.568 Y96.162 E0.01204
G1 X150.844 Y96.443 E0.01236
G1 X151.042 Y96.757 E0.01164
G1 X151.168 Y97.119 E0.01202
G1 X151.211 Y97.500 E0.01202
G1 X151.168 Y97.881 E0.01202
G1 X151.042 Y98.243 E0.01202
G1 X150.838 Y98.567 E0.01202
G1 X150.567 Y98.838 E0.01202
G1 X150.243 Y99.042 E0.01202
G1 X149.881 Y99.168 E0.01202
G1 X149.500 Y99.211 E0.01202
G1 X149.119 Y99.168 E0.01202
G1 X148.757 Y99.042 E0.01202
G1 X148.433 Y98.838 E0.01202
G1 X148.162 Y98.567 E0.01202
G1 X147.958 Y98.243 E0.01202
G1 X147.832 Y97.881 E0.01202
G1 X147.795 Y97.560 E0.01013
G1 X147.457 Y97.308 F10800.000
G1 F8640
G1 X147.832 Y97.119 E-0.10204
G1 X147.958 Y96.757 E-0.08849
G1 X148.162 Y96.433 E-0.08848
G1 X148.433 Y96.162 E-0.08849
G1 X148.758 Y95.958 E-0.08866
G1 X149.131 Y95.830 E-0.09101
G1 X149.500 Y95.789 E-0.08572
G1 X149.881 Y95.832 E-0.08849
G1 X150.039 Y95.887 E-0.03862
G1 E-0.04000 F2100.00000
G1 Z0.800 F10800.000
G1 X131.964 Y104.536
G1 Z0.200
G1 E0.80000 F2100.00000
G1 F1200
G1 X107.036 Y104.536 E0.78161
G1 X107.036 Y110.165 E0.17649
G1 X106.762 Y109.922 E0.01148
G1 X106.288 Y109.673 E0.01679
G1 X105.768 Y109.545 E0.01679
G1 X105.232 Y109.545 E0.01679
G1 X104.712 Y109.673 E0.01679
G1 X104.238 Y109.922 E0.01679
G1 X103.837 Y110.277 E0.01679
G1 X103.533 Y110.718 E0.01679
G1 X103.343 Y111.218 E0.01679
G1 X103.279 Y111.750 E0.01679
G1 X103.342 Y112.268 E0.01636
G1 X103.531 Y112.779 E0.01710
G1 X103.837 Y113.223 E0.01691
G1 X104.238 Y113.578 E0.01679
G1 X104.712 Y113.827 E0.01679
G1 X105.232 Y113.955 E0.01679
G1 X105.768 Y113.955 E0.01679
G1 X106.288 Y113.827 E0.01679
G1 X106.762 Y113.578 E0.01679
G1 X107.036 Y113.335 E0.01148
G1 X107.036 Y116.636 E0.10349
G1 X100.041 Y116.636 E0.21933
G1 X99.426 Y116.584 E0.01935
G1 X99.077 Y116.514 E0.01116
G1 X98.632 Y116.366 E0.01470
G1 X98.211 Y116.162 E0.01465
G1 X97.826 Y115.910 E0.01445
G1 X97.394 Y115.530 E0.01805
G1 X97.093 Y115.179 E0.01447
G1 X96.838 Y114.789 E0.01465
G1 X96.634 Y114.368 E0.01465
G1 X96.486 Y113.925 E0.01465
G1 X96.396 Y113.466 E0.01465
G1 X96.364 Y112.969 E0.01563
G1 X96.364 Y93.364 E0.61469
G1 X153.636 Y93.364 E1.79571
G1 X153.636 Y112.959 E0.61439
G1 X153.584 Y113.574 E0.01935
G1 X153.514 Y113.923 E0.01116
G1 X153.366 Y114.368 E0.01470
G1 X153.166 Y114.782 E0.01443
G1 X152.843 Y115.259 E0.01805
G1 X152.530 Y115.607 E0.01466
G1 X152.265 Y115.840 E0.01108
G1 X151.782 Y116.166 E0.01825
G1 X151.368 Y116.366 E0.01443
G1 X150.923 Y116.514 E0.01470
G1 X150.574 Y116.584 E0.01116
G1 X149.959 Y116.636 E0.01935
G1 X131.964 Y116.636 E0.56423
G1 X131.964 Y113.335 E0.10349
G1 X132.228 Y113.569 E0.01105
G1 X132.709 Y113.826 E0.01710
G1 X133.232 Y113.955 E0.01691
G1 X133.768 Y113.955 E0.01679
G1 X134.288 Y113.827 E0.01679
G1 X134.762 Y113.578 E0.01679
G1 X135.163 Y113.223 E0.01679
G1 X135.467 Y112.782 E0.01679
G1 X135.657 Y112.282 E0.01679
G1 X135.721 Y111.750 E0.01679
G1 X135.657 Y111.218 E0.01679
G1 X135.467 Y110.718 E0.01679
G1 X135.163 Y110.277 E0.01679
G1 X134.772 Y109.931 E0.01636
G1 X134.291 Y109.674 E0.01710
G1 X133.768 Y109.545 E0.01691
G1 X133.232 Y109.545 E0.01679
G1 X132.712 Y109.673 E0.01679
G1 X132.238 Y109.922 E0.01679
G1 X131.964 Y110.165 E0.01148
G1 X131.964 Y104.596 E0.17461
G1 X131.587 Y104.913 F10800.000
G1 F1200
G1 X107.413 Y104.913 E0.75796
G1 X107.413 Y117.013 E0.37939
G1 X100.025 Y117.013 E0.23165
G1 X99.373 Y116.958 E0.02051
G1 X98.980 Y116.880 E0.01257
G1 X98.490 Y116.716 E0.01620
G1 X98.025 Y116.491 E0.01617
G1 X97.597 Y116.211 E0.01605
G1 X97.125 Y115.795 E0.01972
G1 X96.791 Y115.406 E0.01606
G1 X96.509 Y114.975 E0.01617
G1 X96.284 Y114.510 E0.01617
G1 X96.121 Y114.021 E0.01617
G1 X96.022 Y113.515 E0.01618
G1 X95.987 Y112.981 E0.01677
G1 X95.987 Y92.987 E0.62690
G1 X154.013 Y92.987 E1.81936
G1 X154.013 Y112.975 E0.62672
G1 X153.958 Y113.627 E0.02051
G1 X153.880 Y114.020 E0.01257
G1 X153.716 Y114.510 E0.01620
G1 X153.493 Y114.971 E0.01604
G1 X153.141 Y115.492 E0.01972
G1 X152.796 Y115.875 E0.01618
G1 X152.495 Y116.139 E0.01252
G1 X151.971 Y116.493 E0.01984
G1 X151.510 Y116.716 E0.01604
G1 X151.020 Y116.880 E0.01620
G1 X150.627 Y116.958 E0.01257
G1 X149.975 Y117.013 E0.02051
G1 X131.587 Y117.013 E0.57655
G1 X131.587 Y104.973 E0.37751
G1 X131.210 Y105.290 F10800.000
G1 F1200
G1 X107.790 Y105.290 E0.73432
G1 X107.790 Y117.390 E0.37939
