; generated by PrusaSlicer 2.0.0+win64 on 2019-06-17 at 14:21:36

; 

; external perimeters extrusion width = 0.45mm
; perimeters extrusion width = 0.45mm
; infill extrusion width = 0.45mm
; solid infill extrusion width = 0.45mm
; top infill extrusion width = 0.40mm
; first layer extrusion width = 0.42mm

M73 P0 R16
M73 Q0 S16
M201 X1000 Y1000 Z1000 E5000 ; sets maximum accelerations, mm/sec^2
M203 X200 Y200 Z12 E120 ; sets maximum feedrates, mm/sec
M204 P1250 R1250 T1250 ; sets acceleration (P, T) and retract acceleration (R), mm/sec^2
M205 X8.00 Y8.00 Z0.40 E1.50 ; sets the jerk limits, mm/sec
M205 S0 T0 ; sets the minimum extruding and travel feed rate, mm/sec
M107
M115 U3.7.1 ; tell printer latest fw version
G90 ; use absolute coordinates
M83 ; extruder relative mode
M104 S240 ; set extruder temp
M140 S85 ; set bed temp
Tx
M190 S85 ; wait for bed temp
M109 S240 ; wait for extruder temp
G28 W ; home all without mesh bed level
G80 ; mesh bed leveling

G21 ; set units to millimeters

;go outside print area
G1 Y-3.0 F1000.0
G1 Z0.4 F1000.0
; select extruder
Tc
; purge line
G1 X55.0 F2000.0
G1 Z0.3 F1000.0
G92 E0.0
G1 X240.0 E25.0 F2200.0
M73 Q0 S16
M73 P0 R16
G1 Y-2.0 F1000.0
G1 X55.0 E25 F1400.0
G1 Z0.20 F1000.0
G1 X5.0 E4.0 F1000.0

M221 S95
G92 E0.0
M900 K45 ; Filament gcode
G21 ; set units to millimeters
G90 ; use absolute coordinates
M83 ; use relative distances for extrusion
;BEFORE_LAYER_CHANGE
G92 E0.0
;0.2


G1 E-0.80000 F2100.00000
G1 Z0.600 F10800.000
;AFTER_LAYER_CHANGE
;0.2
G1 X102.998 Y112.885
G1 Z0.200
G1 E0.80000 F2100.00000
M204 S1000
G1 F1200
G1 X102.812 Y112.027 E0.02754
G1 X102.812 Y97.985 E0.44026
G1 X102.887 Y97.429 E0.01760
G1 X103.100 Y96.914 E0.01749
G1 X103.447 Y96.458 E0.01794
G1 X115.463 Y84.442 E0.53282
G1 X115.838 Y84.146 E0.01498
G1 X116.268 Y83.938 E0.01498
G1 X116.988 Y83.811 E0.02293
G1 X140.004 Y83.811 E0.72164
G1 X141.591 Y83.993 E0.05009
G1 X142.548 Y84.278 E0.03133
G1 X143.452 Y84.697 E0.03121
G1 X144.755 Y85.609 E0.04989
G1 X145.462 Y86.331 E0.03167
G1 X146.358 Y87.646 E0.04989
G1 X146.760 Y88.561 E0.03133
G1 X147.123 Y90.042 E0.04784
G1 X147.189 Y90.996 E0.02996
G1 X147.188 Y119.055 E0.87977
G1 X147.135 Y119.877 E0.02582
G1 X146.974 Y120.741 E0.02756
G1 X146.715 Y121.566 E0.02710
G1 X146.327 Y122.411 E0.02916
G1 X145.371 Y123.777 E0.05229
G1 X144.765 Y124.383 E0.02687
G1 X144.072 Y124.924 E0.02756
G1 X143.338 Y125.367 E0.02687
G1 X142.546 Y125.722 E0.02722
G1 X141.717 Y125.980 E0.02722
G1 X140.853 Y126.138 E0.02756
G1 X116.978 Y126.188 E0.74857
G1 X116.426 Y126.112 E0.01749
G1 X115.914 Y125.900 E0.01737
G1 X115.458 Y125.553 E0.01794
G1 X103.447 Y113.542 E0.53259
G1 X103.032 Y112.935 E0.02308
G1 F8640
G1 X102.812 Y112.027 E-0.21574
G1 X102.812 Y109.670 E-0.54426
G1 E-0.04000 F2100.00000
G1 Z0.800 F10800.000
G1 X116.024 Y118.044
G1 Z0.200
G1 E0.80000 F2100.00000
G1 F1200
G1 X115.728 Y118.378 E0.01399
G1 X115.363 Y118.630 E0.01392
G1 X114.948 Y118.788 E0.01392
G1 X114.507 Y118.841 E0.01392
G1 X114.066 Y118.788 E0.01392
G1 X113.651 Y118.630 E0.01392
G1 X113.286 Y118.378 E0.01392
G1 X112.992 Y118.046 E0.01392
G1 X112.785 Y117.653 E0.01392
G1 X112.679 Y117.222 E0.01392
G1 X112.679 Y116.778 E0.01392
G1 X112.782 Y116.359 E0.01353
G1 X112.990 Y115.956 E0.01422
G1 X113.286 Y115.622 E0.01399
G1 X113.653 Y115.368 E0.01399
G1 X114.079 Y115.211 E0.01422
G1 X114.507 Y115.159 E0.01353
G1 X114.948 Y115.212 E0.01392
G1 X115.363 Y115.370 E0.01392
G1 X115.728 Y115.622 E0.01392
G1 X116.023 Y115.954 E0.01392
G1 X116.229 Y116.347 E0.01392
G1 X116.335 Y116.778 E0.01392
G1 X116.335 Y117.222 E0.01392
G1 X116.232 Y117.641 E0.01353
G1 X116.052 Y117.991 E0.01234
G1 X115.711 Y117.830 F10800.000
G1 F1200
G1 X115.476 Y118.094 E0.01107
G1 X115.186 Y118.294 E0.01105
G1 X114.857 Y118.419 E0.01105
G1 X114.507 Y118.462 E0.01105
G1 X114.157 Y118.419 E0.01105
G1 X113.828 Y118.294 E0.01105
G1 X113.538 Y118.094 E0.01105
G1 X113.304 Y117.830 E0.01105
G1 X113.141 Y117.518 E0.01105
G1 X113.056 Y117.176 E0.01105
G1 X113.056 Y116.824 E0.01105
G1 X113.138 Y116.492 E0.01071
G1 X113.304 Y116.170 E0.01135
G1 X113.538 Y115.906 E0.01107
G1 X113.829 Y115.705 E0.01107
G1 X114.168 Y115.580 E0.01135
G1 X114.507 Y115.538 E0.01071
G1 X114.857 Y115.581 E0.01105
G1 X115.186 Y115.706 E0.01105
G1 X115.476 Y115.906 E0.01105
G1 X115.710 Y116.170 E0.01105
G1 X115.874 Y116.482 E0.01105
G1 X115.958 Y116.824 E0.01105
G1 X115.958 Y117.176 E0.01105
G1 X115.876 Y117.508 E0.01071
G1 X115.738 Y117.776 E0.00947
G1 X115.862 Y118.149 F10800.000
G1 F8640
G1 X115.476 Y118.094 E-0.09503
G1 X115.186 Y118.294 E-0.08136
G1 X114.857 Y118.419 E-0.08136
G1 X114.507 Y118.462 E-0.08136
G1 X114.157 Y118.419 E-0.08136
G1 X113.828 Y118.294 E-0.08136
G1 X113.538 Y118.094 E-0.08136
G1 X113.304 Y117.830 E-0.08136
G1 X113.141 Y117.518 E-0.08135
G1 X113.126 Y117.459 E-0.01412
G1 E-0.04000 F2100.00000
G1 Z0.800 F10800.000
G1 X108.856 Y106.631
G1 Z0.200
G1 E0.80000 F2100.00000
G1 F1200
G1 X108.441 Y106.789 E0.01392
G1 X108.000 Y106.842 E0.01392
G1 X107.557 Y106.788 E0.01399
G1 X107.134 Y106.624 E0.01422
G1 X106.779 Y106.379 E0.01353
G1 X106.485 Y106.047 E0.01392
G1 X106.278 Y105.654 E0.01392
G1 X106.172 Y105.223 E0.01392
G1 X106.172 Y104.779 E0.01392
G1 X106.278 Y104.348 E0.01392
G1 X106.485 Y103.955 E0.01392
G1 X106.779 Y103.623 E0.01392
G1 X107.146 Y103.369 E0.01399
G1 X107.572 Y103.211 E0.01422
G1 X108.000 Y103.159 E0.01353
G1 X108.441 Y103.213 E0.01392
G1 X108.856 Y103.370 E0.01392
G1 X109.221 Y103.623 E0.01392
G1 X109.515 Y103.955 E0.01392
G1 X109.722 Y104.348 E0.01392
G1 X109.828 Y104.779 E0.01392
G1 X109.828 Y105.223 E0.01392
G1 X109.725 Y105.642 E0.01353
G1 X109.516 Y106.047 E0.01430
G1 X109.211 Y106.386 E0.01430
G1 X108.905 Y106.597 E0.01165
G1 X108.679 Y106.295 F10800.000
G1 F1200
G1 X108.350 Y106.420 E0.01105
G1 X108.000 Y106.462 E0.01105
G1 X107.649 Y106.420 E0.01107
G1 X107.312 Y106.289 E0.01135
G1 X107.031 Y106.095 E0.01071
G1 X106.797 Y105.831 E0.01105
G1 X106.633 Y105.519 E0.01105
G1 X106.549 Y105.177 E0.01105
G1 X106.549 Y104.825 E0.01105
G1 X106.633 Y104.483 E0.01105
G1 X106.797 Y104.171 E0.01105
G1 X107.031 Y103.907 E0.01105
G1 X107.321 Y103.706 E0.01107
G1 X107.661 Y103.580 E0.01135
G1 X108.000 Y103.539 E0.01071
G1 X108.350 Y103.582 E0.01105
G1 X108.679 Y103.707 E0.01105
G1 X108.969 Y103.907 E0.01105
G1 X109.203 Y104.171 E0.01105
G1 X109.367 Y104.483 E0.01105
G1 X109.451 Y104.825 E0.01105
G1 X109.451 Y105.177 E0.01105
G1 X109.369 Y105.509 E0.01071
G1 X109.203 Y105.831 E0.01138
G1 X108.960 Y106.101 E0.01138
G1 X108.729 Y106.261 E0.00883
G1 X108.665 Y106.647 F10800.000
G1 F8640
G1 X108.350 Y106.420 E-0.09487
G1 X108.000 Y106.462 E-0.08136
G1 X107.649 Y106.420 E-0.08155
G1 X107.312 Y106.289 E-0.08361
G1 X107.031 Y106.095 E-0.07885
G1 X106.797 Y105.831 E-0.08136
G1 X106.633 Y105.519 E-0.08136
G1 X106.549 Y105.177 E-0.08136
G1 X106.549 Y104.825 E-0.08136
G1 X106.564 Y104.764 E-0.01435
G1 E-0.04000 F2100.00000
G1 Z0.800 F10800.000
G1 X113.605 Y94.628
G1 Z0.200
G1 E0.80000 F2100.00000
G1 F1200
G1 X113.240 Y94.376 E0.01392
G1 X112.945 Y94.044 E0.01392
G1 X112.739 Y93.651 E0.01392
G1 X112.633 Y93.220 E0.01392
G1 X112.633 Y92.776 E0.01392
G1 X112.736 Y92.357 E0.01353
G1 X112.944 Y91.953 E0.01422
G1 X113.240 Y91.619 E0.01399
G1 X113.607 Y91.366 E0.01399
G1 X114.032 Y91.208 E0.01422
G1 X114.461 Y91.156 E0.01353
G1 X114.901 Y91.210 E0.01392
G1 X115.316 Y91.367 E0.01392
G1 X115.682 Y91.619 E0.01392
G1 X115.976 Y91.952 E0.01392
G1 X116.182 Y92.345 E0.01392
G1 X116.289 Y92.776 E0.01392
G1 X116.289 Y93.220 E0.01392
G1 X116.185 Y93.639 E0.01353
G1 X115.978 Y94.042 E0.01422
G1 X115.682 Y94.376 E0.01399
G1 X115.316 Y94.628 E0.01392
G1 X114.901 Y94.786 E0.01392
G1 X114.461 Y94.839 E0.01392
G1 X114.020 Y94.786 E0.01392
G1 X113.661 Y94.649 E0.01204
G1 X113.781 Y94.292 F10800.000
G1 F1200
G1 X113.491 Y94.092 E0.01105
G1 X113.258 Y93.828 E0.01105
G1 X113.094 Y93.516 E0.01105
G1 X113.010 Y93.174 E0.01105
G1 X113.010 Y92.822 E0.01105
G1 X113.091 Y92.490 E0.01071
G1 X113.257 Y92.168 E0.01135
G1 X113.491 Y91.904 E0.01107
G1 X113.782 Y91.703 E0.01107
G1 X114.122 Y91.577 E0.01135
G1 X114.461 Y91.536 E0.01071
G1 X114.810 Y91.579 E0.01105
G1 X115.140 Y91.704 E0.01105
G1 X115.430 Y91.904 E0.01105
G1 X115.663 Y92.167 E0.01105
G1 X115.827 Y92.479 E0.01105
G1 X115.911 Y92.822 E0.01105
G1 X115.911 Y93.174 E0.01105
G1 X115.830 Y93.505 E0.01071
G1 X115.664 Y93.827 E0.01135
G1 X115.430 Y94.092 E0.01107
G1 X115.140 Y94.292 E0.01105
G1 X114.810 Y94.417 E0.01105
G1 X114.461 Y94.459 E0.01105
G1 X114.111 Y94.417 E0.01105
G1 X113.837 Y94.313 E0.00917
G1 X113.484 Y94.480 F10800.000
G1 F8640
G1 X113.491 Y94.092 E-0.09487
G1 X113.258 Y93.828 E-0.08136
G1 X113.094 Y93.516 E-0.08135
G1 X113.010 Y93.174 E-0.08136
G1 X113.010 Y92.822 E-0.08136
G1 X113.091 Y92.490 E-0.07885
G1 X113.257 Y92.168 E-0.08361
G1 X113.491 Y91.904 E-0.08155
G1 X113.782 Y91.703 E-0.08155
G1 X113.840 Y91.682 E-0.01416
G1 E-0.04000 F2100.00000
G1 Z0.800 F10800.000
G1 X127.645 Y93.136
G1 Z0.200
G1 E0.80000 F2100.00000
G1 F1200
G1 X141.373 Y93.136 E0.43044
G1 X141.373 Y114.864 E0.68128
G1 X127.645 Y114.864 E0.43044
G1 X127.645 Y93.196 E0.67939
G1 X128.022 Y93.513 F10800.000
G1 F1200
G1 X140.996 Y93.513 E0.40680
G1 X140.996 Y114.487 E0.65763
G1 X128.022 Y114.487 E0.40680
G1 X128.022 Y93.573 E0.65575
G1 X128.399 Y93.890 F10800.000
G1 F1200
G1 X140.619 Y93.890 E0.38315
G1 X140.619 Y114.110 E0.63398
G1 X128.399 Y114.110 E0.38315
G1 X128.399 Y93.950 E0.63210
G1 X128.327 Y93.496 F10800.000
G1 F8640
G1 X131.690 Y93.934 E-0.76000
G1 E-0.04000 F2100.00000
G1 Z0.800 F10800.000
G1 X117.565 Y87.364
G1 Z0.200
G1 E0.80000 F2100.00000
G1 F1200
G1 X140.089 Y87.371 E0.70622
G1 X140.466 Y87.396 E0.01185
G1 X140.925 Y87.486 E0.01467
G1 X141.361 Y87.631 E0.01441
G1 X141.882 Y87.894 E0.01828
G1 X142.176 Y88.091 E0.01110
G1 X142.530 Y88.394 E0.01461
G1 X142.910 Y88.826 E0.01805
G1 X143.162 Y89.211 E0.01445
G1 X143.367 Y89.634 E0.01473
G1 X143.481 Y89.971 E0.01114
G1 X143.604 Y90.543 E0.01834
G1 X143.636 Y91.031 E0.01535
G1 X143.636 Y118.969 E0.87597
G1 X143.604 Y119.466 E0.01563
G1 X143.514 Y119.925 E0.01465
G1 X143.369 Y120.361 E0.01441
G1 X143.106 Y120.882 E0.01828
G1 X142.909 Y121.176 E0.01110
G1 X142.603 Y121.534 E0.01479
G1 X142.256 Y121.847 E0.01464
G1 X141.875 Y122.110 E0.01451
G1 X141.361 Y122.369 E0.01805
G1 X140.925 Y122.514 E0.01441
G1 X140.466 Y122.604 E0.01465
G1 X139.969 Y122.636 E0.01563
G1 X117.565 Y122.636 E0.70246
G1 X114.101 Y119.172 E0.15360
G1 X114.507 Y119.221 E0.01282
G1 X115.039 Y119.157 E0.01679
G1 X115.539 Y118.967 E0.01679
G1 X115.980 Y118.663 E0.01679
G1 X116.338 Y118.259 E0.01691
G1 X116.587 Y117.774 E0.01710
G1 X116.712 Y117.268 E0.01636
G1 X116.712 Y116.732 E0.01679
G1 X116.584 Y116.212 E0.01679
G1 X116.335 Y115.738 E0.01679
G1 X115.980 Y115.337 E0.01679
G1 X115.539 Y115.033 E0.01679
G1 X115.039 Y114.843 E0.01679
G1 X114.507 Y114.779 E0.01679
G1 X113.989 Y114.842 E0.01636
G1 X113.478 Y115.031 E0.01710
G1 X113.034 Y115.337 E0.01691
G1 X112.677 Y115.741 E0.01691
G1 X112.427 Y116.226 E0.01710
G1 X112.302 Y116.732 E0.01636
G1 X112.302 Y117.268 E0.01679
G1 X112.337 Y117.407 E0.00451
G1 X106.364 Y111.435 E0.26482
G1 X106.364 Y106.480 E0.15537
G1 X106.527 Y106.663 E0.00770
G1 X106.956 Y106.960 E0.01636
G1 X107.465 Y107.157 E0.01710
G1 X108.000 Y107.222 E0.01691
G1 X108.532 Y107.158 E0.01679
G1 X109.032 Y106.968 E0.01679
G1 X109.462 Y106.671 E0.01636
G1 X109.829 Y106.263 E0.01721
G1 X110.080 Y105.775 E0.01721
G1 X110.205 Y105.269 E0.01636
G1 X110.205 Y104.733 E0.01679
G1 X110.077 Y104.213 E0.01679
G1 X109.828 Y103.739 E0.01679
G1 X109.473 Y103.338 E0.01679
G1 X109.032 Y103.034 E0.01679
G1 X108.532 Y102.844 E0.01679
G1 X108.000 Y102.780 E0.01679
G1 X107.482 Y102.842 E0.01636
G1 X106.971 Y103.032 E0.01710
G1 X106.527 Y103.338 E0.01691
G1 X106.364 Y103.522 E0.00770
G1 X106.364 Y98.565 E0.15542
G1 X112.274 Y92.655 E0.26205
G1 X112.256 Y92.730 E0.00241
G1 X112.256 Y93.265 E0.01679
G1 X112.384 Y93.785 E0.01679
G1 X112.633 Y94.259 E0.01679
G1 X112.988 Y94.660 E0.01679
G1 X113.428 Y94.964 E0.01679
G1 X113.929 Y95.154 E0.01679
G1 X114.461 Y95.219 E0.01679
G1 X114.992 Y95.154 E0.01679
G1 X115.493 Y94.964 E0.01679
G1 X115.934 Y94.660 E0.01679
G1 X116.291 Y94.257 E0.01691
G1 X116.541 Y93.772 E0.01710
G1 X116.666 Y93.265 E0.01636
G1 X116.666 Y92.730 E0.01679
G1 X116.538 Y92.210 E0.01679
G1 X116.289 Y91.736 E0.01679
G1 X115.934 Y91.335 E0.01679
G1 X115.493 Y91.031 E0.01679
G1 X114.992 Y90.841 E0.01679
G1 X114.461 Y90.776 E0.01679
G1 X114.110 Y90.819 E0.01107
G1 X117.522 Y87.407 E0.15131
G1 X117.409 Y86.987 F10800.000
G1 F1200
G1 X140.101 Y86.994 E0.71151
G1 X140.515 Y87.021 E0.01299
G1 X141.021 Y87.121 E0.01619
G1 X141.506 Y87.282 E0.01603
G1 X142.072 Y87.567 E0.01986
G1 X142.404 Y87.790 E0.01253
G1 X142.795 Y88.125 E0.01615
G1 X143.211 Y88.597 E0.01972
G1 X143.491 Y89.025 E0.01605
G1 X143.717 Y89.491 E0.01622
G1 X143.846 Y89.870 E0.01256
G1 X143.979 Y90.491 E0.01990
G1 X144.013 Y91.019 E0.01660
G1 X144.013 Y118.981 E0.87673
G1 X143.978 Y119.515 E0.01677
G1 X143.879 Y120.021 E0.01618
G1 X143.718 Y120.506 E0.01603
G1 X143.433 Y121.072 E0.01986
G1 X143.210 Y121.404 E0.01253
G1 X142.873 Y121.798 E0.01626
G1 X142.490 Y122.143 E0.01617
G1 X142.068 Y122.435 E0.01608
G1 X141.506 Y122.718 E0.01972
G1 X141.021 Y122.879 E0.01603
G1 X140.515 Y122.978 E0.01618
G1 X139.981 Y123.013 E0.01677
G1 X117.409 Y123.013 E0.70774
G1 X105.987 Y111.591 E0.50646
G1 X105.987 Y98.409 E0.41332
G1 X117.366 Y87.030 E0.50458
G1 X117.253 Y86.610 F10800.000
G1 F1200
G1 X140.114 Y86.617 E0.71679
G1 X140.563 Y86.647 E0.01413
G1 X141.117 Y86.755 E0.01770
G1 X141.651 Y86.933 E0.01765
G1 X142.262 Y87.241 E0.02144
G1 X142.632 Y87.489 E0.01397
G1 X143.061 Y87.856 E0.01769
G1 X143.512 Y88.368 E0.02139
G1 X143.820 Y88.839 E0.01766
G1 X144.066 Y89.348 E0.01772
G1 X144.210 Y89.770 E0.01398
G1 X144.353 Y90.439 E0.02145
G1 X144.390 Y91.007 E0.01785
G1 X144.390 Y118.993 E0.87750
G1 X144.353 Y119.563 E0.01791
G1 X144.245 Y120.117 E0.01770
G1 X144.067 Y120.651 E0.01765
G1 X143.759 Y121.262 E0.02144
G1 X143.511 Y121.632 E0.01397
G1 X143.143 Y122.062 E0.01773
G1 X142.724 Y122.439 E0.01770
G1 X142.261 Y122.760 E0.01766
G1 X141.651 Y123.067 E0.02139
G1 X141.117 Y123.245 E0.01765
G1 X140.563 Y123.353 E0.01770
G1 X139.993 Y123.390 E0.01791
G1 X117.253 Y123.390 E0.71301
G1 X105.610 Y111.747 E0.51626
G1 X105.610 Y98.253 E0.42312
G1 X117.210 Y86.652 E0.51437
G1 X117.567 Y86.858 F10800.000
G1 F8640
G1 X120.502 Y86.647 E-0.76000
G1 E-0.04000 F2100.00000
G1 Z0.800 F10800.000
G1 X114.677 Y90.412
G1 Z0.200
G1 E0.80000 F2100.00000
G1 F1200
G1 X114.991 Y90.727 E0.01402
G1 F8640
G1 X114.677 Y90.412 E-0.10273
G1 E-0.69727 F2100.00000
G1 Z0.800 F10800.000
G1 X112.674 Y92.019
G1 Z0.200
G1 E0.80000 F2100.00000
G1 F1200
G1 X112.354 Y92.484 E0.00434
G1 F8640
G1 X112.674 Y92.019 E-0.13033
G1 E-0.66967 F2100.00000
G1 Z0.800 F10800.000
G1 X112.367 Y93.996
G1 Z0.200
G1 E0.80000 F2100.00000
G1 F1200
G1 X111.850 Y93.479 E0.02302
G1 X111.582 Y93.747 E0.01194
G1 X127.362 Y109.527 E0.70305
G1 X127.362 Y108.991 E0.01688
G1 X113.765 Y95.395 E0.60578
M73 Q6 S15
M73 P6 R15
G1 X113.861 Y95.431 E0.00322
G1 X114.403 Y95.497 E0.01721
G1 X127.362 Y108.456 E0.57735
G1 X127.362 Y107.920 E0.01688
G1 X114.893 Y95.451 E0.55551
G1 X115.060 Y95.431 E0.00530
G1 X115.313 Y95.335 E0.00851
G1 X127.362 Y107.384 E0.53681
G1 X127.362 Y106.848 E0.01688
G1 X115.688 Y95.174 E0.52013
G1 X116.005 Y94.955 E0.01213
G1 X127.362 Y106.312 E0.50601
G1 X127.362 Y105.776 E0.01688
G1 X116.281 Y94.695 E0.49371
G1 X116.531 Y94.409 E0.01196
G1 X127.362 Y105.241 E0.48257
G1 X127.362 Y104.705 E0.01688
G1 X116.713 Y94.056 E0.47445
G1 X116.807 Y93.872 E0.00652
G1 X116.858 Y93.665 E0.00670
G1 X127.362 Y104.169 E0.46797
G1 X127.362 Y103.633 E0.01688
G1 X116.948 Y93.220 E0.46395
G1 X116.945 Y92.680 E0.01700
G1 X127.362 Y103.097 E0.46412
G1 X127.362 Y102.562 E0.01688
G1 X115.065 Y90.264 E0.54788
G1 X115.333 Y89.997 E0.01194
G1 X127.362 Y102.026 E0.53594
G1 X127.362 Y101.490 E0.01688
G1 X115.601 Y89.729 E0.52400
G1 X115.868 Y89.461 E0.01194
