; generated by PrusaSlicer 2.0.0+win64 on 2019-06-30 at 15:04:43

; 

; external perimeters extrusion width = 0.45mm
; perimeters extrusion width = 0.45mm
; infill extrusion width = 0.45mm
; solid infill extrusion width = 0.45mm
; top infill extrusion width = 0.40mm
; first layer extrusion width = 0.42mm

M73 P0 R29
M73 Q0 S29
M201 X1000 Y1000 Z1000 E5000 ; sets maximum accelerations, mm/sec^2
M203 X200 Y200 Z12 E120 ; sets maximum feedrates, mm/sec
M204 P1250 R1250 T1250 ; sets acceleration (P, T) and retract acceleration (R), mm/sec^2
M205 X8.00 Y8.00 Z0.40 E1.50 ; sets the jerk limits, mm/sec
M205 S0 T0 ; sets the minimum extruding and travel feed rate, mm/sec
M107
M115 U3.7.1 ; tell printer latest fw version
G90 ; use absolute coordinates
M83 ; extruder relative mode
M104 S240 ; set extruder temp
M140 S85 ; set bed temp
Tx
M190 S85 ; wait for bed temp
M109 S240 ; wait for extruder temp
G28 W ; home all without mesh bed level
G80 ; mesh bed leveling

G21 ; set units to millimeters

;go outside print area
G1 Y-3.0 F1000.0
G1 Z0.4 F1000.0
; select extruder
Tc
; purge line
G1 X55.0 F2000.0
G1 Z0.3 F1000.0
G92 E0.0
G1 X240.0 E25.0 F2200.0
M73 Q0 S29
M73 P0 R29
G1 Y-2.0 F1000.0
G1 X55.0 E25 F1400.0
G1 Z0.20 F1000.0
G1 X5.0 E4.0 F1000.0

M221 S95
G92 E0.0
M900 K45 ; Filament gcode
G21 ; set units to millimeters
G90 ; use absolute coordinates
M83 ; use relative distances for extrusion
;BEFORE_LAYER_CHANGE
G92 E0.0
;0.2


G1 E-0.80000 F2100.00000
G1 Z0.600 F10800.000
;AFTER_LAYER_CHANGE
;0.2
G1 X111.495 Y84.623
G1 Z0.200
G1 E0.80000 F2100.00000
M204 S1000
G1 F1200
G1 X111.807 Y84.113 E0.01873
G1 X112.242 Y83.709 E0.01862
G1 X112.774 Y83.436 E0.01873
G1 X113.359 Y83.316 E0.01873
G1 X131.504 Y83.311 E0.56891
G1 X132.398 Y83.364 E0.02807
G1 X133.273 Y83.515 E0.02787
G1 X134.918 Y84.075 E0.05447
G1 X135.352 Y84.384 E0.01669
G1 X135.696 Y84.785 E0.01658
G1 X135.934 Y85.257 E0.01658
G1 X136.053 Y85.772 E0.01658
G1 X136.064 Y124.011 E1.19895
G1 X135.881 Y124.877 E0.02777
G1 X135.460 Y125.510 E0.02383
G1 X134.845 Y125.962 E0.02394
G1 X133.361 Y126.463 E0.04909
G1 X132.298 Y126.645 E0.03381
G1 X113.485 Y126.688 E0.58987
G1 X112.623 Y126.505 E0.02766
G1 X112.096 Y126.179 E0.01942
G1 X111.684 Y125.722 E0.01930
G1 X111.416 Y125.168 E0.01930
G1 X111.312 Y124.561 E0.01930
G1 X111.311 Y85.489 E1.22506
G1 X111.483 Y84.681 E0.02589
G1 F8640
G1 X111.807 Y84.113 E-0.15110
G1 X112.242 Y83.709 E-0.13713
G1 X112.774 Y83.436 E-0.13797
G1 X113.359 Y83.316 E-0.13797
G1 X114.207 Y83.316 E-0.19583
G1 E-0.04000 F2100.00000
G1 Z0.800 F10800.000
G1 X131.574 Y123.130
G1 Z0.200
G1 E0.80000 F2100.00000
G1 F1200
G1 X114.864 Y123.136 E0.52393
G1 X114.864 Y86.864 E1.13727
G1 X131.574 Y86.870 E0.52393
G1 X131.574 Y87.130 E0.00816
G1 X131.500 Y87.134 E0.00233
G1 X130.939 Y87.103 E0.01761
G1 X130.542 Y87.036 E0.01262
G1 X115.136 Y87.036 E0.48306
G1 X115.136 Y122.964 E1.12651
G1 X130.542 Y122.964 E0.48306
G1 X130.939 Y122.897 E0.01262
G1 X131.500 Y122.866 E0.01761
G1 X131.574 Y122.870 E0.00233
G1 X131.574 Y123.070 E0.00628
G1 F8640
G1 X128.283 Y123.083 E-0.76000
G1 E-0.04000 F2100.00000
G1 Z0.800 F10800.000
G1 X115.513 Y87.413
G1 Z0.200
G1 E0.80000 F2100.00000
G1 F1200
G1 X115.513 Y122.587 E1.10286
G1 X130.511 Y122.587 E0.47025
G1 X130.897 Y122.522 E0.01229
G1 X131.500 Y122.488 E0.01893
G1 X131.951 Y122.514 E0.01417
G1 X131.951 Y123.486 E0.03051
G1 X131.483 Y123.513 E0.01469
G1 X114.487 Y123.513 E0.53291
G1 X114.487 Y86.487 E1.16092
G1 X131.484 Y86.487 E0.53291
G1 X131.951 Y86.513 E0.01469
G1 X131.951 Y87.486 E0.03051
G1 X131.500 Y87.512 E0.01417
G1 X130.897 Y87.478 E0.01893
G1 X130.511 Y87.413 E0.01229
G1 X115.573 Y87.413 E0.46836
G1 X115.890 Y87.790 F10800.000
G1 F1200
G1 X115.890 Y122.210 E1.07921
G1 X130.479 Y122.210 E0.45744
G1 X130.855 Y122.147 E0.01195
G1 X131.500 Y122.110 E0.02025
G1 X132.145 Y122.147 E0.02025
G1 X132.328 Y122.178 E0.00583
G1 X132.328 Y123.822 E0.05157
G1 X132.145 Y123.853 E0.00583
G1 X131.494 Y123.890 E0.02044
G1 X114.110 Y123.890 E0.54507
G1 X114.110 Y86.110 E1.18457
G1 X131.494 Y86.110 E0.54507
G1 X132.120 Y86.145 E0.01967
G1 X132.328 Y86.179 E0.00660
G1 X132.328 Y87.822 E0.05153
G1 X132.145 Y87.853 E0.00583
G1 X131.500 Y87.890 E0.02025
G1 X130.855 Y87.853 E0.02025
G1 X130.479 Y87.790 E0.01195
G1 X115.950 Y87.790 E0.45555
G1 X115.490 Y87.789 F10800.000
;BEFORE_LAYER_CHANGE
G92 E0.0
;0.4


G1 F8640
G1 X115.944 Y91.081 E-0.76000
G1 E-0.04000 F2100.00000
G1 Z0.800 F10800.000
;AFTER_LAYER_CHANGE
;0.4
M104 S250 ; set temperature
M140 S90 ; set bed temperature
G1 X111.495 Y84.623
G1 Z0.400
G1 E0.80000 F2100.00000
G1 F2152
G1 X111.807 Y84.113 E0.01873
G1 X112.242 Y83.709 E0.01862
G1 X112.774 Y83.436 E0.01873
G1 X113.359 Y83.316 E0.01873
G1 X131.504 Y83.311 E0.56891
G1 X132.398 Y83.364 E0.02807
G1 X133.273 Y83.515 E0.02787
G1 X134.918 Y84.075 E0.05447
G1 X135.352 Y84.384 E0.01669
G1 X135.696 Y84.785 E0.01658
G1 X135.934 Y85.257 E0.01658
G1 X136.053 Y85.772 E0.01658
G1 X136.064 Y124.011 E1.19895
G1 X135.881 Y124.877 E0.02777
G1 X135.460 Y125.510 E0.02383
G1 X134.845 Y125.962 E0.02394
G1 X133.361 Y126.463 E0.04909
G1 X132.298 Y126.645 E0.03381
G1 X113.485 Y126.688 E0.58987
G1 X112.623 Y126.505 E0.02766
G1 X112.096 Y126.179 E0.01942
G1 X111.684 Y125.722 E0.01930
G1 X111.416 Y125.168 E0.01930
G1 X111.312 Y124.561 E0.01930
G1 X111.311 Y85.489 E1.22506
G1 X111.483 Y84.681 E0.02589
G1 F8640
G1 X111.807 Y84.113 E-0.15110
G1 X112.242 Y83.709 E-0.13713
G1 X112.774 Y83.436 E-0.13797
G1 X113.359 Y83.316 E-0.13797
G1 X114.207 Y83.316 E-0.19583
G1 E-0.04000 F2100.00000
G1 Z1.000 F10800.000
G1 X132.315 Y123.181
G1 Z0.400
G1 E0.80000 F2100.00000
M204 S800
G1 F2152
G1 X132.039 Y123.228 E0.00947
G1 X131.470 Y123.261 E0.01930
G1 X114.739 Y123.261 E0.56632
G1 X114.739 Y86.739 E1.23622
G1 X131.471 Y86.739 E0.56635
G1 X131.942 Y86.766 E0.01596
G1 X132.315 Y86.824 E0.01279
G1 X132.315 Y87.181 E0.01209
G1 X132.039 Y87.228 E0.00947
G1 X131.500 Y87.259 E0.01829
G1 X130.961 Y87.228 E0.01829
G1 X130.409 Y87.134 E0.01893
G1 X129.788 Y86.961 E0.02184
G1 X115.261 Y86.961 E0.49172
G1 X115.261 Y123.039 E1.22121
G1 X129.788 Y123.039 E0.49172
G1 X130.409 Y122.866 E0.02184
G1 X130.961 Y122.772 E0.01893
G1 X131.500 Y122.741 E0.01829
G1 X132.039 Y122.772 E0.01829
G1 X132.315 Y122.819 E0.00947
G1 X132.315 Y123.121 E0.01022
M204 S1000
G1 F8640
G1 X132.039 Y123.228 E-0.06831
G1 X131.470 Y123.261 E-0.13166
G1 X129.045 Y123.261 E-0.56003
G1 E-0.04000 F2100.00000
G1 Z1.000 F10800.000
G1 X115.668 Y87.368
G1 Z0.400
G1 E0.80000 F2100.00000
M204 S800
G1 F2152
G1 X115.668 Y122.632 E1.19365
G1 X129.732 Y122.632 E0.47605
G1 X130.320 Y122.468 E0.02066
G1 X130.915 Y122.367 E0.02041
G1 X131.500 Y122.333 E0.01985
G1 X132.085 Y122.367 E0.01985
G1 X132.722 Y122.480 E0.02189
G1 X132.722 Y123.520 E0.03519
G1 X132.085 Y123.633 E0.02189
G1 X131.482 Y123.668 E0.02047
G1 X114.332 Y123.668 E0.58050
G1 X114.332 Y86.332 E1.26377
G1 X131.482 Y86.332 E0.58051
G1 X131.985 Y86.360 E0.01703
G1 X132.722 Y86.480 E0.02529
G1 X132.722 Y87.520 E0.03519
G1 X132.085 Y87.633 E0.02189
G1 X131.500 Y87.667 E0.01985
G1 X130.915 Y87.633 E0.01985
G1 X130.320 Y87.532 E0.02041
G1 X129.732 Y87.368 E0.02066
G1 X115.728 Y87.368 E0.47402
M204 S1000
G1 X116.075 Y87.775 F10800.000
M204 S800
G1 F1500
G1 X116.075 Y122.225 E1.16609
G1 X129.676 Y122.225 E0.46039
G1 X130.231 Y122.071 E0.01949
G1 X130.868 Y121.962 E0.02189
G1 X131.500 Y121.925 E0.02141
G1 X132.132 Y121.962 E0.02141
G1 X132.769 Y122.071 E0.02189
G1 X133.129 Y122.171 E0.01266
G1 X133.129 Y123.829 E0.05613
G1 X132.769 Y123.929 E0.01266
G1 X132.132 Y124.038 E0.02189
G1 X131.494 Y124.075 E0.02163
G1 X113.925 Y124.075 E0.59467
G1 X113.925 Y85.925 E1.29133
M73 Q3 S28
M73 P3 R28
G1 X131.494 Y85.925 E0.59468
G1 X132.028 Y85.955 E0.01810
G1 X132.770 Y86.071 E0.02545
G1 X133.129 Y86.171 E0.01261
G1 X133.129 Y87.829 E0.05613
G1 X132.769 Y87.929 E0.01266
G1 X132.132 Y88.038 E0.02189
G1 X131.500 Y88.075 E0.02141
G1 X130.868 Y88.038 E0.02141
G1 X130.231 Y87.929 E0.02189
G1 X129.676 Y87.775 E0.01949
G1 X116.135 Y87.775 E0.45836
M204 S1000
G1 X115.675 Y87.774 F10800.000
G1 F8640
G1 X116.129 Y91.066 E-0.76000
G1 E-0.04000 F2100.00000
G1 Z1.000 F10800.000
G1 X115.000 Y86.943
G1 Z0.400
G1 E0.80000 F2100.00000
G1 F2152
G1 X115.000 Y123.057 E0.34416
G1 F8640
G1 X115.000 Y119.766 E-0.76000
G1 E-0.04000 F2100.00000
G1 Z1.000 F10800.000
G1 X130.790 Y123.033
G1 Z0.400
G1 E0.80000 F2100.00000
G1 F2152
G1 X131.500 Y123.000 E0.00485
G1 X132.016 Y123.000 E0.00353
G1 F8640
G1 X131.500 Y123.000 E-0.11921
G1 X130.790 Y123.033 E-0.16402
G1 E-0.51677 F2100.00000
G1 Z1.000 F10800.000
G1 X131.986 Y87.003
G1 Z0.400
G1 E0.80000 F2100.00000
G1 F2152
G1 X130.790 Y86.967 E0.00627
;BEFORE_LAYER_CHANGE
G92 E0.0
;0.6


G1 F8640
G1 X131.986 Y87.003 E-0.27630
G1 E-0.52370 F2100.00000
G1 Z1.000 F10800.000
;AFTER_LAYER_CHANGE
;0.6
G1 X134.918 Y84.075
G1 Z0.600
G1 E0.80000 F2100.00000
G1 F2362
G1 X135.352 Y84.384 E0.01669
G1 X135.696 Y84.785 E0.01658
G1 X135.934 Y85.257 E0.01658
G1 X136.053 Y85.772 E0.01658
G1 X136.064 Y124.011 E1.19895
G1 X135.881 Y124.877 E0.02777
G1 X135.460 Y125.510 E0.02383
G1 X134.845 Y125.962 E0.02394
G1 X133.361 Y126.463 E0.04909
G1 X132.298 Y126.645 E0.03381
G1 X113.485 Y126.688 E0.58987
G1 X112.623 Y126.505 E0.02766
G1 X112.096 Y126.179 E0.01942
G1 X111.684 Y125.722 E0.01930
G1 X111.416 Y125.168 E0.01930
G1 X111.312 Y124.561 E0.01930
G1 X111.311 Y85.489 E1.22506
G1 X111.495 Y84.623 E0.02777
G1 X111.807 Y84.113 E0.01873
G1 X112.242 Y83.709 E0.01862
G1 X112.774 Y83.436 E0.01873
G1 X113.359 Y83.316 E0.01873
G1 X131.504 Y83.311 E0.56891
G1 X132.398 Y83.364 E0.02807
G1 X133.273 Y83.515 E0.02787
G1 X134.861 Y84.056 E0.05259
G1 F8640
G1 X135.352 Y84.384 E-0.13624
G1 X135.696 Y84.785 E-0.12207
G1 X135.934 Y85.257 E-0.12207
G1 X136.053 Y85.772 E-0.12207
G1 X136.053 Y86.887 E-0.25756
G1 E-0.04000 F2100.00000
G1 Z1.200 F10800.000
G1 X132.837 Y123.257
G1 Z0.600
G1 E0.80000 F2100.00000
M204 S800
G1 F2362
G1 X132.564 Y123.334 E0.00959
G1 X132.026 Y123.428 E0.01850
G1 X131.469 Y123.461 E0.01886
G1 X114.539 Y123.461 E0.57307
G1 X114.539 Y86.539 E1.24976
G1 X131.471 Y86.539 E0.57312
G1 X132.022 Y86.571 E0.01870
G1 X132.564 Y86.666 E0.01861
G1 X132.837 Y86.743 E0.00959
G1 X132.837 Y87.257 E0.01741
G1 X132.564 Y87.334 E0.00959
G1 X132.026 Y87.428 E0.01850
G1 X131.500 Y87.459 E0.01783
G1 X130.974 Y87.428 E0.01783
G1 X130.436 Y87.334 E0.01850
G1 X129.875 Y87.176 E0.01971
G1 X129.317 Y86.961 E0.02024
G1 X115.461 Y86.961 E0.46902
G1 X115.461 Y123.039 E1.22121
G1 X129.317 Y123.039 E0.46902
G1 X129.875 Y122.824 E0.02024
G1 X130.436 Y122.666 E0.01971
G1 X130.974 Y122.572 E0.01850
G1 X131.500 Y122.541 E0.01783
G1 X132.026 Y122.572 E0.01783
G1 X132.564 Y122.666 E0.01850
G1 X132.837 Y122.743 E0.00959
G1 X132.837 Y123.197 E0.01538
M204 S1000
G1 F8640
G1 X132.564 Y123.334 E-0.07044
G1 X132.026 Y123.428 E-0.12621
G1 X131.469 Y123.461 E-0.12867
G1 X129.587 Y123.461 E-0.43468
G1 E-0.04000 F2100.00000
G1 Z1.200 F10800.000
G1 X115.868 Y87.368
G1 Z0.600
G1 E0.80000 F2100.00000
M204 S800
G1 F2362
G1 X115.868 Y122.632 E1.19365
G1 X129.242 Y122.632 E0.45268
G1 X129.747 Y122.438 E0.01832
G1 X130.345 Y122.268 E0.02106
G1 X130.927 Y122.167 E0.02000
G1 X131.500 Y122.133 E0.01942
G1 X132.073 Y122.167 E0.01942
G1 X132.655 Y122.268 E0.02000
G1 X133.244 Y122.435 E0.02072
G1 X133.244 Y123.565 E0.03826
G1 X132.655 Y123.732 E0.02072
G1 X132.073 Y123.833 E0.02000
G1 X131.481 Y123.868 E0.02005
G1 X114.132 Y123.868 E0.58726
G1 X114.132 Y86.132 E1.27731
G1 X131.482 Y86.132 E0.58728
G1 X132.071 Y86.166 E0.01995
G1 X132.655 Y86.268 E0.02007
G1 X133.244 Y86.435 E0.02072
G1 X133.244 Y87.565 E0.03826
G1 X132.655 Y87.732 E0.02072
G1 X132.073 Y87.833 E0.02000
G1 X131.500 Y87.867 E0.01942
G1 X130.927 Y87.833 E0.01942
G1 X130.345 Y87.732 E0.02000
G1 X129.747 Y87.562 E0.02106
G1 X129.242 Y87.368 E0.01832
G1 X115.928 Y87.368 E0.45065
M204 S1000
G1 X116.275 Y87.775 F10800.000
M204 S800
G1 F1500
G1 X116.275 Y122.225 E1.16609
G1 X129.166 Y122.225 E0.43634
G1 X129.618 Y122.051 E0.01639
G1 X130.255 Y121.871 E0.02240
G1 X130.880 Y121.762 E0.02149
G1 X131.500 Y121.725 E0.02102
G1 X132.120 Y121.762 E0.02102
G1 X132.745 Y121.871 E0.02149
G1 X133.382 Y122.051 E0.02240
G1 X133.651 Y122.154 E0.00974
G1 X133.651 Y123.846 E0.05724
G1 X133.382 Y123.949 E0.00974
G1 X132.745 Y124.129 E0.02240
G1 X132.120 Y124.238 E0.02149
G1 X131.493 Y124.275 E0.02124
G1 X113.725 Y124.275 E0.60144
G1 X113.725 Y85.725 E1.30487
G1 X131.494 Y85.725 E0.60145
G1 X132.119 Y85.762 E0.02121
G1 X132.745 Y85.871 E0.02152
G1 X133.382 Y86.051 E0.02240
G1 X133.651 Y86.154 E0.00974
G1 X133.651 Y87.846 E0.05724
G1 X133.382 Y87.949 E0.00974
G1 X132.745 Y88.129 E0.02240
G1 X132.120 Y88.238 E0.02149
G1 X131.500 Y88.275 E0.02102
G1 X130.880 Y88.238 E0.02102
G1 X130.255 Y88.129 E0.02149
G1 X129.618 Y87.949 E0.02240
G1 X129.166 Y87.775 E0.01639
G1 X116.335 Y87.775 E0.43431
M204 S1000
G1 X115.875 Y87.773 F10800.000
G1 F8640
G1 X116.329 Y91.066 E-0.76000
G1 E-0.04000 F2100.00000
G1 Z1.200 F10800.000
G1 X115.339 Y87.485
G1 Z0.600
G1 E0.80000 F2100.00000
M204 S1250
G1 F2362
G1 X114.844 Y86.990 E0.02367
G1 X114.844 Y87.566 E0.01950
G1 X115.156 Y87.877 E0.01490
G1 X115.156 Y88.453 E0.01950
G1 X114.844 Y88.142 E0.01490
G1 X114.844 Y88.718 E0.01950
G1 X115.156 Y89.029 E0.01490
G1 X115.156 Y89.605 E0.01950
G1 X114.844 Y89.294 E0.01490
G1 X114.844 Y89.870 E0.01950
G1 X115.156 Y90.181 E0.01490
G1 X115.156 Y90.757 E0.01950
G1 X114.844 Y90.446 E0.01490
G1 X114.844 Y91.022 E0.01950
G1 X115.156 Y91.333 E0.01490
G1 X115.156 Y91.909 E0.01950
G1 X114.844 Y91.598 E0.01490
G1 X114.844 Y92.174 E0.01950
G1 X115.156 Y92.485 E0.01490
G1 X115.156 Y93.061 E0.01950
G1 X114.844 Y92.750 E0.01490
G1 X114.844 Y93.326 E0.01950
G1 X115.156 Y93.637 E0.01490
G1 X115.156 Y94.213 E0.01950
G1 X114.844 Y93.902 E0.01490
G1 X114.844 Y94.478 E0.01950
G1 X115.156 Y94.789 E0.01490
G1 X115.156 Y95.365 E0.01950
G1 X114.844 Y95.053 E0.01490
G1 X114.844 Y95.629 E0.01950
G1 X115.156 Y95.941 E0.01490
G1 X115.156 Y96.516 E0.01950
G1 X114.844 Y96.205 E0.01490
G1 X114.844 Y96.781 E0.01950
G1 X115.156 Y97.092 E0.01490
G1 X115.156 Y97.668 E0.01950
G1 X114.844 Y97.357 E0.01490
G1 X114.844 Y97.933 E0.01950
G1 X115.156 Y98.244 E0.01490
G1 X115.156 Y98.820 E0.01950
G1 X114.844 Y98.509 E0.01490
G1 X114.844 Y99.085 E0.01950
G1 X115.156 Y99.396 E0.01490
G1 X115.156 Y99.972 E0.01950
G1 X114.844 Y99.661 E0.01490
G1 X114.844 Y100.237 E0.01950
G1 X115.156 Y100.548 E0.01490
G1 X115.156 Y101.124 E0.01950
G1 X114.844 Y100.813 E0.01490
G1 X114.844 Y101.389 E0.01950
G1 X115.156 Y101.700 E0.01490
G1 X115.156 Y102.276 E0.01950
G1 X114.844 Y101.965 E0.01490
G1 X114.844 Y102.541 E0.01950
G1 X115.156 Y102.852 E0.01490
G1 X115.156 Y103.428 E0.01950
G1 X114.844 Y103.117 E0.01490
G1 X114.844 Y103.693 E0.01950
G1 X115.156 Y104.004 E0.01490
G1 X115.156 Y104.580 E0.01950
G1 X114.844 Y104.269 E0.01490
G1 X114.844 Y104.844 E0.01950
G1 X115.156 Y105.156 E0.01490
G1 X115.156 Y105.732 E0.01950
G1 X114.844 Y105.420 E0.01490
G1 X114.844 Y105.996 E0.01950
G1 X115.156 Y106.307 E0.01490
G1 X115.156 Y106.883 E0.01950
G1 X114.844 Y106.572 E0.01490
G1 X114.844 Y107.148 E0.01950
G1 X115.156 Y107.459 E0.01490
G1 X115.156 Y108.035 E0.01950
G1 X114.844 Y107.724 E0.01490
G1 X114.844 Y108.300 E0.01950
G1 X115.156 Y108.611 E0.01490
G1 X115.156 Y109.187 E0.01950
G1 X114.844 Y108.876 E0.01490
G1 X114.844 Y109.452 E0.01950
G1 X115.156 Y109.763 E0.01490
G1 X115.156 Y110.339 E0.01950
G1 X114.844 Y110.028 E0.01490
G1 X114.844 Y110.604 E0.01950
G1 X115.156 Y110.915 E0.01490
G1 X115.156 Y111.491 E0.01950
G1 X114.844 Y111.180 E0.01490
G1 X114.844 Y111.756 E0.01950
G1 X115.156 Y112.067 E0.01490
G1 X115.156 Y112.643 E0.01950
G1 X114.844 Y112.332 E0.01490
G1 X114.844 Y112.908 E0.01950
G1 X115.156 Y113.219 E0.01490
G1 X115.156 Y113.795 E0.01950
G1 X114.844 Y113.484 E0.01490
G1 X114.844 Y114.060 E0.01950
G1 X115.156 Y114.371 E0.01490
G1 X115.156 Y114.947 E0.01950
G1 X114.844 Y114.636 E0.01490
G1 X114.844 Y115.211 E0.01950
G1 X115.156 Y115.523 E0.01490
G1 X115.156 Y116.098 E0.01950
