; generated by PrusaSlicer 2.0.0+win64 on 2019-08-07 at 22:17:18

; 

; external perimeters extrusion width = 0.45mm
; perimeters extrusion width = 0.45mm
; infill extrusion width = 0.45mm
; solid infill extrusion width = 0.45mm
; top infill extrusion width = 0.40mm
; first layer extrusion width = 0.42mm

M73 P0 R16
M73 Q0 S17
M201 X1000 Y1000 Z1000 E5000 ; sets maximum accelerations, mm/sec^2
M203 X200 Y200 Z12 E120 ; sets maximum feedrates, mm/sec
M204 P1250 R1250 T1250 ; sets acceleration (P, T) and retract acceleration (R), mm/sec^2
M205 X8.00 Y8.00 Z0.40 E1.50 ; sets the jerk limits, mm/sec
M205 S0 T0 ; sets the minimum extruding and travel feed rate, mm/sec
M107
M115 U3.7.2 ; tell printer latest fw version
G90 ; use absolute coordinates
M83 ; extruder relative mode
M104 S240 ; set extruder temp
M140 S85 ; set bed temp
Tx
M190 S85 ; wait for bed temp
M109 S240 ; wait for extruder temp
G28 W ; home all without mesh bed level
G80 ; mesh bed leveling

G21 ; set units to millimeters

;go outside print area
G1 Y-3.0 F1000.0
G1 Z0.4 F1000.0
; select extruder
Tc
; purge line
G1 X55.0 F2000.0
G1 Z0.3 F1000.0
G92 E0.0
G1 X240.0 E25.0 F2200.0
M73 Q0 S16
M73 P0 R16
G1 Y-2.0 F1000.0
G1 X55.0 E25 F1400.0
G1 Z0.20 F1000.0
G1 X5.0 E4.0 F1000.0

M221 S95
G92 E0.0
M900 K45 ; Filament gcode
G21 ; set units to millimeters
G90 ; use absolute coordinates
M83 ; use relative distances for extrusion
;BEFORE_LAYER_CHANGE
G92 E0.0
;0.2


G1 E-0.80000 F2100.00000
G1 Z0.600 F10800.000
;AFTER_LAYER_CHANGE
;0.2
G1 X103.158 Y96.870
G1 Z0.200
G1 E0.80000 F2100.00000
M204 S1000
G1 F1200
G1 X103.566 Y96.324 E0.02137
G1 X115.091 Y84.607 E0.51530
G1 X115.561 Y84.229 E0.01892
G1 X116.105 Y83.965 E0.01897
G1 X116.956 Y83.812 E0.02709
G1 X139.530 Y83.812 E0.70780
G1 X141.219 Y83.918 E0.05307
G1 X142.223 Y84.164 E0.03238
G1 X143.182 Y84.558 E0.03253
G1 X144.569 Y85.450 E0.05171
G1 X145.328 Y86.179 E0.03300
G1 X146.291 Y87.522 E0.05181
G1 X146.725 Y88.468 E0.03264
G1 X147.116 Y89.995 E0.04942
G1 X147.189 Y90.994 E0.03140
G1 X147.188 Y119.055 E0.87982
G1 X147.131 Y119.910 E0.02686
G1 X146.960 Y120.800 E0.02843
G1 X146.682 Y121.651 E0.02807
G1 X146.284 Y122.490 E0.02911
G1 X145.813 Y123.229 E0.02750
G1 X145.239 Y123.922 E0.02820
G1 X144.584 Y124.538 E0.02819
G1 X143.860 Y125.064 E0.02807
G1 X143.065 Y125.502 E0.02845
G1 X142.238 Y125.831 E0.02792
G1 X141.363 Y126.058 E0.02832
G1 X140.552 Y126.166 E0.02567
G1 X116.939 Y126.187 E0.74036
G1 X116.252 Y126.082 E0.02179
G1 X115.650 Y125.825 E0.02053
G1 X115.085 Y125.386 E0.02244
G1 X103.568 Y113.678 E0.51495
G1 X103.026 Y112.860 E0.03075
G1 X102.874 Y112.383 E0.01570
G1 X102.812 Y111.842 E0.01707
G1 X102.812 Y98.173 E0.42859
G1 X102.901 Y97.503 E0.02121
G1 X103.136 Y96.926 E0.01952
G1 F8640
G1 X103.566 Y96.324 E-0.17081
G1 X105.355 Y94.505 E-0.58919
G1 E-0.04000 F2100.00000
G1 Z0.800 F10800.000
G1 X115.843 Y118.261
G1 Z0.200
G1 E0.80000 F2100.00000
G1 F1200
G1 X115.501 Y118.543 E0.01389
G1 X115.266 Y118.672 E0.00840
G1 X114.863 Y118.803 E0.01331
G1 X114.597 Y118.837 E0.00840
G1 X114.173 Y118.810 E0.01330
G1 X113.914 Y118.744 E0.00840
G1 X113.513 Y118.555 E0.01389
G1 X113.157 Y118.261 E0.01448
G1 X112.897 Y117.902 E0.01389
G1 X112.790 Y117.676 E0.00786
G1 X112.713 Y117.433 E0.00799
G1 X112.658 Y117.000 E0.01369
G1 X112.714 Y116.560 E0.01388
G1 X112.791 Y116.323 E0.00782
G1 X112.897 Y116.098 E0.00782
G1 X113.157 Y115.739 E0.01389
G1 X113.499 Y115.457 E0.01389
G1 X113.734 Y115.328 E0.00840
G1 X114.137 Y115.197 E0.01331
G1 X114.403 Y115.163 E0.00840
G1 X114.827 Y115.190 E0.01330
G1 X115.086 Y115.256 E0.00840
G1 X115.487 Y115.445 E0.01389
G1 X115.843 Y115.739 E0.01448
G1 X116.103 Y116.098 E0.01389
G1 X116.209 Y116.323 E0.00782
G1 X116.286 Y116.560 E0.00782
G1 X116.342 Y117.000 E0.01389
G1 X116.286 Y117.440 E0.01389
G1 X116.209 Y117.677 E0.00782
G1 X116.103 Y117.902 E0.00782
G1 X115.878 Y118.212 E0.01201
G1 X115.858 Y117.538 F10800.000
G1 F1200
G1 X115.777 Y117.710 E0.00596
G1 X115.566 Y118.001 E0.01128
G1 X115.288 Y118.230 E0.01128
G1 X115.116 Y118.325 E0.00617
G1 X114.780 Y118.434 E0.01107
G1 X114.585 Y118.458 E0.00617
G1 X114.233 Y118.436 E0.01107
G1 X114.042 Y118.387 E0.00617
G1 X113.717 Y118.234 E0.01128
G1 X113.434 Y118.001 E0.01149
G1 X113.223 Y117.710 E0.01128
G1 X113.142 Y117.537 E0.00597
G1 X113.082 Y117.351 E0.00613
G1 X113.038 Y117.000 E0.01110
G1 X113.083 Y116.643 E0.01128
G1 X113.142 Y116.462 E0.00596
G1 X113.223 Y116.290 E0.00596
G1 X113.434 Y115.999 E0.01128
G1 X113.712 Y115.770 E0.01128
G1 X113.884 Y115.675 E0.00617
G1 X114.220 Y115.566 E0.01107
G1 X114.415 Y115.542 E0.00617
G1 X114.767 Y115.564 E0.01107
G1 X114.958 Y115.613 E0.00617
G1 X115.283 Y115.766 E0.01128
G1 X115.566 Y115.999 E0.01149
G1 X115.777 Y116.290 E0.01128
G1 X115.917 Y116.643 E0.01189
G1 X115.962 Y117.000 E0.01128
G1 X115.917 Y117.357 E0.01128
G1 X115.876 Y117.481 E0.00408
G1 X115.979 Y117.684 F10800.000
G1 F8640
G1 X115.777 Y117.710 E-0.05764
G1 X115.566 Y118.001 E-0.08306
G1 X115.288 Y118.230 E-0.08306
G1 X115.116 Y118.325 E-0.04540
G1 X114.780 Y118.434 E-0.08153
G1 X114.585 Y118.458 E-0.04541
G1 X114.233 Y118.436 E-0.08151
G1 X114.042 Y118.387 E-0.04542
G1 X113.717 Y118.234 E-0.08305
G1 X113.434 Y118.001 E-0.08460
G1 X113.258 Y117.758 E-0.06931
G1 E-0.04000 F2100.00000
G1 Z0.800 F10800.000
G1 X108.784 Y106.666
G1 Z0.200
G1 E0.80000 F2100.00000
G1 F1200
G1 X108.369 Y106.802 E0.01369
G1 X108.099 Y106.837 E0.00856
G1 X107.680 Y106.811 E0.01314
G1 X107.415 Y106.744 E0.00857
G1 X107.030 Y106.563 E0.01334
G1 X106.813 Y106.405 E0.00840
G1 X106.523 Y106.096 E0.01331
G1 X106.379 Y105.870 E0.00840
G1 X106.216 Y105.458 E0.01389
G1 X106.158 Y105.000 E0.01447
G1 X106.214 Y104.560 E0.01389
G1 X106.297 Y104.306 E0.00840
G1 X106.501 Y103.934 E0.01331
G1 X106.672 Y103.727 E0.00840
G1 X106.999 Y103.457 E0.01330
G1 X107.233 Y103.328 E0.00839
G1 X107.631 Y103.198 E0.01310
G1 X107.901 Y103.163 E0.00856
G1 X108.320 Y103.189 E0.01314
G1 X108.585 Y103.256 E0.00857
G1 X108.970 Y103.437 E0.01334
G1 X109.187 Y103.595 E0.00840
G1 X109.490 Y103.917 E0.01389
G1 X109.703 Y104.306 E0.01389
G1 X109.786 Y104.560 E0.00840
G1 X109.842 Y105.000 E0.01389
G1 X109.786 Y105.440 E0.01389
G1 X109.703 Y105.694 E0.00840
G1 X109.499 Y106.066 E0.01330
G1 X109.340 Y106.258 E0.00782
G1 X109.158 Y106.429 E0.00782
G1 X108.835 Y106.634 E0.01200
G1 X109.065 Y106.000 F10800.000
G1 F1200
G1 X108.926 Y106.130 E0.00596
G1 X108.622 Y106.322 E0.01128
G1 X108.286 Y106.432 E0.01110
G1 X108.086 Y106.458 E0.00633
G1 X107.739 Y106.437 E0.01091
G1 X107.543 Y106.387 E0.00633
G1 X107.223 Y106.237 E0.01108
G1 X107.064 Y106.121 E0.00617
G1 X106.822 Y105.864 E0.01107
G1 X106.717 Y105.698 E0.00617
G1 X106.584 Y105.363 E0.01128
G1 X106.538 Y105.000 E0.01149
G1 X106.583 Y104.643 E0.01128
G1 X106.644 Y104.456 E0.00617
G1 X106.814 Y104.147 E0.01107
G1 X106.940 Y103.995 E0.00617
G1 X107.212 Y103.770 E0.01107
G1 X107.384 Y103.675 E0.00616
G1 X107.714 Y103.568 E0.01089
G1 X107.914 Y103.542 E0.00633
G1 X108.261 Y103.563 E0.01091
G1 X108.457 Y103.613 E0.00633
G1 X108.777 Y103.763 E0.01108
G1 X108.936 Y103.879 E0.00617
G1 X109.183 Y104.141 E0.01128
G1 X109.356 Y104.456 E0.01128
G1 X109.417 Y104.643 E0.00617
G1 X109.462 Y105.000 E0.01128
G1 X109.417 Y105.357 E0.01128
G1 X109.356 Y105.544 E0.00617
G1 X109.186 Y105.853 E0.01107
G1 X109.103 Y105.953 E0.00408
G1 X109.123 Y106.181 F10800.000
G1 F8640
G1 X108.926 Y106.130 E-0.05765
G1 X108.622 Y106.322 E-0.08303
G1 X108.286 Y106.432 E-0.08175
G1 X108.086 Y106.458 E-0.04661
G1 X107.739 Y106.437 E-0.08031
G1 X107.543 Y106.387 E-0.04664
G1 X107.223 Y106.237 E-0.08161
G1 X107.064 Y106.121 E-0.04541
G1 X106.822 Y105.864 E-0.08152
G1 X106.717 Y105.698 E-0.04542
G1 X106.584 Y105.363 E-0.08305
G1 X106.570 Y105.248 E-0.02698
G1 E-0.04000 F2100.00000
G1 Z0.800 F10800.000
G1 X113.513 Y94.555
G1 Z0.200
G1 E0.80000 F2100.00000
G1 F1200
G1 X113.157 Y94.261 E0.01448
G1 X112.897 Y93.902 E0.01389
G1 X112.790 Y93.676 E0.00786
G1 X112.713 Y93.433 E0.00799
G1 X112.658 Y93.000 E0.01369
G1 X112.714 Y92.560 E0.01388
G1 X112.791 Y92.323 E0.00782
G1 X112.897 Y92.098 E0.00782
G1 X113.157 Y91.739 E0.01389
G1 X113.499 Y91.457 E0.01389
G1 X113.734 Y91.328 E0.00840
G1 X114.137 Y91.197 E0.01331
G1 X114.403 Y91.163 E0.00840
G1 X114.827 Y91.190 E0.01330
G1 X115.086 Y91.256 E0.00840
G1 X115.487 Y91.445 E0.01389
G1 X115.843 Y91.739 E0.01448
G1 X116.103 Y92.098 E0.01389
G1 X116.209 Y92.323 E0.00782
G1 X116.286 Y92.560 E0.00782
G1 X116.342 Y93.000 E0.01389
G1 X116.286 Y93.440 E0.01389
G1 X116.209 Y93.677 E0.00782
G1 X116.103 Y93.902 E0.00782
G1 X115.843 Y94.261 E0.01389
G1 X115.501 Y94.543 E0.01389
G1 X115.266 Y94.672 E0.00840
G1 X114.863 Y94.803 E0.01331
G1 X114.597 Y94.837 E0.00840
G1 X114.173 Y94.810 E0.01330
G1 X113.914 Y94.744 E0.00840
G1 X113.567 Y94.581 E0.01200
G1 F8640
G1 X113.157 Y94.261 E-0.12007
G1 X112.897 Y93.902 E-0.10229
G1 X112.790 Y93.676 E-0.05786
G1 X112.713 Y93.433 E-0.05887
G1 X112.658 Y93.000 E-0.10081
G1 X112.714 Y92.560 E-0.10222
G1 X112.791 Y92.323 E-0.05760
G1 X112.897 Y92.098 E-0.05758
G1 X113.157 Y91.739 E-0.10229
G1 X113.159 Y91.738 E-0.00042
G1 E-0.04000 F2100.00000
G1 Z0.800 F10800.000
G1 X113.142 Y93.537
G1 Z0.200
G1 E0.80000 F2100.00000
G1 F1200
G1 X113.082 Y93.351 E0.00613
G1 X113.038 Y93.000 E0.01110
G1 X113.083 Y92.643 E0.01128
G1 X113.142 Y92.462 E0.00596
G1 X113.223 Y92.290 E0.00596
G1 X113.434 Y91.999 E0.01128
G1 X113.712 Y91.770 E0.01128
G1 X113.884 Y91.675 E0.00617
G1 X114.220 Y91.566 E0.01107
G1 X114.415 Y91.542 E0.00617
G1 X114.767 Y91.564 E0.01107
G1 X114.958 Y91.613 E0.00617
G1 X115.283 Y91.766 E0.01128
G1 X115.566 Y91.999 E0.01149
G1 X115.777 Y92.290 E0.01128
G1 X115.858 Y92.462 E0.00596
G1 X115.917 Y92.643 E0.00596
G1 X115.962 Y93.000 E0.01128
G1 X115.917 Y93.357 E0.01128
G1 X115.858 Y93.538 E0.00596
G1 X115.777 Y93.710 E0.00596
G1 X115.566 Y94.001 E0.01128
G1 X115.288 Y94.230 E0.01128
G1 X115.116 Y94.325 E0.00617
G1 X114.780 Y94.434 E0.01107
G1 X114.585 Y94.458 E0.00617
G1 X114.233 Y94.436 E0.01107
G1 X114.042 Y94.387 E0.00617
G1 X113.717 Y94.234 E0.01128
G1 X113.434 Y94.001 E0.01149
G1 X113.223 Y93.710 E0.01128
G1 X113.168 Y93.592 E0.00409
G1 X112.948 Y93.512 F10800.000
G1 F8640
G1 X113.082 Y93.351 E-0.05887
G1 X113.038 Y93.000 E-0.08176
G1 X113.083 Y92.643 E-0.08304
G1 X113.142 Y92.462 E-0.04389
G1 X113.223 Y92.290 E-0.04387
G1 X113.434 Y91.999 E-0.08306
G1 X113.712 Y91.770 E-0.08306
G1 X113.884 Y91.675 E-0.04540
G1 X114.220 Y91.566 E-0.08153
G1 X114.415 Y91.542 E-0.04541
G1 X114.767 Y91.564 E-0.08151
G1 X114.887 Y91.595 E-0.02859
G1 E-0.04000 F2100.00000
G1 Z0.800 F10800.000
G1 X127.636 Y93.136
G1 Z0.200
G1 E0.80000 F2100.00000
G1 F1200
G1 X141.364 Y93.136 E0.43044
G1 X141.364 Y114.864 E0.68129
G1 X127.636 Y114.864 E0.43044
G1 X127.636 Y93.196 E0.67941
G1 X128.013 Y93.513 F10800.000
G1 F1200
G1 X140.987 Y93.513 E0.40680
G1 X140.987 Y114.487 E0.65764
G1 X128.013 Y114.487 E0.40680
G1 X128.013 Y93.573 E0.65576
G1 X128.390 Y93.890 F10800.000
G1 F1200
G1 X140.610 Y93.890 E0.38315
G1 X140.610 Y114.110 E0.63400
G1 X128.390 Y114.110 E0.38315
G1 X128.390 Y93.950 E0.63212
G1 X128.318 Y93.496 F10800.000
G1 F8640
G1 X131.681 Y93.934 E-0.76000
G1 E-0.04000 F2100.00000
G1 Z0.800 F10800.000
G1 X117.373 Y87.369
G1 Z0.200
G1 E0.80000 F2100.00000
G1 F1200
G1 X139.285 Y87.366 E0.68705
G1 X139.395 Y87.421 E0.00384
G1 X139.772 Y87.373 E0.01191
G1 X140.228 Y87.373 E0.01431
G1 X140.681 Y87.430 E0.01431
G1 X141.123 Y87.544 E0.01431
G1 X141.547 Y87.712 E0.01431
G1 X141.857 Y87.882 E0.01108
G1 X142.315 Y88.201 E0.01752
G1 X142.715 Y88.592 E0.01752
G1 X142.940 Y88.864 E0.01108
G1 X143.184 Y89.248 E0.01427
G1 X143.382 Y89.673 E0.01470
G1 X143.520 Y90.096 E0.01396
G1 X143.605 Y90.545 E0.01431
G1 X143.634 Y91.000 E0.01431
G1 X143.597 Y91.581 E0.01825
G1 X143.636 Y91.682 E0.00340
G1 X143.636 Y118.318 E0.83514
G1 X143.597 Y118.419 E0.00340
G1 X143.634 Y119.000 E0.01825
G1 X143.605 Y119.455 E0.01431
G1 X143.520 Y119.904 E0.01431
G1 X143.379 Y120.338 E0.01431
G1 X143.184 Y120.751 E0.01431
G1 X142.940 Y121.136 E0.01431
G1 X142.649 Y121.488 E0.01431
G1 X142.316 Y121.800 E0.01431
G1 X141.947 Y122.068 E0.01431
G1 X141.547 Y122.288 E0.01431
G1 X141.123 Y122.456 E0.01431
G1 X140.681 Y122.570 E0.01431
G1 X140.228 Y122.627 E0.01431
G1 X139.772 Y122.627 E0.01431
G1 X139.426 Y122.583 E0.01093
G1 X139.303 Y122.636 E0.00418
G1 X117.366 Y122.636 E0.68784
G1 X113.926 Y119.136 E0.15387
G1 X114.114 Y119.184 E0.00611
G1 X114.609 Y119.215 E0.01554
G1 X114.945 Y119.173 E0.01064
G1 X115.417 Y119.020 E0.01554
G1 X115.714 Y118.856 E0.01063
G1 X116.120 Y118.521 E0.01650
G1 X116.429 Y118.095 E0.01650
G1 X116.560 Y117.816 E0.00968
G1 X116.656 Y117.522 E0.00968
G1 X116.722 Y117.000 E0.01650
G1 X116.656 Y116.478 E0.01650
G1 X116.560 Y116.184 E0.00968
G1 X116.429 Y115.905 E0.00968
G1 X116.120 Y115.479 E0.01650
G1 X115.690 Y115.124 E0.01746
G1 X115.214 Y114.900 E0.01649
G1 X114.886 Y114.816 E0.01064
G1 X114.391 Y114.785 E0.01554
G1 X114.055 Y114.827 E0.01064
G1 X113.583 Y114.980 E0.01555
G1 X113.286 Y115.144 E0.01063
G1 X112.880 Y115.479 E0.01650
G1 X112.571 Y115.905 E0.01650
G1 X112.440 Y116.184 E0.00968
G1 X112.344 Y116.478 E0.00968
G1 X112.278 Y116.999 E0.01649
G1 X112.348 Y117.531 E0.01682
G1 X106.371 Y111.451 E0.26732
G1 X106.373 Y106.488 E0.15562
G1 X106.563 Y106.690 E0.00868
G1 X106.837 Y106.889 E0.01064
G1 X107.287 Y107.101 E0.01560
G1 X107.622 Y107.185 E0.01082
G1 X108.111 Y107.216 E0.01538
G1 X108.453 Y107.171 E0.01080
G1 X108.946 Y107.010 E0.01628
G1 X109.390 Y106.728 E0.01648
G1 X109.615 Y106.517 E0.00968
G1 X109.812 Y106.279 E0.00968
G1 X110.051 Y105.845 E0.01554
G1 X110.156 Y105.522 E0.01064
G1 X110.222 Y105.000 E0.01650
G1 X110.156 Y104.478 E0.01650
G1 X110.051 Y104.155 E0.01064
G1 X109.797 Y103.694 E0.01650
G1 X109.437 Y103.310 E0.01650
G1 X109.163 Y103.111 E0.01064
G1 X108.713 Y102.899 E0.01560
G1 X108.378 Y102.815 E0.01082
G1 X107.889 Y102.784 E0.01538
G1 X107.547 Y102.829 E0.01080
G1 X107.083 Y102.980 E0.01531
G1 X106.786 Y103.144 E0.01062
G1 X106.374 Y103.495 E0.01697
G1 X106.376 Y98.538 E0.15542
G1 X112.345 Y92.476 E0.26673
G1 X112.278 Y92.999 E0.01654
G1 X112.343 Y93.515 E0.01628
G1 X112.439 Y93.814 E0.00986
G1 X112.571 Y94.095 E0.00974
G1 X112.880 Y94.521 E0.01650
G1 X113.310 Y94.876 E0.01746
G1 X113.786 Y95.100 E0.01649
G1 X114.114 Y95.184 E0.01064
G1 X114.609 Y95.215 E0.01554
G1 X114.945 Y95.173 E0.01064
G1 X115.417 Y95.020 E0.01554
G1 X115.714 Y94.856 E0.01063
G1 X116.120 Y94.521 E0.01650
G1 X116.429 Y94.095 E0.01650
G1 X116.560 Y93.816 E0.00968
G1 X116.656 Y93.522 E0.00968
G1 X116.722 Y93.000 E0.01650
G1 X116.656 Y92.478 E0.01650
G1 X116.560 Y92.184 E0.00968
G1 X116.429 Y91.905 E0.00968
G1 X116.120 Y91.479 E0.01650
G1 X115.690 Y91.124 E0.01746
G1 X115.214 Y90.900 E0.01649
G1 X114.886 Y90.816 E0.01064
G1 X114.391 Y90.785 E0.01554
G1 X114.055 Y90.827 E0.01064
G1 X113.928 Y90.868 E0.00418
G1 X117.331 Y87.412 E0.15208
G1 X117.215 Y86.992 F10800.000
G1 F1200
G1 X139.375 Y86.989 E0.69480
G1 X139.461 Y87.032 E0.00304
G1 X139.748 Y86.996 E0.00906
G1 X140.252 Y86.996 E0.01580
G1 X140.752 Y87.059 E0.01580
G1 X141.240 Y87.185 E0.01580
G1 X141.708 Y87.370 E0.01580
G1 X142.056 Y87.561 E0.01244
G1 X142.557 Y87.910 E0.01913
G1 X142.993 Y88.336 E0.01913
G1 X143.246 Y88.642 E0.01244
G1 X143.515 Y89.067 E0.01577
G1 X143.734 Y89.534 E0.01619
G1 X143.886 Y90.002 E0.01543
G1 X143.980 Y90.497 E0.01580
G1 X144.012 Y91.000 E0.01580
G1 X143.979 Y91.523 E0.01644
G1 X144.013 Y91.613 E0.00301
G1 X144.013 Y118.387 E0.83949
G1 X143.979 Y118.477 E0.00301
G1 X144.012 Y119.000 E0.01644
G1 X143.980 Y119.503 E0.01580
G1 X143.886 Y119.998 E0.01580
G1 X143.730 Y120.477 E0.01580
G1 X143.516 Y120.933 E0.01580
G1 X143.246 Y121.358 E0.01580
G1 X142.924 Y121.746 E0.01580
G1 X142.557 Y122.091 E0.01580
G1 X142.150 Y122.387 E0.01580
G1 X141.708 Y122.630 E0.01580
G1 X141.240 Y122.815 E0.01580
G1 X140.752 Y122.941 E0.01580
G1 X140.252 Y123.004 E0.01580
G1 X139.748 Y123.004 E0.01580
G1 X139.480 Y122.970 E0.00846
G1 X139.381 Y123.013 E0.00340
G1 X117.208 Y123.013 E0.69522
G1 X105.994 Y111.605 E0.50154
