; generated by PrusaSlicer 2.0.0+win64 on 2019-08-20 at 10:27:31

; 

; external perimeters extrusion width = 0.45mm
; perimeters extrusion width = 0.45mm
; infill extrusion width = 0.45mm
; solid infill extrusion width = 0.45mm
; top infill extrusion width = 0.40mm
; first layer extrusion width = 0.42mm

M73 P0 R45
M73 Q0 S45
M201 X1000 Y1000 Z1000 E5000 ; sets maximum accelerations, mm/sec^2
M203 X200 Y200 Z12 E120 ; sets maximum feedrates, mm/sec
M204 P1250 R1250 T1250 ; sets acceleration (P, T) and retract acceleration (R), mm/sec^2
M205 X8.00 Y8.00 Z0.40 E1.50 ; sets the jerk limits, mm/sec
M205 S0 T0 ; sets the minimum extruding and travel feed rate, mm/sec
M107
M115 U3.7.2 ; tell printer latest fw version
G90 ; use absolute coordinates
M83 ; extruder relative mode
M104 S240 ; set extruder temp
M140 S85 ; set bed temp
Tx
M190 S85 ; wait for bed temp
M109 S240 ; wait for extruder temp
G28 W ; home all without mesh bed level
G80 ; mesh bed leveling

G21 ; set units to millimeters

;go outside print area
G1 Y-3.0 F1000.0
G1 Z0.4 F1000.0
; select extruder
Tc
; purge line
G1 X55.0 F2000.0
G1 Z0.3 F1000.0
G92 E0.0
G1 X240.0 E25.0 F2200.0
M73 Q0 S45
M73 P0 R45
G1 Y-2.0 F1000.0
G1 X55.0 E25 F1400.0
G1 Z0.20 F1000.0
G1 X5.0 E4.0 F1000.0

M221 S95
G92 E0.0
M900 K45 ; Filament gcode
G21 ; set units to millimeters
G90 ; use absolute coordinates
M83 ; use relative distances for extrusion
;BEFORE_LAYER_CHANGE
G92 E0.0
;0.2


G1 E-0.80000 F2100.00000
G1 Z0.600 F10800.000
;AFTER_LAYER_CHANGE
;0.2
G1 X103.527 Y92.982
G1 Z0.200
G1 E0.80000 F2100.00000
M204 S1000
G1 F1200
G1 X104.086 Y92.258 E0.02867
G1 X104.736 Y91.878 E0.02360
G1 X105.472 Y91.741 E0.02349
G1 X144.504 Y91.740 E1.22380
G1 X145.327 Y91.903 E0.02631
G1 X146.029 Y92.363 E0.02631
G1 X146.506 Y93.053 E0.02631
G1 X146.688 Y93.872 E0.02631
G1 X146.676 Y122.362 E0.89329
G1 X146.541 Y123.435 E0.03391
G1 X146.151 Y124.826 E0.04530
G1 X145.848 Y125.491 E0.02292
G1 X145.413 Y125.991 E0.02078
G1 X144.766 Y126.369 E0.02349
G1 X144.030 Y126.508 E0.02349
G1 X105.985 Y126.508 E1.19286
G1 X105.518 Y126.454 E0.01475
G1 X105.073 Y126.302 E0.01475
G1 X104.670 Y126.058 E0.01475
G1 X104.330 Y125.733 E0.01475
G1 X103.982 Y125.165 E0.02089
G1 X103.565 Y123.908 E0.04152
G1 X103.373 Y122.904 E0.03204
G1 X103.312 Y121.947 E0.03009
G1 X103.312 Y93.870 E0.88031
G1 X103.513 Y93.040 E0.02678
G1 F8640
G1 X104.086 Y92.258 E-0.22382
G1 X104.736 Y91.878 E-0.17382
G1 X105.472 Y91.741 E-0.17299
G1 X106.292 Y91.741 E-0.18937
G1 E-0.04000 F2100.00000
G1 Z0.800 F10800.000
G1 X143.132 Y122.049
G1 Z0.200
G1 E0.80000 F2100.00000
G1 F1200
G1 X142.876 Y122.049 E0.00802
G1 X142.876 Y121.617 E0.01356
G1 X142.964 Y120.904 E0.02254
G1 X142.964 Y95.565 E0.79449
G1 X107.036 Y95.565 E1.12651
G1 X107.036 Y120.904 E0.79449
G1 X107.124 Y121.617 E0.02254
G1 X107.124 Y122.049 E0.01356
G1 X106.868 Y122.049 E0.00802
G1 X106.864 Y95.293 E0.83893
G1 X143.136 Y95.293 E1.13727
G1 X143.133 Y121.989 E0.83705
G1 F8640
G1 X142.876 Y122.049 E-0.06107
G1 X142.876 Y121.617 E-0.09983
G1 X142.964 Y120.904 E-0.16599
G1 X142.964 Y119.028 E-0.43312
G1 E-0.04000 F2100.00000
G1 Z0.800 F10800.000
G1 X142.587 Y95.942
G1 Z0.200
G1 E0.80000 F2100.00000
G1 F1200
G1 X107.413 Y95.942 E1.10286
G1 X107.413 Y120.880 E0.78193
G1 X107.501 Y121.594 E0.02254
G1 X107.501 Y122.264 E0.02101
G1 X107.481 Y122.426 E0.00514
G1 X106.519 Y122.426 E0.03017
G1 X106.487 Y121.920 E0.01592
G1 X106.487 Y94.916 E0.84668
G1 X143.513 Y94.916 E1.16092
G1 X143.513 Y121.920 E0.84668
G1 X143.481 Y122.426 E0.01592
G1 X142.519 Y122.426 E0.03017
G1 X142.499 Y122.264 E0.00514
G1 X142.499 Y121.594 E0.02101
G1 X142.587 Y120.880 E0.02254
G1 X142.587 Y96.002 E0.78005
G1 X142.210 Y96.319 F10800.000
G1 F1200
G1 X107.790 Y96.319 E1.07921
G1 X107.790 Y120.857 E0.76938
G1 X107.878 Y121.571 E0.02254
G1 X107.878 Y122.287 E0.02247
G1 X107.814 Y122.804 E0.01632
G1 X106.186 Y122.804 E0.05107
G1 X106.121 Y122.284 E0.01642
G1 X106.110 Y121.926 E0.01124
G1 X106.110 Y94.539 E0.85869
G1 X143.890 Y94.539 E1.18456
G1 X143.890 Y121.926 E0.85869
G1 X143.879 Y122.284 E0.01124
G1 X143.814 Y122.804 E0.01642
G1 X142.186 Y122.804 E0.05107
G1 X142.122 Y122.287 E0.01632
G1 X142.122 Y121.571 E0.02247
G1 X142.210 Y120.857 E0.02254
G1 X142.210 Y96.379 E0.76750
G1 X142.210 Y95.919 F10800.000
;BEFORE_LAYER_CHANGE
G92 E0.0
;0.4


G1 F8640
G1 X138.919 Y96.373 E-0.76000
G1 E-0.04000 F2100.00000
G1 Z0.800 F10800.000
;AFTER_LAYER_CHANGE
;0.4
M104 S250 ; set temperature
M140 S90 ; set bed temperature
G1 X145.327 Y91.903
G1 Z0.400
G1 E0.80000 F2100.00000
G1 F3000
G1 X146.029 Y92.363 E0.02631
G1 X146.506 Y93.053 E0.02631
G1 X146.688 Y93.872 E0.02631
G1 X146.676 Y122.362 E0.89329
G1 X146.541 Y123.435 E0.03391
G1 X146.151 Y124.826 E0.04530
G1 X145.848 Y125.491 E0.02292
G1 X145.413 Y125.991 E0.02078
G1 X144.766 Y126.369 E0.02349
G1 X144.030 Y126.508 E0.02349
G1 X105.985 Y126.508 E1.19286
G1 X105.518 Y126.454 E0.01475
G1 X105.073 Y126.302 E0.01475
G1 X104.670 Y126.058 E0.01475
G1 X104.330 Y125.733 E0.01475
G1 X103.982 Y125.165 E0.02089
G1 X103.565 Y123.908 E0.04152
G1 X103.373 Y122.904 E0.03204
G1 X103.312 Y121.947 E0.03009
G1 X103.312 Y93.870 E0.88031
G1 X103.527 Y92.982 E0.02867
G1 X104.086 Y92.258 E0.02867
G1 X104.736 Y91.878 E0.02360
G1 X105.472 Y91.741 E0.02349
G1 X144.504 Y91.740 E1.22380
G1 X145.268 Y91.891 E0.02443
G1 F8640
G1 X146.029 Y92.363 E-0.20664
G1 X146.506 Y93.053 E-0.19374
G1 X146.688 Y93.872 E-0.19374
G1 X146.687 Y94.590 E-0.16589
G1 E-0.04000 F2100.00000
G1 Z1.000 F10800.000
G1 X143.185 Y122.761
G1 Z0.400
G1 E0.80000 F2100.00000
M204 S800
G1 F2700
G1 X142.818 Y122.761 E0.01243
G1 X142.748 Y122.206 E0.01894
G1 X142.740 Y121.945 E0.00884
G1 X142.778 Y121.338 E0.02060
G1 X142.898 Y120.703 E0.02187
G1 X143.039 Y120.201 E0.01765
G1 X143.039 Y95.690 E0.82967
G1 X106.961 Y95.690 E1.22121
G1 X106.961 Y120.201 E0.82967
G1 X107.102 Y120.703 E0.01765
G1 X107.222 Y121.338 E0.02187
G1 X107.260 Y121.945 E0.02060
G1 X107.252 Y122.206 E0.00884
G1 X107.182 Y122.761 E0.01894
G1 X106.815 Y122.761 E0.01243
G1 X106.779 Y122.536 E0.00773
G1 X106.739 Y121.896 E0.02169
G1 X106.739 Y95.168 E0.90472
G1 X143.261 Y95.168 E1.23621
G1 X143.261 Y121.896 E0.90472
G1 X143.195 Y122.702 E0.02737
M204 S1000
G1 F8640
G1 X142.818 Y122.761 E-0.08800
G1 X142.748 Y122.206 E-0.12920
G1 X142.740 Y121.945 E-0.06031
G1 X142.778 Y121.338 E-0.14052
G1 X142.898 Y120.703 E-0.14920
G1 X143.039 Y120.201 E-0.12040
G1 X143.039 Y119.887 E-0.07237
G1 E-0.04000 F2100.00000
G1 Z1.000 F10800.000
G1 X142.632 Y96.097
G1 Z0.400
G1 E0.80000 F2100.00000
M204 S800
G1 F2700
G1 X107.368 Y96.097 E1.19365
G1 X107.368 Y120.145 E0.81399
G1 X107.499 Y120.610 E0.01636
G1 X107.626 Y121.287 E0.02333
G1 X107.667 Y121.939 E0.02210
G1 X107.658 Y122.238 E0.01014
G1 X107.575 Y122.899 E0.02256
G1 X107.507 Y123.168 E0.00939
G1 X106.493 Y123.168 E0.03433
G1 X106.423 Y122.890 E0.00972
G1 X106.374 Y122.580 E0.01062
G1 X106.332 Y121.909 E0.02276
G1 X106.332 Y94.761 E0.91893
M73 Q2 S44
G1 X143.668 Y94.761 E1.26377
M73 P2 R44
G1 X143.668 Y121.909 E0.91893
G1 X143.626 Y122.580 E0.02276
G1 X143.577 Y122.890 E0.01062
G1 X143.507 Y123.168 E0.00972
G1 X142.493 Y123.168 E0.03433
G1 X142.425 Y122.899 E0.00939
G1 X142.342 Y122.238 E0.02256
G1 X142.333 Y121.939 E0.01014
G1 X142.374 Y121.287 E0.02210
G1 X142.501 Y120.610 E0.02333
G1 X142.632 Y120.145 E0.01636
G1 X142.632 Y96.157 E0.81196
M204 S1000
G1 X142.225 Y96.504 F10800.000
M204 S800
G1 F1500
G1 X107.775 Y96.504 E1.16609
G1 X107.775 Y120.088 E0.79830
G1 X107.896 Y120.517 E0.01507
G1 X108.031 Y121.237 E0.02480
G1 X108.075 Y121.932 E0.02359
G1 X108.064 Y122.270 E0.01143
G1 X107.976 Y122.975 E0.02404
G1 X107.825 Y123.576 E0.02097
G1 X106.175 Y123.576 E0.05582
G1 X106.023 Y122.971 E0.02109
G1 X105.969 Y122.624 E0.01189
G1 X105.925 Y121.922 E0.02383
G1 X105.925 Y94.354 E0.93314
G1 X144.075 Y94.354 E1.29133
G1 X144.075 Y121.922 E0.93314
G1 X144.031 Y122.624 E0.02383
G1 X143.977 Y122.971 E0.01189
G1 X143.825 Y123.576 E0.02109
G1 X142.175 Y123.576 E0.05582
G1 X142.024 Y122.975 E0.02097
G1 X141.936 Y122.270 E0.02404
G1 X141.925 Y121.932 E0.01143
G1 X141.969 Y121.237 E0.02359
G1 X142.104 Y120.517 E0.02480
G1 X142.225 Y120.088 E0.01507
G1 X142.225 Y96.564 E0.79627
M204 S1000
G1 X142.226 Y96.104 F10800.000
G1 F8640
G1 X138.934 Y96.558 E-0.76000
G1 E-0.04000 F2100.00000
G1 Z1.000 F10800.000
G1 X143.057 Y95.429
G1 Z0.400
G1 E0.80000 F2100.00000
G1 F2400
G1 X106.943 Y95.429 E0.34410
G1 F8640
G1 X110.234 Y95.429 E-0.76000
G1 E-0.04000 F2100.00000
G1 Z1.000 F10800.000
G1 X106.967 Y121.219
G1 Z0.400
G1 E0.80000 F2100.00000
G1 F2400
G1 X106.981 Y121.368 E0.00096
G1 X106.999 Y122.390 E0.00740
G1 F8640
G1 X106.981 Y121.368 E-0.23611
G1 E-0.56389 F2100.00000
G1 Z1.000 F10800.000
G1 X143.001 Y122.390
G1 Z0.400
G1 E0.80000 F2100.00000
G1 F2400
G1 X142.999 Y121.949 E0.00282
G1 X143.033 Y121.219 E0.00467
;BEFORE_LAYER_CHANGE
G92 E0.0
;0.6


G1 F8640
G1 X142.999 Y121.949 E-0.16890
G1 X143.001 Y122.390 E-0.10183
G1 E-0.52927 F2100.00000
G1 Z1.000 F10800.000
;AFTER_LAYER_CHANGE
;0.6
G1 X144.766 Y126.369
G1 Z0.600
G1 E0.80000 F2100.00000
G1 F3000
G1 X144.030 Y126.508 E0.02349
G1 X105.985 Y126.508 E1.19286
G1 X105.518 Y126.454 E0.01475
G1 X105.073 Y126.302 E0.01475
G1 X104.670 Y126.058 E0.01475
G1 X104.330 Y125.733 E0.01475
G1 X103.982 Y125.165 E0.02089
G1 X103.565 Y123.908 E0.04152
G1 X103.373 Y122.904 E0.03204
G1 X103.312 Y121.947 E0.03009
G1 X103.312 Y93.870 E0.88031
G1 X103.527 Y92.982 E0.02867
G1 X104.086 Y92.258 E0.02867
G1 X104.736 Y91.878 E0.02360
G1 X105.472 Y91.741 E0.02349
G1 X144.504 Y91.740 E1.22380
G1 X145.327 Y91.903 E0.02631
G1 X146.029 Y92.363 E0.02631
G1 X146.506 Y93.053 E0.02631
G1 X146.688 Y93.872 E0.02631
G1 X146.676 Y122.362 E0.89329
G1 X146.541 Y123.435 E0.03391
G1 X146.151 Y124.826 E0.04530
G1 X145.848 Y125.491 E0.02292
G1 X145.413 Y125.991 E0.02078
G1 X144.818 Y126.339 E0.02161
G1 F8640
G1 X144.030 Y126.508 E-0.18609
G1 X141.544 Y126.508 E-0.57391
G1 E-0.04000 F2100.00000
G1 Z1.200 F10800.000
G1 X143.255 Y123.280
G1 Z0.600
G1 E0.80000 F2100.00000
M204 S800
G1 F2700
G1 X142.740 Y123.280 E0.01741
G1 X142.624 Y122.802 E0.01665
G1 X142.550 Y122.210 E0.02021
G1 X142.550 Y121.648 E0.01903
G1 X142.623 Y121.071 E0.01969
G1 X142.779 Y120.444 E0.02186
G1 X143.039 Y119.719 E0.02606
G1 X143.039 Y95.890 E0.80661
G1 X106.961 Y95.890 E1.22121
G1 X106.961 Y119.719 E0.80661
G1 X107.221 Y120.444 E0.02606
G1 X107.377 Y121.071 E0.02186
G1 X107.450 Y121.648 E0.01969
G1 X107.450 Y122.210 E0.01903
G1 X107.376 Y122.802 E0.02021
G1 X107.260 Y123.280 E0.01665
G1 X106.745 Y123.280 E0.01741
G1 X106.619 Y122.772 E0.01774
G1 X106.578 Y122.510 E0.00895
G1 X106.539 Y121.896 E0.02083
G1 X106.539 Y94.968 E0.91149
G1 X143.461 Y94.968 E1.24975
G1 X143.461 Y121.896 E0.91149
G1 X143.422 Y122.510 E0.02083
G1 X143.381 Y122.772 E0.00895
G1 X143.269 Y123.222 E0.01571
M204 S1000
G1 F8640
G1 X142.740 Y123.280 E-0.12283
G1 X142.624 Y122.802 E-0.11359
G1 X142.550 Y122.210 E-0.13783
G1 X142.550 Y121.648 E-0.12980
G1 X142.623 Y121.071 E-0.13429
G1 X142.750 Y120.559 E-0.12167
G1 E-0.04000 F2100.00000
G1 Z1.200 F10800.000
G1 X142.632 Y96.297
G1 Z0.600
G1 E0.80000 F2100.00000
M204 S800
G1 F2700
G1 X107.368 Y96.297 E1.19365
G1 X107.368 Y119.649 E0.79043
G1 X107.611 Y120.326 E0.02435
G1 X107.778 Y120.996 E0.02338
G1 X107.857 Y121.622 E0.02137
G1 X107.857 Y122.235 E0.02075
G1 X107.777 Y122.871 E0.02169
G1 X107.708 Y123.189 E0.01100
G1 X107.556 Y123.687 E0.01765
G1 X106.444 Y123.687 E0.03761
G1 X106.389 Y123.532 E0.00558
G1 X106.219 Y122.853 E0.02371
G1 X106.173 Y122.555 E0.01020
G1 X106.132 Y121.909 E0.02190
G1 X106.132 Y94.561 E0.92570
G1 X143.868 Y94.561 E1.27731
G1 X143.868 Y121.909 E0.92570
G1 X143.827 Y122.555 E0.02190
G1 X143.781 Y122.853 E0.01020
G1 X143.611 Y123.532 E0.02371
G1 X143.556 Y123.687 E0.00558
G1 X142.444 Y123.687 E0.03761
G1 X142.292 Y123.189 E0.01765
G1 X142.223 Y122.871 E0.01100
G1 X142.143 Y122.235 E0.02169
G1 X142.143 Y121.622 E0.02075
G1 X142.222 Y120.996 E0.02137
G1 X142.389 Y120.326 E0.02338
G1 X142.632 Y119.649 E0.02435
G1 X142.632 Y96.357 E0.78840
M204 S1000
G1 X142.225 Y96.704 F10800.000
M204 S800
G1 F1500
G1 X107.775 Y96.704 E1.16609
G1 X107.775 Y119.578 E0.77425
G1 X108.001 Y120.207 E0.02265
G1 X108.179 Y120.921 E0.02490
G1 X108.264 Y121.597 E0.02306
G1 X108.264 Y122.261 E0.02247
G1 X108.179 Y122.940 E0.02317
G1 X108.103 Y123.287 E0.01201
G1 X108.002 Y123.648 E0.01268
G1 X107.842 Y124.094 E0.01608
G1 X106.158 Y124.094 E0.05699
G1 X105.999 Y123.650 E0.01597
G1 X105.820 Y122.933 E0.02501
G1 X105.768 Y122.599 E0.01145
G1 X105.725 Y121.922 E0.02297
G1 X105.725 Y94.154 E0.93991
G1 X144.275 Y94.154 E1.30487
G1 X144.275 Y121.922 E0.93991
G1 X144.232 Y122.599 E0.02297
G1 X144.180 Y122.933 E0.01145
G1 X144.001 Y123.650 E0.02501
G1 X143.842 Y124.094 E0.01597
G1 X142.158 Y124.094 E0.05699
G1 X141.998 Y123.648 E0.01608
G1 X141.897 Y123.287 E0.01268
G1 X141.821 Y122.940 E0.01201
G1 X141.736 Y122.261 E0.02317
G1 X141.736 Y121.597 E0.02247
G1 X141.821 Y120.921 E0.02306
G1 X141.999 Y120.207 E0.02490
G1 X142.225 Y119.578 E0.02265
G1 X142.225 Y96.764 E0.77222
M204 S1000
G1 X142.226 Y96.304 F10800.000
G1 F8640
G1 X138.934 Y96.758 E-0.76000
G1 E-0.04000 F2100.00000
G1 Z1.200 F10800.000
G1 X143.193 Y95.768
G1 Z0.600
G1 E0.80000 F2100.00000
M204 S1250
G1 F4800
G1 X142.699 Y95.273 E0.02367
G1 X142.123 Y95.273 E0.01950
G1 X142.434 Y95.584 E0.01490
G1 X141.858 Y95.584 E0.01950
G1 X141.547 Y95.273 E0.01490
G1 X140.971 Y95.273 E0.01950
G1 X141.282 Y95.584 E0.01490
G1 X140.706 Y95.584 E0.01950
G1 X140.395 Y95.273 E0.01490
G1 X139.819 Y95.273 E0.01950
G1 X140.130 Y95.584 E0.01490
G1 X139.554 Y95.584 E0.01950
G1 X139.243 Y95.273 E0.01490
G1 X138.667 Y95.273 E0.01950
G1 X138.978 Y95.584 E0.01490
G1 X138.402 Y95.584 E0.01950
G1 X138.091 Y95.273 E0.01490
G1 X137.515 Y95.273 E0.01950
G1 X137.826 Y95.584 E0.01490
G1 X137.250 Y95.584 E0.01950
G1 X136.939 Y95.273 E0.01490
G1 X136.363 Y95.273 E0.01950
G1 X136.674 Y95.584 E0.01490
G1 X136.098 Y95.584 E0.01950
G1 X135.787 Y95.273 E0.01490
G1 X135.211 Y95.273 E0.01950
G1 X135.522 Y95.584 E0.01490
G1 X134.946 Y95.584 E0.01950
G1 X134.635 Y95.273 E0.01490
G1 X134.059 Y95.273 E0.01950
G1 X134.371 Y95.584 E0.01490
G1 X133.795 Y95.584 E0.01950
G1 X133.484 Y95.273 E0.01490
G1 X132.908 Y95.273 E0.01950
G1 X133.219 Y95.584 E0.01490
G1 X132.643 Y95.584 E0.01950
G1 X132.332 Y95.273 E0.01490
G1 X131.756 Y95.273 E0.01950
G1 X132.067 Y95.584 E0.01490
G1 X131.491 Y95.584 E0.01950
G1 X131.180 Y95.273 E0.01490
G1 X130.604 Y95.273 E0.01950
G1 X130.915 Y95.584 E0.01490
G1 X130.339 Y95.584 E0.01950
G1 X130.028 Y95.273 E0.01490
G1 X129.452 Y95.273 E0.01950
G1 X129.763 Y95.584 E0.01490
G1 X129.187 Y95.584 E0.01950
G1 X128.876 Y95.273 E0.01490
G1 X128.300 Y95.273 E0.01950
G1 X128.611 Y95.584 E0.01490
G1 X128.035 Y95.584 E0.01950
G1 X127.724 Y95.273 E0.01490
G1 X127.148 Y95.273 E0.01950
G1 X127.459 Y95.584 E0.01490
G1 X126.883 Y95.584 E0.01950
G1 X126.572 Y95.273 E0.01490
G1 X125.996 Y95.273 E0.01950
G1 X126.307 Y95.584 E0.01490
G1 X125.731 Y95.584 E0.01950
G1 X125.420 Y95.273 E0.01490
G1 X124.844 Y95.273 E0.01950
G1 X125.155 Y95.584 E0.01490
G1 X124.580 Y95.584 E0.01950
G1 X124.268 Y95.273 E0.01490
G1 X123.693 Y95.273 E0.01950
G1 X124.004 Y95.584 E0.01490
G1 X123.428 Y95.584 E0.01950
G1 X123.117 Y95.273 E0.01490
G1 X122.541 Y95.273 E0.01950
G1 X122.852 Y95.584 E0.01490
G1 X122.276 Y95.584 E0.01950
G1 X121.965 Y95.273 E0.01490
G1 X121.389 Y95.273 E0.01950
G1 X121.700 Y95.584 E0.01490
G1 X121.124 Y95.584 E0.01950
G1 X120.813 Y95.273 E0.01490
G1 X120.237 Y95.273 E0.01950
G1 X120.548 Y95.584 E0.01490
G1 X119.972 Y95.584 E0.01950
G1 X119.661 Y95.273 E0.01490
G1 X119.085 Y95.273 E0.01950
G1 X119.396 Y95.584 E0.01490
G1 X118.820 Y95.584 E0.01950
G1 X118.509 Y95.273 E0.01490
G1 X117.933 Y95.273 E0.01950
G1 X118.244 Y95.584 E0.01490
G1 X117.668 Y95.584 E0.01950
G1 X117.357 Y95.273 E0.01490
G1 X116.781 Y95.273 E0.01950
G1 X117.092 Y95.584 E0.01490
G1 X116.516 Y95.584 E0.01950
G1 X116.205 Y95.273 E0.01490
G1 X115.629 Y95.273 E0.01950
G1 X115.940 Y95.584 E0.01490
