; generated by PrusaSlicer 2.0.0+win64 on 2019-08-20 at 10:21:24

; 

; external perimeters extrusion width = 0.45mm
; perimeters extrusion width = 0.45mm
; infill extrusion width = 0.45mm
; solid infill extrusion width = 0.45mm
; top infill extrusion width = 0.40mm
; first layer extrusion width = 0.42mm

M73 P0 R79
M73 Q0 S80
M201 X1000 Y1000 Z1000 E5000 ; sets maximum accelerations, mm/sec^2
M203 X200 Y200 Z12 E120 ; sets maximum feedrates, mm/sec
M204 P1250 R1250 T1250 ; sets acceleration (P, T) and retract acceleration (R), mm/sec^2
M205 X8.00 Y8.00 Z0.40 E1.50 ; sets the jerk limits, mm/sec
M205 S0 T0 ; sets the minimum extruding and travel feed rate, mm/sec
M107
M115 U3.7.2 ; tell printer latest fw version
G90 ; use absolute coordinates
M83 ; extruder relative mode
M104 S240 ; set extruder temp
M140 S85 ; set bed temp
Tx
M190 S85 ; wait for bed temp
M109 S240 ; wait for extruder temp
G28 W ; home all without mesh bed level
G80 ; mesh bed leveling

G21 ; set units to millimeters

;go outside print area
G1 Y-3.0 F1000.0
G1 Z0.4 F1000.0
; select extruder
Tc
; purge line
G1 X55.0 F2000.0
G1 Z0.3 F1000.0
G92 E0.0
G1 X240.0 E25.0 F2200.0
M73 Q0 S80
M73 P0 R79
G1 Y-2.0 F1000.0
G1 X55.0 E25 F1400.0
G1 Z0.20 F1000.0
G1 X5.0 E4.0 F1000.0

M221 S95
G92 E0.0
M900 K45 ; Filament gcode
G21 ; set units to millimeters
G90 ; use absolute coordinates
M83 ; use relative distances for extrusion
;BEFORE_LAYER_CHANGE
G92 E0.0
;0.2


G1 E-0.80000 F2100.00000
G1 Z0.600 F10800.000
;AFTER_LAYER_CHANGE
;0.2
G1 X106.411 Y86.599
G1 Z0.200
G1 E0.80000 F2100.00000
M204 S1000
G1 F1200
G1 X106.683 Y86.030 E0.01976
G1 X107.023 Y85.635 E0.01635
G1 X107.444 Y85.333 E0.01623
G1 X107.927 Y85.138 E0.01635
G1 X108.439 Y85.062 E0.01623
G1 X141.504 Y85.061 E1.03671
G1 X142.303 Y85.214 E0.02552
G1 X142.994 Y85.651 E0.02563
G1 X143.477 Y86.311 E0.02563
G1 X143.683 Y87.098 E0.02552
G1 X143.683 Y116.411 E0.91908
G1 X143.485 Y117.171 E0.02462
G1 X138.317 Y127.970 E0.37539
G1 X137.974 Y128.368 E0.01646
G1 X137.549 Y128.670 E0.01635
G1 X137.065 Y128.864 E0.01635
G1 X136.549 Y128.938 E0.01635
G1 X113.467 Y128.938 E0.72373
G1 X112.849 Y128.839 E0.01964
G1 X112.280 Y128.567 E0.01976
G1 X111.856 Y128.194 E0.01771
G1 X111.539 Y127.722 E0.01783
G1 X106.516 Y117.174 E0.36630
G1 X106.330 Y116.535 E0.02089
G1 X106.312 Y87.224 E0.91900
G1 X106.401 Y86.658 E0.01799
G1 F8640
G1 X106.683 Y86.030 E-0.15882
G1 X107.023 Y85.635 E-0.12039
G1 X107.444 Y85.333 E-0.11955
G1 X107.927 Y85.138 E-0.12039
G1 X108.439 Y85.062 E-0.11955
G1 X108.965 Y85.062 E-0.12129
G1 E-0.04000 F2100.00000
G1 Z0.800 F10800.000
G1 X135.536 Y125.786
G1 Z0.200
G1 E0.80000 F2100.00000
G1 F1200
G1 X114.464 Y125.786 E0.66069
G1 X114.464 Y125.214 E0.01792
G1 X135.536 Y125.214 E0.66069
G1 X135.536 Y125.726 E0.01604
G1 X135.913 Y126.163 F10800.000
G1 F1200
G1 X114.087 Y126.163 E0.68433
G1 X114.087 Y124.837 E0.04157
G1 X135.913 Y124.837 E0.68433
G1 X135.913 Y126.103 E0.03969
G1 X136.290 Y126.540 F10800.000
G1 F1200
G1 X113.710 Y126.540 E0.70798
G1 X113.710 Y124.460 E0.06522
G1 X136.290 Y124.460 E0.70798
G1 X136.290 Y126.480 E0.06334
G1 X135.890 Y126.528 F10800.000
G1 F8640
G1 X132.999 Y126.489 E-0.76000
G1 E-0.04000 F2100.00000
G1 Z0.800 F10800.000
G1 X135.347 Y125.500
G1 Z0.200
G1 E0.80000 F2100.00000
G1 F1200
G1 X114.653 Y125.500 E0.33487
G1 F8640
G1 X117.944 Y125.500 E-0.76000
G1 E-0.04000 F2100.00000
G1 Z0.800 F10800.000
G1 X137.464 Y115.286
G1 Z0.200
G1 E0.80000 F2100.00000
G1 F1200
G1 X137.464 Y108.014 E0.22800
G1 X140.536 Y108.014 E0.09631
G1 X140.536 Y115.286 E0.22800
G1 X137.524 Y115.286 E0.09443
G1 X137.087 Y115.663 F10800.000
G1 F1200
G1 X137.087 Y107.637 E0.25164
G1 X140.913 Y107.637 E0.11996
G1 X140.913 Y115.663 E0.25164
G1 X137.147 Y115.663 E0.11808
G1 X136.710 Y116.040 F10800.000
G1 F1200
G1 X136.710 Y107.260 E0.27529
G1 X141.290 Y107.260 E0.14360
G1 X141.290 Y116.040 E0.27529
G1 X136.770 Y116.040 E0.14172
G1 X136.774 Y115.645 F10800.000
G1 F8640
G1 X136.748 Y112.749 E-0.76000
G1 E-0.04000 F2100.00000
G1 Z0.800 F10800.000
G1 X138.370 Y115.173
G1 Z0.200
G1 E0.80000 F2100.00000
G1 F1200
G1 X137.747 Y114.550 E0.02869
G1 X137.747 Y113.996 E0.01803
G1 X138.754 Y115.003 E0.04637
G1 X139.308 Y115.003 E0.01803
G1 X137.747 Y113.442 E0.07186
G1 X137.747 Y112.889 E0.01803
G1 X139.861 Y115.003 E0.09735
G1 X140.253 Y115.003 E0.01275
G1 X140.253 Y114.841 E0.00527
G1 X137.747 Y112.335 E0.11538
G1 X137.747 Y111.781 E0.01803
G1 X140.253 Y114.287 E0.11538
G1 X140.253 Y113.734 E0.01803
G1 X137.747 Y111.228 E0.11538
G1 X137.747 Y110.674 E0.01803
G1 X140.253 Y113.180 E0.11538
G1 X140.253 Y112.626 E0.01803
G1 X137.747 Y110.120 E0.11538
G1 X137.747 Y109.566 E0.01803
G1 X140.253 Y112.073 E0.11538
G1 X140.253 Y111.519 E0.01803
G1 X137.747 Y109.013 E0.11538
G1 X137.747 Y108.459 E0.01803
G1 X140.253 Y110.965 E0.11538
G1 X140.253 Y110.412 E0.01803
G1 X138.138 Y108.297 E0.09735
G1 X138.692 Y108.297 E0.01803
G1 X140.253 Y109.858 E0.07186
G1 X140.253 Y109.304 E0.01803
G1 X139.246 Y108.297 E0.04637
G1 X139.800 Y108.297 E0.01803
G1 X140.423 Y108.920 E0.02869
G1 F8640
G1 X139.800 Y108.297 E-0.20351
G1 X139.246 Y108.297 E-0.12785
G1 X140.253 Y109.304 E-0.32890
G1 X140.253 Y109.736 E-0.09974
G1 E-0.04000 F2100.00000
G1 Z0.800 F10800.000
G1 X112.536 Y103.286
G1 Z0.200
G1 E0.80000 F2100.00000
G1 F1200
G1 X109.464 Y103.286 E0.09631
G1 X109.464 Y88.614 E0.46002
G1 X112.536 Y88.614 E0.09631
G1 X112.536 Y103.226 E0.45814
G1 X112.913 Y103.663 F10800.000
G1 F1200
G1 X109.087 Y103.663 E0.11996
G1 X109.087 Y88.237 E0.48367
G1 X112.913 Y88.237 E0.11996
G1 X112.913 Y103.603 E0.48179
G1 F8640
G1 X109.622 Y103.655 E-0.76000
G1 E-0.04000 F2100.00000
G1 Z0.800 F10800.000
G1 X137.464 Y103.286
G1 Z0.200
G1 E0.80000 F2100.00000
G1 F1200
G1 X137.464 Y97.214 E0.19037
G1 X139.964 Y97.214 E0.07839
G1 X139.964 Y88.614 E0.26965
G1 X140.536 Y88.614 E0.01792
G1 X140.536 Y103.286 E0.46002
G1 X137.524 Y103.286 E0.09443
G1 F8640
G1 X137.492 Y99.995 E-0.76000
G1 E-0.04000 F2100.00000
G1 Z0.800 F10800.000
G1 X139.587 Y96.837
G1 Z0.200
G1 E0.80000 F2100.00000
G1 F1200
G1 X139.587 Y88.237 E0.26965
G1 X140.913 Y88.237 E0.04157
G1 X140.913 Y103.663 E0.48367
G1 X137.087 Y103.663 E0.11996
G1 X137.087 Y96.837 E0.21402
G1 X139.527 Y96.837 E0.07650
G1 X139.210 Y96.460 F10800.000
G1 F1200
G1 X139.210 Y88.040 E0.26400
G1 X113.290 Y88.040 E0.81270
G1 X113.290 Y104.040 E0.50167
G1 X108.710 Y104.040 E0.14360
G1 X108.710 Y87.860 E0.50731
G1 X141.290 Y87.860 E1.02152
G1 X141.290 Y104.040 E0.50731
G1 X136.710 Y104.040 E0.14360
G1 X136.710 Y96.460 E0.23767
G1 X139.150 Y96.460 E0.07650
G1 X139.576 Y96.298 F10800.000
G1 F8640
G1 X139.173 Y93.169 E-0.76000
G1 E-0.04000 F2100.00000
G1 Z0.800 F10800.000
G1 X140.250 Y97.403
G1 Z0.200
G1 E0.80000 F2100.00000
G1 F1200
G1 X140.250 Y88.803 E0.13916
G1 F8640
G1 X140.250 Y92.094 E-0.76000
G1 E-0.04000 F2100.00000
G1 Z0.800 F10800.000
G1 X140.423 Y98.282
G1 Z0.200
G1 E0.80000 F2100.00000
G1 F1200
G1 X139.637 Y97.497 E0.03501
G1 X139.101 Y97.497 E0.01690
G1 X140.253 Y98.649 E0.05135
G1 X140.253 Y99.185 E0.01690
G1 X138.565 Y97.497 E0.07524
G1 X138.029 Y97.497 E0.01690
G1 X140.253 Y99.721 E0.09914
G1 X140.253 Y100.257 E0.01690
G1 X137.747 Y97.751 E0.11172
G1 X137.747 Y98.287 E0.01690
G1 X140.253 Y100.793 E0.11172
G1 X140.253 Y101.329 E0.01690
G1 X137.747 Y98.823 E0.11172
G1 X137.747 Y99.359 E0.01690
G1 X140.253 Y101.865 E0.11172
G1 X140.253 Y102.402 E0.01690
G1 X137.747 Y99.895 E0.11172
G1 X137.747 Y100.432 E0.01690
G1 X140.253 Y102.938 E0.11172
G1 X140.253 Y103.003 E0.00206
G1 X139.782 Y103.003 E0.01484
G1 X137.747 Y100.968 E0.09073
G1 X137.747 Y101.504 E0.01690
G1 X139.246 Y103.003 E0.06683
G1 X138.710 Y103.003 E0.01690
G1 X137.747 Y102.040 E0.04294
G1 X137.747 Y102.576 E0.01690
G1 X138.344 Y103.173 E0.02660
G1 F8640
G1 X137.747 Y102.576 E-0.19486
G1 X137.747 Y102.040 E-0.12379
G1 X138.710 Y103.003 E-0.31451
G1 X139.246 Y103.003 E-0.12379
G1 X139.237 Y102.994 E-0.00305
G1 E-0.04000 F2100.00000
G1 Z0.800 F10800.000
G1 X110.354 Y103.173
G1 Z0.200
G1 E0.80000 F2100.00000
G1 F1200
G1 X109.747 Y102.566 E0.02737
G1 X109.747 Y102.023 E0.01732
G1 X110.727 Y103.003 E0.04421
G1 X111.269 Y103.003 E0.01732
G1 X109.747 Y101.481 E0.06870
G1 X109.747 Y100.938 E0.01732
G1 X111.812 Y103.003 E0.09318
G1 X112.253 Y103.003 E0.01407
G1 X112.253 Y102.901 E0.00324
G1 X109.747 Y100.395 E0.11309
G1 X109.747 Y99.853 E0.01732
G1 X112.253 Y102.359 E0.11309
G1 X112.253 Y101.816 E0.01732
G1 X109.747 Y99.310 E0.11309
G1 X109.747 Y98.767 E0.01732
G1 X112.253 Y101.273 E0.11309
G1 X112.253 Y100.731 E0.01732
G1 X109.747 Y98.225 E0.11309
G1 X109.747 Y97.682 E0.01732
G1 X112.253 Y100.188 E0.11309
G1 X112.253 Y99.645 E0.01732
G1 X109.747 Y97.139 E0.11309
G1 X109.747 Y96.596 E0.01732
G1 X112.253 Y99.103 E0.11309
G1 X112.253 Y98.560 E0.01732
G1 X109.747 Y96.054 E0.11309
G1 X109.747 Y95.511 E0.01732
G1 X112.253 Y98.017 E0.11309
M73 Q1 S79
G1 X112.253 Y97.474 E0.01732
G1 X109.747 Y94.968 E0.11309
G1 X109.747 Y94.426 E0.01732
G1 X112.253 Y96.932 E0.11309
G1 X112.253 Y96.389 E0.01732
G1 X109.747 Y93.883 E0.11309
M73 P1 R78
G1 X109.747 Y93.340 E0.01732
G1 X112.253 Y95.846 E0.11309
G1 X112.253 Y95.304 E0.01732
G1 X109.747 Y92.798 E0.11309
G1 X109.747 Y92.255 E0.01732
G1 X112.253 Y94.761 E0.11309
G1 X112.253 Y94.218 E0.01732
G1 X109.747 Y91.712 E0.11309
G1 X109.747 Y91.169 E0.01732
G1 X112.253 Y93.676 E0.11309
G1 X112.253 Y93.133 E0.01732
G1 X109.747 Y90.627 E0.11309
G1 X109.747 Y90.084 E0.01732
G1 X112.253 Y92.590 E0.11309
G1 X112.253 Y92.047 E0.01732
G1 X109.747 Y89.541 E0.11309
G1 X109.747 Y88.999 E0.01732
G1 X112.253 Y91.505 E0.11309
G1 X112.253 Y90.962 E0.01732
G1 X110.188 Y88.897 E0.09319
G1 X110.731 Y88.897 E0.01732
G1 X112.253 Y90.419 E0.06870
G1 X112.253 Y89.877 E0.01732
G1 X111.273 Y88.897 E0.04421
G1 X111.816 Y88.897 E0.01732
G1 X112.423 Y89.504 E0.02738
G1 F8640
G1 X111.816 Y88.897 E-0.19812
G1 X111.273 Y88.897 E-0.12531
G1 X112.253 Y89.877 E-0.31993
G1 X112.253 Y90.382 E-0.11663
G1 E-0.04000 F2100.00000
G1 Z0.800 F10800.000
G1 X120.786 Y112.214
G1 Z0.200
G1 E0.80000 F2100.00000
G1 F1200
G1 X120.786 Y115.286 E0.09631
G1 X109.464 Y115.286 E0.35498
G1 X109.464 Y108.014 E0.22800
G1 X112.536 Y108.014 E0.09631
G1 X112.536 Y112.214 E0.13169
G1 X120.726 Y112.214 E0.25679
G1 F8640
G1 X120.786 Y115.286 E-0.70940
G1 X120.567 Y115.286 E-0.05060
G1 E-0.04000 F2100.00000
G1 Z0.800 F10800.000
G1 X112.913 Y111.837
G1 Z0.200
G1 E0.80000 F2100.00000
G1 F1200
G1 X121.163 Y111.837 E0.25867
G1 X121.163 Y115.663 E0.11996
G1 X109.087 Y115.663 E0.37863
G1 X109.087 Y107.637 E0.25164
G1 X112.913 Y107.637 E0.11996
G1 X112.913 Y111.777 E0.12981
G1 X113.290 Y111.460 F10800.000
G1 F1200
G1 X121.540 Y111.460 E0.25867
G1 X121.540 Y116.040 E0.14360
G1 X108.710 Y116.040 E0.40228
G1 X108.710 Y107.260 E0.27529
G1 X113.290 Y107.260 E0.14360
G1 X113.290 Y111.400 E0.12981
G1 X113.399 Y111.845 F10800.000
G1 F8640
G1 X116.581 Y111.424 E-0.76000
G1 E-0.04000 F2100.00000
G1 Z0.800 F10800.000
G1 X112.423 Y108.622
G1 Z0.200
G1 E0.80000 F2100.00000
G1 F1200
G1 X112.098 Y108.297 E0.01457
G1 X111.559 Y108.297 E0.01709
G1 X112.253 Y108.991 E0.03113
G1 X112.253 Y109.530 E0.01709
G1 X111.020 Y108.297 E0.05529
G1 X110.481 Y108.297 E0.01709
G1 X112.253 Y110.069 E0.07946
G1 X112.253 Y110.609 E0.01709
G1 X109.941 Y108.297 E0.10362
G1 X109.747 Y108.297 E0.00616
G1 X109.747 Y108.642 E0.01092
G1 X112.253 Y111.148 E0.11234
G1 X112.253 Y111.687 E0.01709
G1 X109.747 Y109.181 E0.11234
G1 X109.747 Y109.720 E0.01709
G1 X115.030 Y115.003 E0.23683
G1 X115.569 Y115.003 E0.01709
G1 X113.063 Y112.497 E0.11234
G1 X113.602 Y112.497 E0.01709
G1 X116.108 Y115.003 E0.11234
G1 X116.648 Y115.003 E0.01709
G1 X114.141 Y112.497 E0.11234
G1 X114.681 Y112.497 E0.01709
G1 X117.187 Y115.003 E0.11234
G1 X117.726 Y115.003 E0.01709
G1 X115.220 Y112.497 E0.11234
G1 X115.759 Y112.497 E0.01709
G1 X118.265 Y115.003 E0.11234
G1 X118.804 Y115.003 E0.01709
G1 X116.298 Y112.497 E0.11234
G1 X116.837 Y112.497 E0.01709
G1 X119.343 Y115.003 E0.11234
G1 X119.882 Y115.003 E0.01709
G1 X117.376 Y112.497 E0.11234
G1 X117.915 Y112.497 E0.01709
G1 X120.421 Y115.003 E0.11234
G1 X120.503 Y115.003 E0.00260
G1 X120.503 Y114.546 E0.01449
G1 X118.454 Y112.497 E0.09184
G1 X118.993 Y112.497 E0.01709
G1 X120.503 Y114.007 E0.06768
G1 X120.503 Y113.468 E0.01709
G1 X119.532 Y112.497 E0.04351
G1 X120.071 Y112.497 E0.01709
G1 X120.673 Y113.098 E0.02695
G1 F8640
G1 X120.071 Y112.497 E-0.19636
G1 X119.532 Y112.497 E-0.12448
G1 X120.503 Y113.468 E-0.31698
G1 X120.503 Y113.997 E-0.12218
G1 E-0.04000 F2100.00000
G1 Z0.800 F10800.000
G1 X114.661 Y115.173
G1 Z0.200
G1 E0.80000 F2100.00000
G1 F1200
G1 X109.747 Y110.259 E0.22027
G1 X109.747 Y110.798 E0.01709
G1 X113.952 Y115.003 E0.18850
G1 X113.413 Y115.003 E0.01709
G1 X109.747 Y111.337 E0.16433
G1 X109.747 Y111.876 E0.01709
G1 X112.874 Y115.003 E0.14017
G1 X112.335 Y115.003 E0.01709
G1 X109.747 Y112.415 E0.11600
G1 X109.747 Y112.954 E0.01709
G1 X111.796 Y115.003 E0.09184
G1 X111.257 Y115.003 E0.01709
G1 X109.747 Y113.493 E0.06767
G1 X109.747 Y114.032 E0.01709
G1 X110.718 Y115.003 E0.04351
G1 X110.178 Y115.003 E0.01709
G1 X109.577 Y114.402 E0.02695
;BEFORE_LAYER_CHANGE
G92 E0.0
;0.4


G1 F8640
G1 X110.178 Y115.003 E-0.19631
G1 X110.718 Y115.003 E-0.12448
G1 X109.747 Y114.032 E-0.31694
G1 X109.747 Y113.503 E-0.12227
G1 E-0.04000 F2100.00000
G1 Z0.800 F10800.000
;AFTER_LAYER_CHANGE
;0.4
M104 S250 ; set temperature
M140 S90 ; set bed temperature
G1 X106.330 Y116.535
G1 Z0.400
G1 E0.80000 F2100.00000
G1 F3000
G1 X106.312 Y87.224 E0.91900
G1 X106.411 Y86.599 E0.01987
G1 X106.683 Y86.030 E0.01976
G1 X107.023 Y85.635 E0.01635
G1 X107.444 Y85.333 E0.01623
G1 X107.927 Y85.138 E0.01635
G1 X108.439 Y85.062 E0.01623
G1 X141.504 Y85.061 E1.03671
G1 X142.303 Y85.214 E0.02552
G1 X142.994 Y85.651 E0.02563
G1 X143.477 Y86.311 E0.02563
G1 X143.683 Y87.098 E0.02552
G1 X143.683 Y116.411 E0.91908
G1 X143.485 Y117.171 E0.02462
G1 X138.317 Y127.970 E0.37539
G1 X137.974 Y128.368 E0.01646
G1 X137.549 Y128.670 E0.01635
G1 X137.065 Y128.864 E0.01635
G1 X136.549 Y128.938 E0.01635
G1 X113.467 Y128.938 E0.72373
G1 X112.849 Y128.839 E0.01964
G1 X112.280 Y128.567 E0.01976
G1 X111.856 Y128.194 E0.01771
G1 X111.539 Y127.722 E0.01783
G1 X106.516 Y117.174 E0.36630
G1 X106.347 Y116.592 E0.01901
G1 F8640
G1 X106.343 Y113.301 E-0.76000
G1 E-0.04000 F2100.00000
G1 Z1.000 F10800.000
G1 X135.461 Y125.711
G1 Z0.400
G1 E0.80000 F2100.00000
M204 S800
G1 F2700
G1 X114.539 Y125.711 E0.70817
G1 X114.539 Y125.289 E0.01427
G1 X135.461 Y125.289 E0.70817
G1 X135.461 Y125.651 E0.01224
M204 S1000
G1 X135.868 Y126.118 F10800.000
M204 S800
G1 F2700
G1 X114.132 Y126.118 E0.73573
G1 X114.132 Y124.882 E0.04183
G1 X135.868 Y124.882 E0.73573
G1 X135.868 Y126.058 E0.03980
M204 S1000
G1 X136.275 Y126.525 F10800.000
M204 S800
G1 F1500
G1 X113.725 Y126.525 E0.76329
G1 X113.725 Y124.475 E0.06939
G1 X136.275 Y124.475 E0.76329
G1 X136.275 Y126.465 E0.06736
M204 S1000
G1 X135.875 Y126.513 F10800.000
G1 F8640
G1 X132.984 Y126.474 E-0.76000
G1 E-0.04000 F2100.00000
G1 Z1.000 F10800.000
G1 X137.539 Y115.211
G1 Z0.400
G1 E0.80000 F2100.00000
M204 S800
G1 F1500
G1 X137.539 Y108.089 E0.24106
G1 X140.461 Y108.089 E0.09890
G1 X140.461 Y115.211 E0.24106
G1 X137.599 Y115.211 E0.09686
M204 S1000
G1 X137.132 Y115.618 F10800.000
M204 S800
G1 F1500
G1 X137.132 Y107.682 E0.26862
G1 X140.868 Y107.682 E0.12645
G1 X140.868 Y115.618 E0.26862
G1 X137.192 Y115.618 E0.12442
M204 S1000
G1 X136.725 Y116.025 F10800.000
M204 S800
G1 F1500
G1 X136.725 Y107.275 E0.29618
G1 X141.275 Y107.275 E0.15401
G1 X141.275 Y116.025 E0.29618
G1 X136.785 Y116.025 E0.15198
M204 S1000
G1 X136.789 Y115.630 F10800.000
G1 F8640
G1 X136.762 Y112.734 E-0.76000
G1 E-0.04000 F2100.00000
G1 Z1.000 F10800.000
G1 X139.476 Y115.089
G1 Z0.400
G1 E0.80000 F2100.00000
M204 S1250
G1 F4800
G1 X140.156 Y114.409 E0.03403
G1 X140.156 Y113.807 E0.02133
G1 X139.057 Y114.906 E0.05502
G1 X138.455 Y114.906 E0.02133
G1 X140.156 Y113.205 E0.08518
G1 X140.156 Y112.602 E0.02133
G1 X137.852 Y114.906 E0.11534
G1 X137.844 Y114.311 E0.02105
