; generated by PrusaSlicer 2.0.0+win64 on 2019-09-06 at 09:38:48

; 

; external perimeters extrusion width = 0.45mm
; perimeters extrusion width = 0.45mm
; infill extrusion width = 0.45mm
; solid infill extrusion width = 0.45mm
; top infill extrusion width = 0.40mm
; first layer extrusion width = 0.42mm

M73 P0 R45
M73 Q0 S45
M201 X1000 Y1000 Z1000 E5000 ; sets maximum accelerations, mm/sec^2
M203 X200 Y200 Z12 E120 ; sets maximum feedrates, mm/sec
M204 P1250 R1250 T1250 ; sets acceleration (P, T) and retract acceleration (R), mm/sec^2
M205 X8.00 Y8.00 Z0.40 E1.50 ; sets the jerk limits, mm/sec
M205 S0 T0 ; sets the minimum extruding and travel feed rate, mm/sec
M107
M115 U3.7.2 ; tell printer latest fw version
G90 ; use absolute coordinates
M83 ; extruder relative mode
M104 S240 ; set extruder temp
M140 S85 ; set bed temp
Tx
M190 S85 ; wait for bed temp
M109 S240 ; wait for extruder temp
G28 W ; home all without mesh bed level
G80 ; mesh bed leveling

G21 ; set units to millimeters

;go outside print area
G1 Y-3.0 F1000.0
G1 Z0.4 F1000.0
; select extruder
Tc
; purge line
G1 X55.0 F2000.0
G1 Z0.3 F1000.0
G92 E0.0
G1 X240.0 E25.0 F2200.0
M73 Q0 S45
M73 P0 R45
G1 Y-2.0 F1000.0
G1 X55.0 E25 F1400.0
G1 Z0.20 F1000.0
G1 X5.0 E4.0 F1000.0

M221 S95
G92 E0.0
M900 K45 ; Filament gcode
G21 ; set units to millimeters
G90 ; use absolute coordinates
M83 ; use relative distances for extrusion
;BEFORE_LAYER_CHANGE
G92 E0.0
;0.2


G1 E-0.80000 F2100.00000
G1 Z0.600 F10800.000
;AFTER_LAYER_CHANGE
;0.2
G1 X102.286 Y94.222
G1 Z0.200
G1 E0.80000 F2100.00000
M204 S1000
G1 F1200
G1 X102.846 Y93.499 E0.02867
G1 X103.495 Y93.119 E0.02360
G1 X104.232 Y92.981 E0.02349
G1 X143.263 Y92.981 E1.22380
G1 X144.086 Y93.143 E0.02631
G1 X144.788 Y93.603 E0.02631
G1 X145.265 Y94.293 E0.02631
G1 X145.447 Y95.112 E0.02631
G1 X145.435 Y123.603 E0.89329
G1 X145.301 Y124.676 E0.03391
G1 X144.911 Y126.067 E0.04530
G1 X144.608 Y126.732 E0.02292
G1 X144.172 Y127.231 E0.02078
G1 X143.526 Y127.610 E0.02349
G1 X142.789 Y127.748 E0.02349
G1 X104.745 Y127.748 E1.19286
G1 X104.277 Y127.695 E0.01475
G1 X103.832 Y127.542 E0.01475
G1 X103.430 Y127.298 E0.01475
G1 X103.089 Y126.974 E0.01475
G1 X102.741 Y126.406 E0.02089
G1 X102.324 Y125.149 E0.04152
G1 X102.133 Y124.145 E0.03204
G1 X102.071 Y123.187 E0.03009
G1 X102.072 Y95.111 E0.88031
G1 X102.272 Y94.281 E0.02678
G1 F8640
G1 X102.846 Y93.499 E-0.22382
G1 X103.495 Y93.119 E-0.17382
G1 X104.232 Y92.981 E-0.17299
G1 X105.052 Y92.981 E-0.18937
G1 E-0.04000 F2100.00000
G1 Z0.800 F10800.000
G1 X141.891 Y123.290
G1 Z0.200
G1 E0.80000 F2100.00000
G1 F1200
G1 X141.635 Y123.290 E0.00802
G1 X141.635 Y122.858 E0.01356
G1 X141.724 Y122.144 E0.02254
G1 X141.724 Y96.805 E0.79449
G1 X105.795 Y96.805 E1.12651
G1 X105.795 Y122.144 E0.79449
G1 X105.884 Y122.858 E0.02254
G1 X105.884 Y123.290 E0.01356
G1 X105.628 Y123.290 E0.00802
G1 X105.624 Y96.534 E0.83893
G1 X141.895 Y96.534 E1.13727
G1 X141.893 Y123.230 E0.83705
G1 F8640
G1 X141.635 Y123.290 E-0.06107
G1 X141.635 Y122.858 E-0.09983
G1 X141.724 Y122.144 E-0.16599
G1 X141.724 Y120.268 E-0.43312
G1 E-0.04000 F2100.00000
G1 Z0.800 F10800.000
G1 X141.347 Y97.182
G1 Z0.200
G1 E0.80000 F2100.00000
G1 F1200
G1 X106.172 Y97.182 E1.10286
G1 X106.172 Y122.121 E0.78193
G1 X106.261 Y122.834 E0.02254
G1 X106.261 Y123.504 E0.02101
G1 X106.241 Y123.667 E0.00514
G1 X105.278 Y123.667 E0.03017
G1 X105.247 Y123.160 E0.01592
G1 X105.247 Y96.157 E0.84668
G1 X142.272 Y96.157 E1.16092
G1 X142.272 Y123.160 E0.84668
G1 X142.241 Y123.667 E0.01592
G1 X141.278 Y123.667 E0.03017
G1 X141.258 Y123.504 E0.00514
G1 X141.258 Y122.834 E0.02101
G1 X141.347 Y122.121 E0.02254
G1 X141.347 Y97.242 E0.78005
G1 X140.969 Y97.559 F10800.000
G1 F1200
G1 X106.549 Y97.559 E1.07921
G1 X106.549 Y122.098 E0.76938
G1 X106.638 Y122.811 E0.02254
G1 X106.638 Y123.528 E0.02247
G1 X106.574 Y124.044 E0.01632
G1 X104.945 Y124.044 E0.05107
G1 X104.881 Y123.524 E0.01642
G1 X104.869 Y123.166 E0.01124
G1 X104.869 Y95.779 E0.85869
G1 X142.649 Y95.779 E1.18456
G1 X142.649 Y123.166 E0.85869
G1 X142.638 Y123.524 E0.01124
G1 X142.574 Y124.044 E0.01642
G1 X140.945 Y124.044 E0.05107
G1 X140.881 Y123.528 E0.01632
G1 X140.881 Y122.811 E0.02247
G1 X140.969 Y122.098 E0.02254
G1 X140.969 Y97.619 E0.76750
G1 X140.970 Y97.159 F10800.000
;BEFORE_LAYER_CHANGE
G92 E0.0
;0.4


G1 F8640
G1 X137.678 Y97.614 E-0.76000
G1 E-0.04000 F2100.00000
G1 Z0.800 F10800.000
;AFTER_LAYER_CHANGE
;0.4
M104 S250 ; set temperature
M140 S90 ; set bed temperature
G1 X144.086 Y93.143
G1 Z0.400
G1 E0.80000 F2100.00000
G1 F3000
G1 X144.788 Y93.603 E0.02631
G1 X145.265 Y94.293 E0.02631
G1 X145.447 Y95.112 E0.02631
G1 X145.435 Y123.603 E0.89329
G1 X145.301 Y124.676 E0.03391
G1 X144.911 Y126.067 E0.04530
G1 X144.608 Y126.732 E0.02292
G1 X144.172 Y127.231 E0.02078
G1 X143.526 Y127.610 E0.02349
G1 X142.789 Y127.748 E0.02349
G1 X104.745 Y127.748 E1.19286
G1 X104.277 Y127.695 E0.01475
G1 X103.832 Y127.542 E0.01475
G1 X103.430 Y127.298 E0.01475
G1 X103.089 Y126.974 E0.01475
G1 X102.741 Y126.406 E0.02089
G1 X102.324 Y125.149 E0.04152
G1 X102.133 Y124.145 E0.03204
G1 X102.071 Y123.187 E0.03009
G1 X102.072 Y95.111 E0.88031
G1 X102.286 Y94.222 E0.02867
G1 X102.846 Y93.499 E0.02867
G1 X103.495 Y93.119 E0.02360
G1 X104.232 Y92.981 E0.02349
G1 X143.263 Y92.981 E1.22380
G1 X144.027 Y93.132 E0.02443
G1 F8640
G1 X144.788 Y93.603 E-0.20664
G1 X145.265 Y94.293 E-0.19374
G1 X145.447 Y95.112 E-0.19374
G1 X145.447 Y95.831 E-0.16589
G1 E-0.04000 F2100.00000
G1 Z1.000 F10800.000
G1 X141.945 Y124.002
G1 Z0.400
G1 E0.80000 F2100.00000
M204 S800
G1 F2700
G1 X141.578 Y124.002 E0.01243
G1 X141.508 Y123.447 E0.01894
G1 X141.500 Y123.186 E0.00884
G1 X141.538 Y122.578 E0.02060
G1 X141.657 Y121.943 E0.02187
G1 X141.799 Y121.441 E0.01765
G1 X141.799 Y96.930 E0.82967
G1 X105.720 Y96.930 E1.22121
G1 X105.720 Y121.441 E0.82967
G1 X105.862 Y121.943 E0.01765
G1 X105.981 Y122.578 E0.02187
G1 X106.019 Y123.186 E0.02060
G1 X106.011 Y123.447 E0.00884
G1 X105.941 Y124.002 E0.01894
G1 X105.574 Y124.002 E0.01243
G1 X105.539 Y123.776 E0.00773
G1 X105.499 Y123.137 E0.02169
G1 X105.499 Y96.409 E0.90472
G1 X142.020 Y96.409 E1.23621
G1 X142.020 Y123.137 E0.90472
G1 X141.954 Y123.943 E0.02737
M204 S1000
G1 F8640
G1 X141.578 Y124.002 E-0.08800
G1 X141.508 Y123.447 E-0.12920
G1 X141.500 Y123.186 E-0.06031
G1 X141.538 Y122.578 E-0.14052
G1 X141.657 Y121.943 E-0.14920
G1 X141.799 Y121.441 E-0.12040
G1 X141.799 Y121.128 E-0.07237
G1 E-0.04000 F2100.00000
G1 Z1.000 F10800.000
G1 X141.392 Y97.337
G1 Z0.400
G1 E0.80000 F2100.00000
M204 S800
G1 F2700
G1 X106.127 Y97.337 E1.19365
G1 X106.127 Y121.385 E0.81399
G1 X106.259 Y121.850 E0.01636
G1 X106.386 Y122.528 E0.02333
G1 X106.427 Y123.179 E0.02210
G1 X106.417 Y123.479 E0.01014
G1 X106.334 Y124.140 E0.02256
G1 X106.267 Y124.409 E0.00939
G1 X105.252 Y124.409 E0.03433
G1 X105.182 Y124.131 E0.00972
G1 X105.134 Y123.821 E0.01062
G1 X105.092 Y123.150 E0.02276
G1 X105.092 Y96.002 E0.91893
M73 Q2 S44
G1 X142.427 Y96.002 E1.26377
M73 P2 R44
G1 X142.427 Y123.150 E0.91893
G1 X142.385 Y123.821 E0.02276
G1 X142.337 Y124.131 E0.01062
G1 X142.267 Y124.409 E0.00972
G1 X141.252 Y124.409 E0.03433
G1 X141.185 Y124.140 E0.00939
G1 X141.102 Y123.479 E0.02256
G1 X141.092 Y123.179 E0.01014
G1 X141.133 Y122.528 E0.02210
G1 X141.260 Y121.850 E0.02333
G1 X141.392 Y121.385 E0.01636
G1 X141.392 Y97.397 E0.81196
M204 S1000
G1 X140.984 Y97.744 F10800.000
M204 S800
G1 F1500
G1 X106.534 Y97.744 E1.16609
G1 X106.534 Y121.329 E0.79830
G1 X106.655 Y121.757 E0.01507
G1 X106.790 Y122.477 E0.02480
G1 X106.834 Y123.173 E0.02359
G1 X106.824 Y123.510 E0.01143
G1 X106.735 Y124.215 E0.02404
G1 X106.584 Y124.816 E0.02097
G1 X104.935 Y124.816 E0.05582
G1 X104.783 Y124.212 E0.02109
G1 X104.729 Y123.865 E0.01189
G1 X104.684 Y123.162 E0.02383
G1 X104.684 Y95.594 E0.93314
G1 X142.834 Y95.594 E1.29133
G1 X142.834 Y123.162 E0.93314
G1 X142.790 Y123.865 E0.02383
G1 X142.736 Y124.212 E0.01189
G1 X142.584 Y124.816 E0.02109
G1 X140.935 Y124.816 E0.05582
G1 X140.784 Y124.215 E0.02097
G1 X140.695 Y123.510 E0.02404
G1 X140.685 Y123.173 E0.01143
G1 X140.728 Y122.477 E0.02359
G1 X140.864 Y121.757 E0.02480
G1 X140.984 Y121.329 E0.01507
G1 X140.984 Y97.804 E0.79627
M204 S1000
G1 X140.985 Y97.344 F10800.000
G1 F8640
G1 X137.693 Y97.799 E-0.76000
G1 E-0.04000 F2100.00000
G1 Z1.000 F10800.000
G1 X141.817 Y96.669
G1 Z0.400
G1 E0.80000 F2100.00000
G1 F2400
G1 X105.702 Y96.669 E0.34410
G1 F8640
G1 X108.994 Y96.669 E-0.76000
G1 E-0.04000 F2100.00000
G1 Z1.000 F10800.000
G1 X105.727 Y122.459
G1 Z0.400
G1 E0.80000 F2100.00000
G1 F2400
G1 X105.741 Y122.608 E0.00096
G1 X105.758 Y123.631 E0.00740
G1 F8640
G1 X105.741 Y122.608 E-0.23611
G1 E-0.56389 F2100.00000
G1 Z1.000 F10800.000
G1 X141.761 Y123.631
G1 Z0.400
G1 E0.80000 F2100.00000
G1 F2400
G1 X141.758 Y123.190 E0.00282
G1 X141.792 Y122.459 E0.00467
;BEFORE_LAYER_CHANGE
G92 E0.0
;0.6


G1 F8640
G1 X141.758 Y123.190 E-0.16890
G1 X141.761 Y123.631 E-0.10183
G1 E-0.52927 F2100.00000
G1 Z1.000 F10800.000
;AFTER_LAYER_CHANGE
;0.6
G1 X143.526 Y127.610
G1 Z0.600
G1 E0.80000 F2100.00000
G1 F3000
G1 X142.789 Y127.748 E0.02349
G1 X104.745 Y127.748 E1.19286
G1 X104.277 Y127.695 E0.01475
G1 X103.832 Y127.542 E0.01475
G1 X103.430 Y127.298 E0.01475
G1 X103.089 Y126.974 E0.01475
G1 X102.741 Y126.406 E0.02089
G1 X102.324 Y125.149 E0.04152
G1 X102.133 Y124.145 E0.03204
G1 X102.071 Y123.187 E0.03009
G1 X102.072 Y95.111 E0.88031
G1 X102.286 Y94.222 E0.02867
G1 X102.846 Y93.499 E0.02867
G1 X103.495 Y93.119 E0.02360
G1 X104.232 Y92.981 E0.02349
G1 X143.263 Y92.981 E1.22380
G1 X144.086 Y93.143 E0.02631
G1 X144.788 Y93.603 E0.02631
G1 X145.265 Y94.293 E0.02631
G1 X145.447 Y95.112 E0.02631
G1 X145.435 Y123.603 E0.89329
G1 X145.301 Y124.676 E0.03391
G1 X144.911 Y126.067 E0.04530
G1 X144.608 Y126.732 E0.02292
G1 X144.172 Y127.231 E0.02078
G1 X143.578 Y127.580 E0.02161
G1 F8640
G1 X142.789 Y127.748 E-0.18609
G1 X140.304 Y127.748 E-0.57391
G1 E-0.04000 F2100.00000
G1 Z1.200 F10800.000
G1 X142.014 Y124.521
G1 Z0.600
G1 E0.80000 F2100.00000
M204 S800
G1 F2700
G1 X141.500 Y124.521 E0.01741
G1 X141.384 Y124.043 E0.01665
G1 X141.310 Y123.450 E0.02021
G1 X141.310 Y122.888 E0.01903
G1 X141.382 Y122.311 E0.01969
G1 X141.538 Y121.685 E0.02186
G1 X141.799 Y120.960 E0.02606
G1 X141.799 Y97.130 E0.80661
G1 X105.720 Y97.130 E1.22121
G1 X105.720 Y120.960 E0.80661
G1 X105.981 Y121.685 E0.02606
G1 X106.137 Y122.311 E0.02186
G1 X106.209 Y122.888 E0.01969
G1 X106.209 Y123.450 E0.01903
G1 X106.135 Y124.043 E0.02021
G1 X106.019 Y124.521 E0.01665
G1 X105.505 Y124.521 E0.01741
G1 X105.378 Y124.012 E0.01774
G1 X105.337 Y123.751 E0.00895
G1 X105.299 Y123.137 E0.02083
G1 X105.299 Y96.209 E0.91149
G1 X142.220 Y96.209 E1.24975
G1 X142.220 Y123.137 E0.91149
G1 X142.182 Y123.751 E0.02083
G1 X142.141 Y124.012 E0.00895
G1 X142.029 Y124.463 E0.01571
M204 S1000
G1 F8640
G1 X141.500 Y124.521 E-0.12283
G1 X141.384 Y124.043 E-0.11359
G1 X141.310 Y123.450 E-0.13783
G1 X141.310 Y122.888 E-0.12980
G1 X141.382 Y122.311 E-0.13429
G1 X141.509 Y121.800 E-0.12167
G1 E-0.04000 F2100.00000
G1 Z1.200 F10800.000
G1 X141.392 Y97.537
G1 Z0.600
G1 E0.80000 F2100.00000
M204 S800
G1 F2700
G1 X106.127 Y97.537 E1.19365
G1 X106.127 Y120.889 E0.79043
G1 X106.371 Y121.566 E0.02435
G1 X106.538 Y122.236 E0.02338
G1 X106.616 Y122.863 E0.02137
G1 X106.616 Y123.476 E0.02075
G1 X106.537 Y124.112 E0.02169
G1 X106.467 Y124.429 E0.01100
G1 X106.315 Y124.928 E0.01765
G1 X105.204 Y124.928 E0.03761
G1 X105.148 Y124.773 E0.00558
G1 X104.979 Y124.093 E0.02371
G1 X104.932 Y123.795 E0.01020
G1 X104.892 Y123.150 E0.02190
G1 X104.892 Y95.802 E0.92570
G1 X142.627 Y95.802 E1.27731
G1 X142.627 Y123.150 E0.92570
G1 X142.587 Y123.795 E0.02190
G1 X142.540 Y124.093 E0.01020
G1 X142.371 Y124.773 E0.02371
G1 X142.315 Y124.928 E0.00558
G1 X141.204 Y124.928 E0.03761
G1 X141.052 Y124.429 E0.01765
G1 X140.982 Y124.112 E0.01100
G1 X140.902 Y123.476 E0.02169
G1 X140.902 Y122.863 E0.02075
G1 X140.981 Y122.236 E0.02137
G1 X141.148 Y121.566 E0.02338
G1 X141.392 Y120.889 E0.02435
G1 X141.392 Y97.597 E0.78840
M204 S1000
G1 X140.984 Y97.944 F10800.000
M204 S800
G1 F1500
G1 X106.534 Y97.944 E1.16609
G1 X106.534 Y120.818 E0.77425
G1 X106.761 Y121.448 E0.02265
G1 X106.939 Y122.162 E0.02490
G1 X107.024 Y122.837 E0.02306
G1 X107.024 Y123.501 E0.02247
G1 X106.938 Y124.181 E0.02317
G1 X106.863 Y124.527 E0.01201
G1 X106.762 Y124.888 E0.01268
G1 X106.601 Y125.335 E0.01608
G1 X104.918 Y125.335 E0.05699
G1 X104.758 Y124.891 E0.01597
G1 X104.579 Y124.174 E0.02501
G1 X104.527 Y123.840 E0.01145
G1 X104.484 Y123.162 E0.02297
G1 X104.484 Y95.394 E0.93991
G1 X143.034 Y95.394 E1.30487
G1 X143.034 Y123.162 E0.93991
G1 X142.992 Y123.840 E0.02297
G1 X142.940 Y124.174 E0.01145
G1 X142.761 Y124.891 E0.02501
G1 X142.601 Y125.335 E0.01597
G1 X140.918 Y125.335 E0.05699
G1 X140.757 Y124.888 E0.01608
G1 X140.656 Y124.527 E0.01268
G1 X140.581 Y124.181 E0.01201
G1 X140.495 Y123.501 E0.02317
G1 X140.495 Y122.837 E0.02247
G1 X140.580 Y122.162 E0.02306
G1 X140.758 Y121.448 E0.02490
G1 X140.984 Y120.818 E0.02265
G1 X140.984 Y98.004 E0.77222
M204 S1000
G1 X140.986 Y97.544 F10800.000
G1 F8640
G1 X137.693 Y97.999 E-0.76000
G1 E-0.04000 F2100.00000
G1 Z1.200 F10800.000
G1 X141.952 Y97.008
G1 Z0.600
G1 E0.80000 F2100.00000
M204 S1250
G1 F4800
G1 X141.458 Y96.514 E0.02367
G1 X140.882 Y96.514 E0.01950
G1 X141.193 Y96.825 E0.01490
G1 X140.617 Y96.825 E0.01950
G1 X140.306 Y96.514 E0.01490
G1 X139.730 Y96.514 E0.01950
G1 X140.041 Y96.825 E0.01490
G1 X139.465 Y96.825 E0.01950
G1 X139.154 Y96.514 E0.01490
G1 X138.578 Y96.514 E0.01950
G1 X138.889 Y96.825 E0.01490
G1 X138.313 Y96.825 E0.01950
G1 X138.002 Y96.514 E0.01490
G1 X137.426 Y96.514 E0.01950
G1 X137.738 Y96.825 E0.01490
G1 X137.162 Y96.825 E0.01950
G1 X136.851 Y96.514 E0.01490
G1 X136.275 Y96.514 E0.01950
G1 X136.586 Y96.825 E0.01490
G1 X136.010 Y96.825 E0.01950
G1 X135.699 Y96.514 E0.01490
G1 X135.123 Y96.514 E0.01950
G1 X135.434 Y96.825 E0.01490
G1 X134.858 Y96.825 E0.01950
G1 X134.547 Y96.514 E0.01490
G1 X133.971 Y96.514 E0.01950
G1 X134.282 Y96.825 E0.01490
G1 X133.706 Y96.825 E0.01950
G1 X133.395 Y96.514 E0.01490
G1 X132.819 Y96.514 E0.01950
G1 X133.130 Y96.825 E0.01490
G1 X132.554 Y96.825 E0.01950
G1 X132.243 Y96.514 E0.01490
G1 X131.667 Y96.514 E0.01950
G1 X131.978 Y96.825 E0.01490
G1 X131.402 Y96.825 E0.01950
G1 X131.091 Y96.514 E0.01490
G1 X130.515 Y96.514 E0.01950
G1 X130.826 Y96.825 E0.01490
G1 X130.250 Y96.825 E0.01950
G1 X129.939 Y96.514 E0.01490
G1 X129.363 Y96.514 E0.01950
G1 X129.674 Y96.825 E0.01490
G1 X129.098 Y96.825 E0.01950
G1 X128.787 Y96.514 E0.01490
G1 X128.211 Y96.514 E0.01950
G1 X128.522 Y96.825 E0.01490
G1 X127.947 Y96.825 E0.01950
G1 X127.635 Y96.514 E0.01490
G1 X127.060 Y96.514 E0.01950
G1 X127.371 Y96.825 E0.01490
G1 X126.795 Y96.825 E0.01950
G1 X126.484 Y96.514 E0.01490
G1 X125.908 Y96.514 E0.01950
G1 X126.219 Y96.825 E0.01490
G1 X125.643 Y96.825 E0.01950
G1 X125.332 Y96.514 E0.01490
G1 X124.756 Y96.514 E0.01950
G1 X125.067 Y96.825 E0.01490
G1 X124.491 Y96.825 E0.01950
G1 X124.180 Y96.514 E0.01490
G1 X123.604 Y96.514 E0.01950
G1 X123.915 Y96.825 E0.01490
G1 X123.339 Y96.825 E0.01950
G1 X123.028 Y96.514 E0.01490
G1 X122.452 Y96.514 E0.01950
G1 X122.763 Y96.825 E0.01490
G1 X122.187 Y96.825 E0.01950
G1 X121.876 Y96.514 E0.01490
G1 X121.300 Y96.514 E0.01950
G1 X121.611 Y96.825 E0.01490
G1 X121.035 Y96.825 E0.01950
G1 X120.724 Y96.514 E0.01490
G1 X120.148 Y96.514 E0.01950
G1 X120.459 Y96.825 E0.01490
G1 X119.883 Y96.825 E0.01950
G1 X119.572 Y96.514 E0.01490
G1 X118.996 Y96.514 E0.01950
G1 X119.307 Y96.825 E0.01490
G1 X118.731 Y96.825 E0.01950
G1 X118.420 Y96.514 E0.01490
G1 X117.844 Y96.514 E0.01950
G1 X118.155 Y96.825 E0.01490
G1 X117.580 Y96.825 E0.01950
G1 X117.268 Y96.514 E0.01490
G1 X116.693 Y96.514 E0.01950
G1 X117.004 Y96.825 E0.01490
G1 X116.428 Y96.825 E0.01950
G1 X116.117 Y96.514 E0.01490
G1 X115.541 Y96.514 E0.01950
G1 X115.852 Y96.825 E0.01490
G1 X115.276 Y96.825 E0.01950
G1 X114.965 Y96.514 E0.01490
G1 X114.389 Y96.514 E0.01950
G1 X114.700 Y96.825 E0.01490
