; generated by PrusaSlicer 2.0.0+win64 on 2019-09-06 at 09:35:50

; 

; external perimeters extrusion width = 0.45mm
; perimeters extrusion width = 0.45mm
; infill extrusion width = 0.45mm
; solid infill extrusion width = 0.45mm
; top infill extrusion width = 0.40mm
; first layer extrusion width = 0.42mm

M73 P0 R13
M73 Q0 S13
M201 X1000 Y1000 Z1000 E5000 ; sets maximum accelerations, mm/sec^2
M203 X200 Y200 Z12 E120 ; sets maximum feedrates, mm/sec
M204 P1250 R1250 T1250 ; sets acceleration (P, T) and retract acceleration (R), mm/sec^2
M205 X8.00 Y8.00 Z0.40 E1.50 ; sets the jerk limits, mm/sec
M205 S0 T0 ; sets the minimum extruding and travel feed rate, mm/sec
M107
M115 U3.7.2 ; tell printer latest fw version
G90 ; use absolute coordinates
M83 ; extruder relative mode
M104 S240 ; set extruder temp
M140 S85 ; set bed temp
Tx
M190 S85 ; wait for bed temp
M109 S240 ; wait for extruder temp
G28 W ; home all without mesh bed level
G80 ; mesh bed leveling

G21 ; set units to millimeters

;go outside print area
G1 Y-3.0 F1000.0
G1 Z0.4 F1000.0
; select extruder
Tc
; purge line
G1 X55.0 F2000.0
G1 Z0.3 F1000.0
G92 E0.0
G1 X240.0 E25.0 F2200.0
M73 Q0 S13
M73 P0 R13
G1 Y-2.0 F1000.0
G1 X55.0 E25 F1400.0
G1 Z0.20 F1000.0
G1 X5.0 E4.0 F1000.0

M221 S95
G92 E0.0
M900 K45 ; Filament gcode
G21 ; set units to millimeters
G90 ; use absolute coordinates
M83 ; use relative distances for extrusion
;BEFORE_LAYER_CHANGE
G92 E0.0
;0.2


G1 E-0.80000 F2100.00000
G1 Z0.600 F10800.000
;AFTER_LAYER_CHANGE
;0.2
G1 X122.343 Y78.533
G1 Z0.200
G1 E0.80000 F2100.00000
M204 S1000
G1 F1200
G1 X123.202 Y78.664 E0.02727
G1 X126.212 Y79.741 E0.10023
G1 X126.699 Y79.996 E0.01722
G1 X127.216 Y80.430 E0.02117
G1 X129.277 Y82.859 E0.09988
G1 X129.690 Y83.560 E0.02551
G1 X135.973 Y103.945 E0.66883
G1 X136.478 Y106.626 E0.08555
G1 X136.615 Y108.109 E0.04669
G1 X136.649 Y109.599 E0.04673
G1 X136.457 Y112.316 E0.08540
G1 X136.202 Y113.823 E0.04795
G1 X135.501 Y116.434 E0.08475
G1 X134.982 Y117.830 E0.04669
G1 X134.371 Y119.183 E0.04658
G1 X133.030 Y121.534 E0.08486
G1 X132.176 Y122.750 E0.04658
G1 X131.238 Y123.908 E0.04672
G1 X129.341 Y125.847 E0.08505
G1 X128.213 Y126.802 E0.04635
G1 X127.015 Y127.682 E0.04661
G1 X124.698 Y129.073 E0.08471
G1 X123.342 Y129.721 E0.04715
G1 X121.974 Y130.264 E0.04615
G1 X119.356 Y131.029 E0.08551
G1 X117.875 Y131.311 E0.04726
G1 X116.239 Y131.453 E0.05147
G1 X115.511 Y131.237 E0.02383
G1 X114.903 Y130.787 E0.02372
G1 X114.484 Y130.157 E0.02372
G1 X114.305 Y129.418 E0.02383
G1 X113.374 Y86.241 E1.35410
G1 X113.483 Y85.752 E0.01572
G1 X114.586 Y82.679 E0.10236
G1 X114.913 Y82.118 E0.02035
G1 X115.285 Y81.713 E0.01725
G1 X117.721 Y79.648 E0.10015
G1 X118.325 Y79.294 E0.02195
G1 X118.850 Y79.128 E0.01725
G1 X122.283 Y78.543 E0.10921
G1 F8640
G1 X123.202 Y78.664 E-0.21400
G1 X125.429 Y79.461 E-0.54600
G1 E-0.04000 F2100.00000
G1 Z0.800 F10800.000
G1 X123.704 Y88.066
G1 Z0.200
G1 E0.80000 F2100.00000
G1 F1200
G1 X123.485 Y88.388 E0.01221
G1 X123.210 Y88.664 E0.01221
G1 X122.889 Y88.884 E0.01221
G1 X122.518 Y89.045 E0.01269
G1 X122.038 Y89.137 E0.01532
G1 X121.633 Y89.125 E0.01269
G1 X121.253 Y89.041 E0.01221
G1 X120.896 Y88.887 E0.01221
G1 X120.573 Y88.669 E0.01221
G1 X120.298 Y88.394 E0.01221
G1 X120.078 Y88.072 E0.01221
G1 X119.917 Y87.701 E0.01269
G1 X119.825 Y87.222 E0.01532
G1 X119.837 Y86.817 E0.01269
G1 X119.921 Y86.437 E0.01221
G1 X120.075 Y86.079 E0.01221
G1 X120.293 Y85.757 E0.01221
G1 X120.568 Y85.481 E0.01221
G1 X120.890 Y85.262 E0.01221
G1 X121.261 Y85.101 E0.01269
G1 X121.740 Y85.008 E0.01532
G1 X122.145 Y85.020 E0.01269
G1 X122.525 Y85.104 E0.01221
G1 X122.882 Y85.258 E0.01221
G1 X123.205 Y85.477 E0.01221
G1 X123.481 Y85.752 E0.01221
G1 X123.700 Y86.073 E0.01221
G1 X123.861 Y86.444 E0.01269
G1 X123.954 Y86.924 E0.01532
G1 X123.942 Y87.328 E0.01269
G1 X123.857 Y87.709 E0.01221
G1 X123.727 Y88.011 E0.01033
G1 X123.371 Y87.884 F10800.000
G1 F1200
G1 X123.193 Y88.148 E0.00997
G1 X122.968 Y88.373 E0.00997
G1 X122.706 Y88.552 E0.00997
G1 X122.406 Y88.683 E0.01026
G1 X122.008 Y88.759 E0.01271
G1 X121.680 Y88.749 E0.01026
G1 X121.370 Y88.681 E0.00997
G1 X121.078 Y88.555 E0.00997
G1 X120.814 Y88.377 E0.00997
G1 X120.589 Y88.152 E0.00997
G1 X120.410 Y87.889 E0.00997
G1 X120.279 Y87.589 E0.01026
G1 X120.203 Y87.191 E0.01271
G1 X120.212 Y86.864 E0.01026
G1 X120.281 Y86.553 E0.00997
G1 X120.407 Y86.261 E0.00997
G1 X120.585 Y85.998 E0.00997
G1 X120.810 Y85.773 E0.00997
G1 X121.073 Y85.593 E0.00997
G1 X121.373 Y85.463 E0.01026
G1 X121.771 Y85.386 E0.01271
G1 X122.098 Y85.396 E0.01026
G1 X122.408 Y85.465 E0.00997
G1 X122.701 Y85.591 E0.00997
G1 X122.964 Y85.769 E0.00997
G1 X123.189 Y85.993 E0.00997
G1 X123.368 Y86.256 E0.00997
G1 X123.499 Y86.556 E0.01026
G1 X123.576 Y86.954 E0.01271
G1 X123.566 Y87.282 E0.01026
G1 X123.497 Y87.592 E0.00997
G1 X123.395 Y87.829 E0.00809
G1 X123.039 Y87.702 F10800.000
G1 F1200
G1 X122.901 Y87.907 E0.00774
G1 X122.727 Y88.081 E0.00774
G1 X122.523 Y88.220 E0.00774
G1 X122.293 Y88.320 E0.00784
G1 X121.977 Y88.381 E0.01010
G1 X121.727 Y88.374 E0.00784
G1 X121.486 Y88.320 E0.00774
G1 X121.260 Y88.223 E0.00774
G1 X121.055 Y88.084 E0.00774
G1 X120.881 Y87.910 E0.00774
G1 X120.741 Y87.706 E0.00774
G1 X120.642 Y87.477 E0.00784
G1 X120.581 Y87.161 E0.01010
G1 X120.588 Y86.911 E0.00784
G1 X120.642 Y86.670 E0.00774
G1 X120.739 Y86.443 E0.00774
G1 X120.878 Y86.239 E0.00774
G1 X121.052 Y86.064 E0.00774
G1 X121.256 Y85.925 E0.00774
G1 X121.485 Y85.825 E0.00784
G1 X121.801 Y85.764 E0.01010
G1 X122.051 Y85.772 E0.00784
G1 X122.292 Y85.825 E0.00774
G1 X122.519 Y85.923 E0.00774
G1 X122.723 Y86.061 E0.00774
G1 X122.898 Y86.235 E0.00774
G1 X123.037 Y86.439 E0.00774
G1 X123.137 Y86.669 E0.00784
G1 X123.197 Y86.985 E0.01010
G1 X123.190 Y87.235 E0.00784
G1 X123.137 Y87.476 E0.00774
G1 X123.063 Y87.647 E0.00585
G1 X123.167 Y87.913 F10800.000
G1 F8640
G1 X122.901 Y87.907 E-0.07063
G1 X122.727 Y88.081 E-0.05697
G1 X122.523 Y88.220 E-0.05697
G1 X122.293 Y88.320 E-0.05774
G1 X121.977 Y88.381 E-0.07437
G1 X121.727 Y88.374 E-0.05774
G1 X121.486 Y88.320 E-0.05697
G1 X121.260 Y88.223 E-0.05698
G1 X121.055 Y88.084 E-0.05697
G1 X120.881 Y87.910 E-0.05698
G1 X120.741 Y87.706 E-0.05697
G1 X120.642 Y87.477 E-0.05774
G1 X120.607 Y87.294 E-0.04296
G1 E-0.04000 F2100.00000
G1 Z0.800 F10800.000
G1 X124.973 Y87.943
G1 Z0.200
G1 E0.80000 F2100.00000
G1 F1200
G1 X124.966 Y87.999 E0.00177
G1 X131.305 Y101.409 E0.46505
G1 X131.786 Y102.517 E0.03787
G1 X132.189 Y103.638 E0.03739
G1 X132.521 Y104.784 E0.03739
G1 X132.778 Y105.948 E0.03739
G1 X132.961 Y107.126 E0.03739
G1 X133.067 Y108.314 E0.03739
G1 X133.098 Y109.506 E0.03739
G1 X133.052 Y110.697 E0.03738
G1 X132.930 Y111.884 E0.03739
G1 X132.733 Y113.060 E0.03739
G1 X132.460 Y114.220 E0.03738
G1 X132.114 Y115.361 E0.03739
G1 X131.696 Y116.478 E0.03739
G1 X131.208 Y117.566 E0.03738
G1 X130.650 Y118.620 E0.03739
G1 X130.027 Y119.636 E0.03739
G1 X129.339 Y120.610 E0.03739
G1 X128.591 Y121.539 E0.03738
G1 X127.785 Y122.417 E0.03739
G1 X126.924 Y123.243 E0.03738
G1 X126.013 Y124.011 E0.03739
G1 X125.054 Y124.720 E0.03739
G1 X124.052 Y125.366 E0.03739
G1 X123.010 Y125.946 E0.03739
G1 X121.933 Y126.459 E0.03739
G1 X120.826 Y126.902 E0.03739
G1 X119.693 Y127.273 E0.03739
G1 X118.539 Y127.571 E0.03739
G1 X117.853 Y127.702 E0.02188
G1 X117.853 Y122.823 E0.15296
G1 X118.354 Y122.694 E0.01622
G1 X119.197 Y122.418 E0.02781
G1 X120.021 Y122.089 E0.02782
G1 X120.822 Y121.707 E0.02782
G1 X121.597 Y121.275 E0.02782
G1 X122.342 Y120.795 E0.02781
G1 X123.056 Y120.267 E0.02781
G1 X123.734 Y119.696 E0.02782
G1 X124.374 Y119.082 E0.02781
G1 X124.974 Y118.428 E0.02782
G1 X125.531 Y117.737 E0.02781
G1 X125.947 Y117.147 E0.02264
G1 X126.504 Y116.260 E0.03282
G1 X126.921 Y115.472 E0.02797
G1 X127.284 Y114.663 E0.02782
G1 X127.596 Y113.832 E0.02782
G1 X127.853 Y112.983 E0.02781
G1 X128.056 Y112.119 E0.02782
G1 X128.203 Y111.244 E0.02782
G1 X128.293 Y110.362 E0.02781
G1 X128.327 Y109.476 E0.02781
G1 X128.305 Y108.589 E0.02782
G1 X128.225 Y107.705 E0.02781
G1 X128.089 Y106.828 E0.02782
G1 X127.898 Y105.962 E0.02781
G1 X127.651 Y105.110 E0.02781
G1 X127.351 Y104.275 E0.02782
G1 X127.004 Y103.476 E0.02733
G1 X120.652 Y90.038 E0.46602
G1 X120.015 Y89.636 E0.02362
G1 X119.881 Y89.532 E0.00530
G1 X119.577 Y89.247 E0.01308
G1 X119.191 Y88.789 E0.01878
G1 X118.752 Y88.540 E0.01583
G1 X118.855 Y88.101 E0.01412
G1 X118.701 Y87.250 E0.02711
G1 X118.448 Y86.764 E0.01719
G1 X118.748 Y86.447 E0.01369
G1 X119.040 Y85.633 E0.02711
G1 X119.060 Y85.079 E0.01737
G1 X119.411 Y85.009 E0.01125
G1 X120.136 Y84.407 E0.02953
G1 X120.354 Y84.096 E0.01190
G1 X120.394 Y83.929 E0.00540
G1 X120.860 Y84.039 E0.01503
G1 X121.711 Y83.885 E0.02711
G1 X122.201 Y83.626 E0.01737
G1 X122.437 Y83.895 E0.01125
G1 X123.321 Y84.221 E0.02953
G1 X123.699 Y84.255 E0.01190
G1 X123.864 Y84.206 E0.00540
G1 X124.002 Y84.665 E0.01503
G1 X124.561 Y85.325 E0.02711
G1 X125.007 Y85.618 E0.01672
G1 X124.928 Y86.077 E0.01460
G1 X125.037 Y86.666 E0.01878
G1 X125.064 Y87.082 E0.01309
G1 X125.059 Y87.251 E0.00530
G1 X124.980 Y87.883 E0.01997
G1 X125.354 Y87.937 F10800.000
G1 F1200
G1 X131.648 Y101.253 E0.46181
G1 X132.136 Y102.377 E0.03844
G1 X132.548 Y103.522 E0.03814
G1 X132.886 Y104.691 E0.03814
G1 X133.149 Y105.878 E0.03814
G1 X133.335 Y107.081 E0.03814
G1 X133.444 Y108.292 E0.03814
G1 X133.475 Y109.508 E0.03814
G1 X133.428 Y110.724 E0.03814
G1 X133.304 Y111.934 E0.03814
G1 X133.103 Y113.134 E0.03814
G1 X132.825 Y114.318 E0.03814
G1 X132.472 Y115.482 E0.03814
G1 X132.045 Y116.622 E0.03814
G1 X131.547 Y117.731 E0.03814
G1 X130.978 Y118.807 E0.03814
G1 X130.342 Y119.844 E0.03814
G1 X129.640 Y120.838 E0.03814
G1 X128.877 Y121.785 E0.03814
G1 X128.055 Y122.681 E0.03814
G1 X127.177 Y123.523 E0.03814
G1 X126.246 Y124.307 E0.03814
G1 X125.268 Y125.030 E0.03814
G1 X124.246 Y125.689 E0.03814
G1 X123.183 Y126.282 E0.03814
G1 X122.085 Y126.805 E0.03814
G1 X120.955 Y127.257 E0.03814
G1 X119.799 Y127.635 E0.03814
G1 X118.621 Y127.939 E0.03814
G1 X117.476 Y128.157 E0.03655
G1 X117.476 Y122.531 E0.17641
G1 X118.248 Y122.332 E0.02500
G1 X119.068 Y122.063 E0.02706
G1 X119.870 Y121.743 E0.02706
G1 X120.649 Y121.372 E0.02706
G1 X121.403 Y120.952 E0.02706
G1 X122.128 Y120.484 E0.02706
G1 X122.822 Y119.971 E0.02706
G1 X123.482 Y119.415 E0.02706
G1 X124.105 Y118.818 E0.02706
G1 X124.688 Y118.182 E0.02706
G1 X125.230 Y117.510 E0.02706
G1 X125.633 Y116.938 E0.02195
G1 X126.177 Y116.072 E0.03207
G1 X126.582 Y115.306 E0.02715
G1 X126.936 Y114.519 E0.02706
G1 X127.238 Y113.711 E0.02706
G1 X127.489 Y112.885 E0.02706
G1 X127.686 Y112.045 E0.02706
G1 X127.829 Y111.194 E0.02706
G1 X127.917 Y110.335 E0.02706
G1 X127.950 Y109.473 E0.02706
G1 X127.928 Y108.610 E0.02706
G1 X127.851 Y107.751 E0.02706
G1 X127.719 Y106.898 E0.02706
G1 X127.532 Y106.055 E0.02706
G1 X127.293 Y105.226 E0.02706
G1 X127.000 Y104.414 E0.02706
G1 X126.660 Y103.631 E0.02676
G1 X120.358 Y90.298 E0.46240
G1 X119.799 Y89.945 E0.02074
G1 X119.637 Y89.820 E0.00642
G1 X119.303 Y89.507 E0.01434
G1 X118.946 Y89.083 E0.01738
G1 X118.645 Y88.912 E0.01084
G1 X118.325 Y88.897 E0.01004
G1 X118.082 Y88.980 E0.00806
G1 X117.483 Y89.369 E0.02239
G1 X117.299 Y89.410 E0.00590
G1 X116.905 Y89.429 E0.01239
G1 X117.106 Y89.195 E0.00966
G1 X117.345 Y89.006 E0.00956
G1 X118.037 Y88.791 E0.02273
G1 X118.368 Y88.525 E0.01332
G1 X118.470 Y88.091 E0.01396
G1 X118.340 Y87.371 E0.02294
G1 X118.176 Y87.044 E0.01147
G1 X117.771 Y86.819 E0.01453
G1 X116.983 Y86.867 E0.02475
G1 X116.745 Y86.802 E0.00772
G1 X116.395 Y86.621 E0.01239
G1 X116.686 Y86.519 E0.00966
G1 X116.987 Y86.475 E0.00956
G1 X117.694 Y86.635 E0.02273
G1 X118.114 Y86.569 E0.01331
G1 X118.419 Y86.245 E0.01396
G1 X118.666 Y85.557 E0.02294
G1 X118.687 Y85.191 E0.01147
G1 X118.451 Y84.796 E0.01444
G1 X117.731 Y84.429 E0.02534
G1 X117.615 Y84.319 E0.00501
G1 X117.461 Y84.116 E0.00800
G1 X117.363 Y83.935 E0.00644
G1 X117.743 Y84.017 E0.01219
G1 X117.917 Y84.088 E0.00590
G1 X118.506 Y84.622 E0.02492
G1 X118.862 Y84.734 E0.01172
G1 X119.244 Y84.658 E0.01220
G1 X119.856 Y84.149 E0.02496
G1 X120.004 Y83.938 E0.00807
G1 X120.079 Y83.627 E0.01004
G1 X119.997 Y83.289 E0.01089
G1 X119.623 Y82.734 E0.02100
G1 X119.563 Y82.546 E0.00618
G1 X119.532 Y82.290 E0.00809
G1 X119.531 Y82.087 E0.00637
G1 X119.767 Y82.290 E0.00974
G1 X119.956 Y82.528 E0.00956
G1 X120.171 Y83.221 E0.02273
G1 X120.437 Y83.551 E0.01332
G1 X120.871 Y83.654 E0.01396
G1 X121.591 Y83.524 E0.02294
G1 X121.918 Y83.359 E0.01147
G1 X122.143 Y82.954 E0.01453
G1 X122.095 Y82.166 E0.02475
G1 X122.160 Y81.929 E0.00772
G1 X122.341 Y81.578 E0.01239
G1 X122.443 Y81.869 E0.00966
G1 X122.483 Y82.084 E0.00687
G1 X122.486 Y82.206 E0.00382
G1 X122.320 Y82.917 E0.02289
G1 X122.401 Y83.282 E0.01172
G1 X122.658 Y83.574 E0.01220
G1 X123.405 Y83.850 E0.02496
G1 X123.661 Y83.873 E0.00807
G1 X123.968 Y83.782 E0.01004
G1 X124.220 Y83.543 E0.01089
G1 X124.514 Y82.941 E0.02100
G1 X124.647 Y82.795 E0.00618
G1 X124.852 Y82.640 E0.00809
G1 X125.028 Y82.538 E0.00637
G1 X124.970 Y82.843 E0.00974
G1 X124.858 Y83.127 E0.00956
G1 X124.366 Y83.659 E0.02273
G1 X124.213 Y84.055 E0.01332
G1 X124.341 Y84.481 E0.01396
G1 X124.814 Y85.040 E0.02294
G1 X125.119 Y85.241 E0.01147
G1 X125.580 Y85.233 E0.01444
G1 X126.258 Y84.794 E0.02534
G1 X126.411 Y84.748 E0.00501
G1 X126.664 Y84.716 E0.00800
G1 X126.870 Y84.721 E0.00644
G1 X126.609 Y85.010 E0.01219
G1 X126.460 Y85.125 E0.00590
G1 X125.780 Y85.341 E0.02239
G1 X125.561 Y85.477 E0.00806
G1 X125.370 Y85.733 E0.01004
G1 X125.311 Y86.074 E0.01084
G1 X125.412 Y86.619 E0.01738
G1 X125.442 Y87.076 E0.01434
G1 X125.435 Y87.280 E0.00642
G1 X125.361 Y87.877 E0.01886
G1 X125.741 Y87.875 F10800.000
G1 F1200
G1 X131.992 Y101.097 E0.45856
G1 X132.487 Y102.238 E0.03900
G1 X132.907 Y103.406 E0.03890
G1 X133.252 Y104.597 E0.03890
G1 X133.520 Y105.809 E0.03890
G1 X133.710 Y107.035 E0.03890
G1 X133.821 Y108.271 E0.03890
G1 X133.852 Y109.511 E0.03890
G1 X133.805 Y110.751 E0.03890
G1 X133.678 Y111.985 E0.03890
G1 X133.473 Y113.208 E0.03890
G1 X133.189 Y114.416 E0.03890
G1 X132.829 Y115.603 E0.03890
G1 X132.394 Y116.765 E0.03890
G1 X131.886 Y117.897 E0.03890
G1 X131.306 Y118.994 E0.03890
G1 X130.657 Y120.051 E0.03890
G1 X129.942 Y121.065 E0.03890
G1 X129.319 Y121.837 E0.03109
G1 X129.163 Y122.031 E0.00781
G1 X128.324 Y122.945 E0.03890
G1 X127.429 Y123.804 E0.03890
G1 X126.480 Y124.603 E0.03890
G1 X125.483 Y125.341 E0.03890
G1 X124.440 Y126.013 E0.03890
G1 X123.356 Y126.617 E0.03890
G1 X122.236 Y127.150 E0.03890
G1 X121.084 Y127.611 E0.03890
G1 X119.905 Y127.997 E0.03890
G1 X118.704 Y128.307 E0.03890
G1 X117.485 Y128.540 E0.03890
G1 X117.099 Y128.588 E0.01219
G1 X117.099 Y122.224 E0.19955
G1 X118.142 Y121.970 E0.03367
G1 X118.940 Y121.709 E0.02630
G1 X119.719 Y121.397 E0.02630
G1 X120.476 Y121.037 E0.02630
G1 X121.209 Y120.628 E0.02630
G1 X121.914 Y120.174 E0.02630
G1 X122.588 Y119.675 E0.02630
G1 X123.230 Y119.135 E0.02630
G1 X123.835 Y118.554 E0.02630
G1 X124.402 Y117.936 E0.02630
G1 X124.929 Y117.283 E0.02630
G1 X125.319 Y116.729 E0.02125
G1 X125.850 Y115.883 E0.03131
G1 X126.243 Y115.141 E0.02633
G1 X126.587 Y114.376 E0.02630
G1 X126.881 Y113.590 E0.02630
G1 X127.124 Y112.787 E0.02630
G1 X127.316 Y111.971 E0.02630
G1 X127.455 Y111.143 E0.02630
G1 X127.541 Y110.309 E0.02630
G1 X127.573 Y109.471 E0.02630
G1 X127.551 Y108.632 E0.02630
G1 X127.476 Y107.797 E0.02630
G1 X127.348 Y106.968 E0.02630
G1 X127.167 Y106.149 E0.02630
G1 X126.934 Y105.343 E0.02630
G1 X126.650 Y104.553 E0.02630
G1 X126.317 Y103.787 E0.02620
G1 X120.064 Y90.559 E0.45877
G1 X119.582 Y90.254 E0.01787
G1 X119.392 Y90.107 E0.00753
G1 X119.029 Y89.767 E0.01560
G1 X118.700 Y89.378 E0.01597
G1 X118.537 Y89.284 E0.00590
G1 X118.379 Y89.277 E0.00495
G1 X118.251 Y89.321 E0.00424
G1 X117.711 Y89.685 E0.02044
G1 X117.355 Y89.784 E0.01157
G1 X117.000 Y89.811 E0.01118
G1 X116.706 Y89.796 E0.00922
G1 X116.348 Y89.741 E0.01136
G1 X116.313 Y89.661 E0.00272
G1 X116.584 Y89.223 E0.01619
G1 X116.839 Y88.928 E0.01221
G1 X117.052 Y88.745 E0.00880
G1 X117.186 Y88.660 E0.00497
