; generated by PrusaSlicer 2.0.0+win64 on 2019-08-20 at 10:18:25

; 

; external perimeters extrusion width = 0.45mm
; perimeters extrusion width = 0.45mm
; infill extrusion width = 0.45mm
; solid infill extrusion width = 0.45mm
; top infill extrusion width = 0.40mm
; first layer extrusion width = 0.42mm

M73 P0 R38
M73 Q0 S38
M201 X1000 Y1000 Z1000 E5000 ; sets maximum accelerations, mm/sec^2
M203 X200 Y200 Z12 E120 ; sets maximum feedrates, mm/sec
M204 P1250 R1250 T1250 ; sets acceleration (P, T) and retract acceleration (R), mm/sec^2
M205 X8.00 Y8.00 Z0.40 E1.50 ; sets the jerk limits, mm/sec
M205 S0 T0 ; sets the minimum extruding and travel feed rate, mm/sec
M107
M115 U3.7.2 ; tell printer latest fw version
G90 ; use absolute coordinates
M83 ; extruder relative mode
M104 S240 ; set extruder temp
M140 S85 ; set bed temp
Tx
M190 S85 ; wait for bed temp
M109 S240 ; wait for extruder temp
G28 W ; home all without mesh bed level
G80 ; mesh bed leveling

G21 ; set units to millimeters

;go outside print area
G1 Y-3.0 F1000.0
G1 Z0.4 F1000.0
; select extruder
Tc
; purge line
G1 X55.0 F2000.0
G1 Z0.3 F1000.0
G92 E0.0
G1 X240.0 E25.0 F2200.0
M73 Q0 S38
M73 P0 R38
G1 Y-2.0 F1000.0
G1 X55.0 E25 F1400.0
G1 Z0.20 F1000.0
G1 X5.0 E4.0 F1000.0

M221 S95
G92 E0.0
M900 K45 ; Filament gcode
G21 ; set units to millimeters
G90 ; use absolute coordinates
M83 ; use relative distances for extrusion
;BEFORE_LAYER_CHANGE
G92 E0.0
;0.2


G1 E-0.80000 F2100.00000
G1 Z0.600 F10800.000
;AFTER_LAYER_CHANGE
;0.2
G1 X108.365 Y94.142
G1 Z0.200
G1 E0.80000 F2100.00000
M204 S1000
G1 F1200
G1 X109.071 Y94.035 E0.02238
G1 X142.596 Y94.034 E1.05117
G1 X143.688 Y94.128 E0.03436
G1 X144.166 Y94.315 E0.01610
G1 X144.598 Y94.593 E0.01610
G1 X144.974 Y94.961 E0.01647
G1 X145.264 Y95.394 E0.01635
G1 X145.463 Y95.880 E0.01647
G1 X145.557 Y96.393 E0.01635
G1 X145.561 Y113.904 E0.54906
G1 X145.455 Y114.495 E0.01882
G1 X145.213 Y115.048 E0.01894
G1 X144.851 Y115.527 E0.01882
G1 X144.384 Y115.910 E0.01894
G1 X143.796 Y116.189 E0.02042
G1 X143.160 Y116.311 E0.02029
G1 X110.065 Y118.065 E1.03913
G1 X108.875 Y118.056 E0.03731
G1 X108.194 Y117.900 E0.02189
G1 X107.483 Y117.492 E0.02570
G1 X106.940 Y116.884 E0.02557
G1 X106.645 Y116.247 E0.02202
G1 X106.535 Y115.553 E0.02202
G1 X106.536 Y96.513 E0.59699
G1 X106.630 Y95.904 E0.01931
G1 X106.869 Y95.333 E0.01943
G1 X107.238 Y94.835 E0.01943
G1 X107.716 Y94.440 E0.01943
G1 X108.310 Y94.167 E0.02050
G1 F8640
G1 X109.071 Y94.035 E-0.17821
G1 X111.590 Y94.035 E-0.58179
G1 E-0.04000 F2100.00000
G1 Z0.800 F10800.000
G1 X144.931 Y95.569
G1 Z0.200
G1 E0.80000 F2100.00000
G1 F1200
G1 X145.182 Y96.437 E0.02833
G1 X145.185 Y113.867 E0.54650
G1 X145.096 Y114.381 E0.01635
G1 X144.887 Y114.858 E0.01635
G1 X144.571 Y115.273 E0.01635
G1 X144.166 Y115.602 E0.01635
G1 X143.671 Y115.833 E0.01714
G1 X143.134 Y115.934 E0.01714
G1 X110.065 Y117.688 E1.03831
G1 X108.936 Y117.682 E0.03540
G1 X108.355 Y117.558 E0.01862
G1 X107.727 Y117.204 E0.02259
G1 X107.248 Y116.666 E0.02259
G1 X107.002 Y116.122 E0.01873
G1 X106.912 Y115.535 E0.01862
G1 X106.913 Y96.531 E0.59587
G1 X106.995 Y96.001 E0.01680
G1 X107.202 Y95.511 E0.01669
G1 X107.521 Y95.085 E0.01669
G1 X107.934 Y94.748 E0.01669
G1 X108.485 Y94.500 E0.01896
G1 X109.080 Y94.412 E0.01885
G1 X142.596 Y94.411 E1.05089
G1 X143.564 Y94.485 E0.03043
G1 X144.350 Y94.877 E0.02754
G1 X144.892 Y95.523 E0.02645
G1 F8640
G1 X145.182 Y96.437 E-0.22137
G1 X145.183 Y98.770 E-0.53863
G1 E-0.04000 F2100.00000
G1 Z0.800 F10800.000
G1 X114.036 Y112.786
G1 Z0.200
G1 E0.80000 F2100.00000
G1 F1200
G1 X110.464 Y112.786 E0.11199
G1 X110.464 Y97.964 E0.46472
G1 X114.036 Y97.964 E0.11199
G1 X114.036 Y112.726 E0.46284
G1 X114.413 Y113.163 F10800.000
G1 F1200
G1 X110.087 Y113.163 E0.13563
G1 X110.087 Y97.587 E0.48837
G1 X114.413 Y97.587 E0.13563
G1 X114.413 Y113.103 E0.48649
G1 F8640
G1 X111.122 Y113.149 E-0.76000
G1 E-0.04000 F2100.00000
G1 Z0.800 F10800.000
G1 X138.964 Y112.786
G1 Z0.200
G1 E0.80000 F2100.00000
G1 F1200
G1 X138.964 Y97.964 E0.46472
G1 X141.636 Y97.964 E0.08377
G1 X141.636 Y112.786 E0.46472
G1 X139.024 Y112.786 E0.08189
G1 X138.587 Y113.163 F10800.000
G1 F1200
G1 X138.587 Y97.587 E0.48837
G1 X142.013 Y97.587 E0.10741
G1 X142.013 Y113.163 E0.48837
G1 X138.647 Y113.163 E0.10553
G1 F8640
G1 X138.634 Y109.872 E-0.76000
G1 E-0.04000 F2100.00000
G1 Z0.800 F10800.000
G1 X138.210 Y97.540
G1 Z0.200
G1 E0.80000 F2100.00000
G1 F1200
G1 X114.790 Y97.540 E0.73432
G1 X114.790 Y113.540 E0.50167
G1 X109.790 Y113.540 E0.15677
G1 X109.790 Y114.890 E0.04233
G1 X109.710 Y114.890 E0.00251
G1 X109.710 Y97.210 E0.55434
G1 X142.390 Y97.210 E1.02466
G1 X142.390 Y113.540 E0.51202
G1 X138.210 Y113.540 E0.13106
G1 X138.210 Y97.600 E0.49979
G1 X138.176 Y97.141 F10800.000
G1 F8640
G1 X134.919 Y97.592 E-0.76000
G1 E-0.04000 F2100.00000
G1 Z0.800 F10800.000
G1 X141.523 Y98.842
G1 Z0.200
G1 E0.80000 F2100.00000
G1 F1200
G1 X140.928 Y98.247 E0.02646
G1 X140.393 Y98.247 E0.01682
G1 X141.353 Y99.207 E0.04271
G1 X141.353 Y99.742 E0.01682
G1 X139.858 Y98.247 E0.06650
G1 X139.323 Y98.247 E0.01682
G1 X141.353 Y100.277 E0.09029
G1 X141.353 Y100.812 E0.01682
G1 X139.247 Y98.706 E0.09367
G1 X139.247 Y99.241 E0.01682
G1 X141.353 Y101.347 E0.09367
G1 X141.353 Y101.882 E0.01682
G1 X139.247 Y99.775 E0.09367
G1 X139.247 Y100.310 E0.01682
G1 X141.353 Y102.416 E0.09367
G1 X141.353 Y102.951 E0.01682
G1 X139.247 Y100.845 E0.09367
G1 X139.247 Y101.380 E0.01682
G1 X141.353 Y103.486 E0.09367
G1 X141.353 Y104.021 E0.01682
G1 X139.247 Y101.915 E0.09367
G1 X139.247 Y102.450 E0.01682
G1 X141.353 Y104.556 E0.09367
G1 X141.353 Y105.091 E0.01682
G1 X139.247 Y102.985 E0.09367
G1 X139.247 Y103.520 E0.01682
G1 X141.353 Y105.626 E0.09367
G1 X141.353 Y106.161 E0.01682
G1 X139.247 Y104.055 E0.09367
G1 X139.247 Y104.589 E0.01682
G1 X141.353 Y106.696 E0.09367
G1 X141.353 Y107.230 E0.01682
G1 X139.247 Y105.124 E0.09367
G1 X139.247 Y105.659 E0.01682
G1 X141.353 Y107.765 E0.09367
G1 X141.353 Y108.300 E0.01682
G1 X139.247 Y106.194 E0.09367
G1 X139.247 Y106.729 E0.01682
G1 X141.353 Y108.835 E0.09367
G1 X141.353 Y109.370 E0.01682
G1 X139.247 Y107.264 E0.09367
G1 X139.247 Y107.799 E0.01682
G1 X141.353 Y109.905 E0.09367
G1 X141.353 Y110.440 E0.01682
G1 X139.247 Y108.334 E0.09367
G1 X139.247 Y108.869 E0.01682
G1 X141.353 Y110.975 E0.09367
G1 X141.353 Y111.510 E0.01682
G1 X139.247 Y109.403 E0.09367
G1 X139.247 Y109.938 E0.01682
G1 X141.353 Y112.044 E0.09367
G1 X141.353 Y112.503 E0.01442
G1 X141.277 Y112.503 E0.00240
G1 X139.247 Y110.473 E0.09028
G1 X139.247 Y111.008 E0.01682
G1 X140.742 Y112.503 E0.06649
G1 X140.207 Y112.503 E0.01682
G1 X139.247 Y111.543 E0.04270
G1 X139.247 Y112.078 E0.01682
G1 X139.842 Y112.673 E0.02646
G1 F8640
G1 X139.247 Y112.078 E-0.19425
G1 X139.247 Y111.543 E-0.12351
G1 X140.207 Y112.503 E-0.31351
G1 X140.742 Y112.503 E-0.12351
G1 X140.726 Y112.487 E-0.00523
G1 E-0.04000 F2100.00000
G1 Z0.800 F10800.000
G1 X110.577 Y111.892
G1 Z0.200
G1 E0.80000 F2100.00000
G1 F1200
G1 X111.189 Y112.503 E0.02776
G1 X111.735 Y112.503 E0.01752
G1 X110.747 Y111.515 E0.04484
G1 X110.747 Y110.969 E0.01752
G1 X112.281 Y112.503 E0.06962
G1 X112.827 Y112.503 E0.01752
G1 X110.747 Y110.423 E0.09441
G1 X110.747 Y109.877 E0.01752
G1 X113.373 Y112.503 E0.11919
G1 X113.753 Y112.503 E0.01221
G1 X113.753 Y112.338 E0.00531
G1 X110.747 Y109.331 E0.13647
G1 X110.747 Y108.786 E0.01752
G1 X113.753 Y111.792 E0.13647
G1 X113.753 Y111.246 E0.01752
G1 X110.747 Y108.240 E0.13647
G1 X110.747 Y107.694 E0.01752
G1 X113.753 Y110.700 E0.13647
G1 X113.753 Y110.154 E0.01752
G1 X110.747 Y107.148 E0.13647
G1 X110.747 Y106.602 E0.01752
G1 X113.753 Y109.608 E0.13647
G1 X113.753 Y109.062 E0.01752
G1 X110.747 Y106.056 E0.13647
G1 X110.747 Y105.510 E0.01752
G1 X113.753 Y108.516 E0.13647
G1 X113.753 Y107.970 E0.01752
G1 X110.747 Y104.964 E0.13647
G1 X110.747 Y104.418 E0.01752
G1 X113.753 Y107.424 E0.13647
G1 X113.753 Y106.878 E0.01752
G1 X110.747 Y103.872 E0.13647
G1 X110.747 Y103.326 E0.01752
G1 X113.753 Y106.332 E0.13647
G1 X113.753 Y105.786 E0.01752
G1 X110.747 Y102.780 E0.13647
G1 X110.747 Y102.234 E0.01752
G1 X113.753 Y105.240 E0.13647
G1 X113.753 Y104.694 E0.01752
G1 X110.747 Y101.688 E0.13647
G1 X110.747 Y101.142 E0.01752
G1 X113.753 Y104.148 E0.13647
G1 X113.753 Y103.602 E0.01752
G1 X110.747 Y100.596 E0.13647
G1 X110.747 Y100.050 E0.01752
G1 X113.753 Y103.056 E0.13647
G1 X113.753 Y102.511 E0.01752
G1 X110.747 Y99.504 E0.13647
G1 X110.747 Y98.958 E0.01752
G1 X113.753 Y101.965 E0.13647
G1 X113.753 Y101.419 E0.01752
G1 X110.747 Y98.412 E0.13647
G1 X110.747 Y98.247 E0.00531
G1 X111.127 Y98.247 E0.01221
G1 X113.753 Y100.873 E0.11920
G1 X113.753 Y100.327 E0.01752
G1 X111.673 Y98.247 E0.09441
G1 X112.219 Y98.247 E0.01752
G1 X113.753 Y99.781 E0.06963
G1 X113.753 Y99.235 E0.01752
G1 X112.765 Y98.247 E0.04485
G1 X113.311 Y98.247 E0.01752
G1 X113.923 Y98.859 E0.02776
;BEFORE_LAYER_CHANGE
G92 E0.0
;0.4


G1 F8640
G1 X113.311 Y98.247 E-0.19972
G1 X112.765 Y98.247 E-0.12606
G1 X113.753 Y99.235 E-0.32258
G1 X113.753 Y99.718 E-0.11164
G1 E-0.04000 F2100.00000
G1 Z0.800 F10800.000
;AFTER_LAYER_CHANGE
;0.4
M104 S250 ; set temperature
M140 S90 ; set bed temperature
G1 X108.365 Y94.142
G1 Z0.400
G1 E0.80000 F2100.00000
G1 F2843
G1 X109.071 Y94.035 E0.02238
G1 X142.596 Y94.034 E1.05117
G1 X143.688 Y94.128 E0.03436
G1 X144.166 Y94.315 E0.01610
G1 X144.598 Y94.593 E0.01610
G1 X144.974 Y94.961 E0.01647
G1 X145.264 Y95.394 E0.01635
G1 X145.463 Y95.880 E0.01647
G1 X145.557 Y96.393 E0.01635
G1 X145.561 Y113.904 E0.54906
G1 X145.455 Y114.495 E0.01882
G1 X145.213 Y115.048 E0.01894
G1 X144.851 Y115.527 E0.01882
G1 X144.384 Y115.910 E0.01894
G1 X143.796 Y116.189 E0.02042
G1 X143.160 Y116.311 E0.02029
G1 X110.065 Y118.065 E1.03913
G1 X108.875 Y118.056 E0.03731
G1 X108.194 Y117.900 E0.02189
G1 X107.483 Y117.492 E0.02570
G1 X106.940 Y116.884 E0.02557
G1 X106.645 Y116.247 E0.02202
G1 X106.535 Y115.553 E0.02202
G1 X106.536 Y96.513 E0.59699
G1 X106.630 Y95.904 E0.01931
G1 X106.869 Y95.333 E0.01943
G1 X107.238 Y94.835 E0.01943
G1 X107.716 Y94.440 E0.01943
G1 X108.310 Y94.167 E0.02050
G1 F8640
G1 X109.071 Y94.035 E-0.17821
G1 X111.590 Y94.035 E-0.58179
G1 E-0.04000 F2100.00000
G1 Z1.000 F10800.000
G1 X113.961 Y112.711
G1 Z0.400
G1 E0.80000 F2100.00000
M204 S800
G1 F1500
G1 X110.339 Y112.711 E0.12259
G1 X110.339 Y97.839 E0.50339
G1 X113.961 Y97.839 E0.12259
G1 X113.961 Y112.651 E0.50136
M204 S1000
G1 X114.368 Y113.118 F10800.000
M204 S800
G1 F1500
G1 X109.932 Y113.118 E0.15015
G1 X109.932 Y97.432 E0.53095
M73 Q2 S37
G1 X114.368 Y97.432 E0.15015
M73 P2 R37
G1 X114.368 Y113.058 E0.52892
M204 S1000
G1 F8640
G1 X111.077 Y113.102 E-0.76000
G1 E-0.04000 F2100.00000
G1 Z1.000 F10800.000
G1 X139.039 Y112.711
G1 Z0.400
G1 E0.80000 F2100.00000
M204 S800
G1 F1500
G1 X139.039 Y97.839 E0.50339
G1 X141.761 Y97.839 E0.09213
G1 X141.761 Y112.711 E0.50339
G1 X139.099 Y112.711 E0.09009
M204 S1000
G1 X138.632 Y113.118 F10800.000
M204 S800
G1 F1500
G1 X138.632 Y97.432 E0.53095
G1 X142.168 Y97.432 E0.11968
G1 X142.168 Y113.118 E0.53095
G1 X138.692 Y113.118 E0.11765
M204 S1000
G1 F8640
G1 X138.679 Y109.827 E-0.76000
G1 E-0.04000 F2100.00000
G1 Z1.000 F10800.000
G1 X138.225 Y97.525
G1 Z0.400
G1 E0.80000 F2100.00000
M204 S800
G1 F1500
G1 X114.775 Y97.525 E0.79375
G1 X114.775 Y113.525 E0.54158
G1 X109.775 Y113.525 E0.16924
G1 X109.775 Y115.075 E0.05247
G1 X109.525 Y115.075 E0.00846
G1 X109.525 Y97.025 E0.61097
G1 X142.575 Y97.025 E1.11870
G1 X142.575 Y113.525 E0.55851
G1 X138.225 Y113.525 E0.14724
G1 X138.225 Y97.585 E0.53955
M204 S1000
G1 X138.190 Y97.127 F10800.000
G1 X138.429 Y97.275
G1 F2400
G1 X114.571 Y97.275 E0.18434
G1 F8640
G1 X117.863 Y97.275 E-0.76000
G1 E-0.04000 F2100.00000
G1 Z1.000 F10800.000
G1 X111.296 Y97.961
G1 Z0.400
G1 E0.80000 F2100.00000
M204 S1250
G1 F2843
G1 X110.644 Y98.612 E0.03159
G1 X110.644 Y99.196 E0.02001
G1 X111.696 Y98.144 E0.05101
G1 X112.279 Y98.144 E0.02001
G1 X110.644 Y99.779 E0.07931
G1 X110.644 Y100.363 E0.02001
G1 X112.863 Y98.144 E0.10762
G1 X113.446 Y98.144 E0.02001
G1 X110.644 Y100.946 E0.13592
G1 X110.644 Y101.530 E0.02001
G1 X113.656 Y98.519 E0.14608
G1 X113.656 Y99.102 E0.02001
G1 X110.644 Y102.113 E0.14608
G1 X110.644 Y102.696 E0.02001
G1 X113.656 Y99.685 E0.14608
G1 X113.656 Y100.269 E0.02001
G1 X110.644 Y103.280 E0.14608
G1 X110.644 Y103.863 E0.02001
G1 X113.656 Y100.852 E0.14608
G1 X113.656 Y101.436 E0.02001
G1 X110.644 Y104.447 E0.14608
G1 X110.644 Y105.030 E0.02001
G1 X113.656 Y102.019 E0.14608
G1 X113.656 Y102.603 E0.02001
G1 X110.644 Y105.614 E0.14608
G1 X110.644 Y106.197 E0.02001
G1 X113.656 Y103.186 E0.14608
G1 X113.656 Y103.769 E0.02001
G1 X110.644 Y106.780 E0.14608
G1 X110.644 Y107.364 E0.02001
G1 X113.656 Y104.353 E0.14608
G1 X113.656 Y104.936 E0.02001
G1 X110.644 Y107.947 E0.14608
G1 X110.644 Y108.531 E0.02001
G1 X113.656 Y105.520 E0.14608
G1 X113.656 Y106.103 E0.02001
G1 X110.644 Y109.114 E0.14608
G1 X110.644 Y109.698 E0.02001
G1 X113.656 Y106.687 E0.14608
G1 X113.656 Y107.270 E0.02001
G1 X110.644 Y110.281 E0.14608
G1 X110.644 Y110.865 E0.02001
G1 X113.656 Y107.853 E0.14608
G1 X113.656 Y108.437 E0.02001
G1 X110.644 Y111.448 E0.14608
G1 X110.644 Y112.031 E0.02001
G1 X113.656 Y109.020 E0.14608
G1 X113.656 Y109.604 E0.02001
G1 X110.854 Y112.406 E0.13592
G1 X111.437 Y112.406 E0.02001
G1 X113.656 Y110.187 E0.10762
G1 X113.656 Y110.771 E0.02001
G1 X112.021 Y112.406 E0.07932
G1 X112.604 Y112.406 E0.02001
G1 X113.656 Y111.354 E0.05101
G1 X113.656 Y111.937 E0.02001
G1 X113.004 Y112.589 E0.03160
M204 S1000
G1 F8640
G1 X113.656 Y111.937 E-0.21269
G1 X113.656 Y111.354 E-0.13472
G1 X112.604 Y112.406 E-0.34339
G1 X112.304 Y112.406 E-0.06921
G1 E-0.04000 F2100.00000
G1 Z1.000 F10800.000
G1 X140.790 Y112.589
G1 Z0.400
G1 E0.80000 F2100.00000
M204 S1250
G1 F2843
G1 X141.456 Y111.924 E0.03278
G1 X141.456 Y111.331 E0.02065
G1 X140.381 Y112.406 E0.05295
G1 X139.788 Y112.406 E0.02065
G1 X141.456 Y110.738 E0.08216
G1 X141.456 Y110.146 E0.02065
G1 X139.344 Y112.257 E0.10403
G1 X139.344 Y111.664 E0.02065
G1 X141.456 Y109.553 E0.10403
G1 X141.456 Y108.960 E0.02065
G1 X139.344 Y111.072 E0.10403
G1 X139.344 Y110.479 E0.02065
G1 X141.456 Y108.368 E0.10403
G1 X141.456 Y107.775 E0.02065
G1 X139.344 Y109.886 E0.10403
G1 X139.344 Y109.294 E0.02065
G1 X141.456 Y107.183 E0.10403
G1 X141.456 Y106.590 E0.02065
G1 X139.344 Y108.701 E0.10403
G1 X139.344 Y108.108 E0.02065
G1 X141.456 Y105.997 E0.10403
G1 X141.456 Y105.405 E0.02065
G1 X139.344 Y107.516 E0.10403
G1 X139.344 Y106.923 E0.02065
G1 X141.456 Y104.812 E0.10403
G1 X141.456 Y104.219 E0.02065
G1 X139.344 Y106.330 E0.10403
G1 X139.344 Y105.738 E0.02065
G1 X141.456 Y103.627 E0.10403
G1 X141.456 Y103.034 E0.02065
G1 X139.344 Y105.145 E0.10403
G1 X139.344 Y104.553 E0.02065
G1 X141.456 Y102.441 E0.10403
G1 X141.456 Y101.849 E0.02065
G1 X139.344 Y103.960 E0.10403
G1 X139.344 Y103.367 E0.02065
G1 X141.456 Y101.256 E0.10403
G1 X141.456 Y100.664 E0.02065
G1 X139.344 Y102.775 E0.10403
G1 X139.344 Y102.182 E0.02065
G1 X141.456 Y100.071 E0.10403
G1 X141.456 Y99.478 E0.02065
G1 X139.344 Y101.589 E0.10403
G1 X139.344 Y100.997 E0.02065
G1 X141.456 Y98.886 E0.10403
G1 X141.456 Y98.293 E0.02065
G1 X139.344 Y100.404 E0.10403
G1 X139.344 Y99.812 E0.02065
G1 X141.012 Y98.144 E0.08215
G1 X140.419 Y98.144 E0.02065
G1 X139.344 Y99.219 E0.05295
G1 X139.344 Y98.626 E0.02065
G1 X140.009 Y97.961 E0.03277
M204 S1000
;BEFORE_LAYER_CHANGE
G92 E0.0
;0.6


G1 F8640
G1 X139.344 Y98.626 E-0.21715
G1 X139.344 Y99.219 E-0.13684
G1 X140.419 Y98.144 E-0.35086
G1 X140.658 Y98.144 E-0.05515
G1 E-0.04000 F2100.00000
G1 Z1.000 F10800.000
;AFTER_LAYER_CHANGE
;0.6
G1 X143.688 Y94.128
G1 Z0.600
G1 E0.80000 F2100.00000
G1 F2817
G1 X144.166 Y94.315 E0.01610
G1 X144.598 Y94.593 E0.01610
G1 X144.974 Y94.961 E0.01647
G1 X145.264 Y95.394 E0.01635
G1 X145.463 Y95.880 E0.01647
G1 X145.557 Y96.393 E0.01635
G1 X145.561 Y113.904 E0.54906
G1 X145.455 Y114.495 E0.01882
G1 X145.213 Y115.048 E0.01894
G1 X144.851 Y115.527 E0.01882
G1 X144.384 Y115.910 E0.01894
G1 X143.796 Y116.189 E0.02042
G1 X143.160 Y116.311 E0.02029
