; generated by PrusaSlicer 2.0.0+win64 on 2019-09-06 at 09:41:48

; 

; external perimeters extrusion width = 0.45mm
; perimeters extrusion width = 0.45mm
; infill extrusion width = 0.45mm
; solid infill extrusion width = 0.45mm
; top infill extrusion width = 0.40mm
; first layer extrusion width = 0.42mm

M73 P0 R38
M73 Q0 S38
M201 X1000 Y1000 Z1000 E5000 ; sets maximum accelerations, mm/sec^2
M203 X200 Y200 Z12 E120 ; sets maximum feedrates, mm/sec
M204 P1250 R1250 T1250 ; sets acceleration (P, T) and retract acceleration (R), mm/sec^2
M205 X8.00 Y8.00 Z0.40 E1.50 ; sets the jerk limits, mm/sec
M205 S0 T0 ; sets the minimum extruding and travel feed rate, mm/sec
M107
M115 U3.7.2 ; tell printer latest fw version
G90 ; use absolute coordinates
M83 ; extruder relative mode
M104 S240 ; set extruder temp
M140 S85 ; set bed temp
Tx
M190 S85 ; wait for bed temp
M109 S240 ; wait for extruder temp
G28 W ; home all without mesh bed level
G80 ; mesh bed leveling

G21 ; set units to millimeters

;go outside print area
G1 Y-3.0 F1000.0
G1 Z0.4 F1000.0
; select extruder
Tc
; purge line
G1 X55.0 F2000.0
G1 Z0.3 F1000.0
G92 E0.0
G1 X240.0 E25.0 F2200.0
M73 Q0 S38
M73 P0 R38
G1 Y-2.0 F1000.0
G1 X55.0 E25 F1400.0
G1 Z0.20 F1000.0
G1 X5.0 E4.0 F1000.0

M221 S95
G92 E0.0
M900 K45 ; Filament gcode
G21 ; set units to millimeters
G90 ; use absolute coordinates
M83 ; use relative distances for extrusion
;BEFORE_LAYER_CHANGE
G92 E0.0
;0.2


G1 E-0.80000 F2100.00000
G1 Z0.600 F10800.000
;AFTER_LAYER_CHANGE
;0.2
G1 X105.202 Y94.770
G1 Z0.200
G1 E0.80000 F2100.00000
M204 S1000
G1 F1200
G1 X105.711 Y94.382 E0.02005
G1 X106.318 Y94.127 E0.02066
G1 X106.975 Y94.035 E0.02079
G1 X140.904 Y94.034 E1.06383
G1 X141.850 Y94.217 E0.03022
G1 X142.665 Y94.738 E0.03034
G1 X143.229 Y95.525 E0.03034
G1 X143.462 Y96.460 E0.03022
G1 X143.461 Y115.654 E0.60182
G1 X143.347 Y116.271 E0.01968
G1 X143.084 Y116.846 E0.01980
G1 X142.689 Y117.339 E0.01980
G1 X142.189 Y117.718 E0.01968
G1 X141.284 Y118.037 E0.03010
G1 X139.897 Y118.064 E0.04349
G1 X106.817 Y116.309 E1.03867
G1 X106.205 Y116.189 E0.01956
G1 X105.643 Y115.927 E0.01943
G1 X105.158 Y115.536 E0.01956
G1 X104.783 Y115.042 E0.01943
G1 X104.529 Y114.442 E0.02042
G1 X104.435 Y113.798 E0.02042
G1 X104.437 Y96.485 E0.54282
G1 X104.545 Y95.855 E0.02005
G1 X104.805 Y95.271 E0.02005
G1 X105.165 Y94.817 E0.01817
G1 X105.458 Y95.050 F10800.000
G1 F1200
G1 X105.915 Y94.699 E0.01806
G1 X106.431 Y94.487 E0.01749
G1 X106.983 Y94.412 E0.01749
G1 X140.904 Y94.411 E1.06355
G1 X141.717 Y94.570 E0.02597
G1 X142.410 Y95.016 E0.02586
G1 X142.891 Y95.691 E0.02597
G1 X143.086 Y96.495 E0.02597
G1 X143.085 Y115.617 E0.59954
G1 X142.989 Y116.152 E0.01703
G1 X142.763 Y116.649 E0.01714
G1 X142.420 Y117.075 E0.01714
G1 X141.985 Y117.401 E0.01703
G1 X141.197 Y117.668 E0.02608
G1 X139.909 Y117.687 E0.04041
G1 X106.848 Y115.933 E1.03806
G1 X106.322 Y115.831 E0.01680
G1 X105.836 Y115.603 E0.01680
G1 X105.421 Y115.265 E0.01680
G1 X105.100 Y114.836 E0.01680
G1 X104.890 Y114.331 E0.01714
G1 X104.812 Y113.786 E0.01726
G1 X104.813 Y96.512 E0.54161
G1 X104.904 Y95.969 E0.01726
G1 X105.130 Y95.463 E0.01737
G1 X105.421 Y95.097 E0.01467
G1 F8640
G1 X105.915 Y94.699 E-0.14647
G1 X106.431 Y94.487 E-0.12877
G1 X106.983 Y94.412 E-0.12877
G1 X108.525 Y94.412 E-0.35600
G1 E-0.04000 F2100.00000
G1 Z0.800 F10800.000
G1 X111.036 Y112.786
G1 Z0.200
G1 E0.80000 F2100.00000
G1 F1200
G1 X108.364 Y112.786 E0.08377
G1 X108.364 Y97.964 E0.46472
G1 X111.036 Y97.964 E0.08377
G1 X111.036 Y112.726 E0.46284
G1 X111.413 Y113.163 F10800.000
G1 F1200
G1 X107.987 Y113.163 E0.10741
G1 X107.987 Y97.587 E0.48837
G1 X111.413 Y97.587 E0.10741
G1 X111.413 Y113.103 E0.48649
G1 F8640
G1 X108.122 Y113.161 E-0.76000
G1 E-0.04000 F2100.00000
G1 Z0.800 F10800.000
G1 X135.964 Y112.786
G1 Z0.200
G1 E0.80000 F2100.00000
G1 F1200
G1 X135.964 Y97.964 E0.46472
G1 X139.536 Y97.964 E0.11199
G1 X139.536 Y112.786 E0.46472
G1 X136.024 Y112.786 E0.11011
G1 X135.587 Y113.163 F10800.000
G1 F1200
G1 X135.587 Y97.587 E0.48837
G1 X139.913 Y97.587 E0.13563
G1 X139.913 Y113.163 E0.48837
G1 X135.647 Y113.163 E0.13375
G1 F8640
G1 X135.634 Y109.872 E-0.76000
G1 E-0.04000 F2100.00000
G1 Z0.800 F10800.000
G1 X140.210 Y113.540
G1 Z0.200
G1 E0.80000 F2100.00000
G1 F1200
G1 X135.210 Y113.540 E0.15677
G1 X135.210 Y97.540 E0.50167
G1 X111.790 Y97.540 E0.73432
G1 X111.790 Y113.540 E0.50167
G1 X107.610 Y113.540 E0.13106
G1 X107.610 Y97.210 E0.51202
G1 X140.290 Y97.210 E1.02466
G1 X140.290 Y114.890 E0.55434
G1 X140.210 Y114.890 E0.00251
G1 X140.210 Y113.600 E0.04045
G1 X140.202 Y113.140 F10800.000
G1 F8640
G1 X136.919 Y113.561 E-0.76000
G1 E-0.04000 F2100.00000
G1 Z0.800 F10800.000
G1 X136.077 Y111.892
G1 Z0.200
G1 E0.80000 F2100.00000
G1 F1200
G1 X136.689 Y112.503 E0.02776
G1 X137.235 Y112.503 E0.01752
G1 X136.247 Y111.515 E0.04484
G1 X136.247 Y110.969 E0.01752
G1 X137.781 Y112.503 E0.06962
G1 X138.327 Y112.503 E0.01752
G1 X136.247 Y110.423 E0.09441
G1 X136.247 Y109.877 E0.01752
G1 X138.873 Y112.503 E0.11919
G1 X139.253 Y112.503 E0.01221
G1 X139.253 Y112.338 E0.00531
G1 X136.247 Y109.331 E0.13647
G1 X136.247 Y108.786 E0.01752
G1 X139.253 Y111.792 E0.13647
G1 X139.253 Y111.246 E0.01752
G1 X136.247 Y108.240 E0.13647
G1 X136.247 Y107.694 E0.01752
G1 X139.253 Y110.700 E0.13647
G1 X139.253 Y110.154 E0.01752
G1 X136.247 Y107.148 E0.13647
G1 X136.247 Y106.602 E0.01752
G1 X139.253 Y109.608 E0.13647
G1 X139.253 Y109.062 E0.01752
G1 X136.247 Y106.056 E0.13647
G1 X136.247 Y105.510 E0.01752
G1 X139.253 Y108.516 E0.13647
G1 X139.253 Y107.970 E0.01752
G1 X136.247 Y104.964 E0.13647
G1 X136.247 Y104.418 E0.01752
G1 X139.253 Y107.424 E0.13647
G1 X139.253 Y106.878 E0.01752
G1 X136.247 Y103.872 E0.13647
G1 X136.247 Y103.326 E0.01752
G1 X139.253 Y106.332 E0.13647
G1 X139.253 Y105.786 E0.01752
G1 X136.247 Y102.780 E0.13647
G1 X136.247 Y102.234 E0.01752
G1 X139.253 Y105.240 E0.13647
G1 X139.253 Y104.694 E0.01752
G1 X136.247 Y101.688 E0.13647
G1 X136.247 Y101.142 E0.01752
G1 X139.253 Y104.148 E0.13647
G1 X139.253 Y103.602 E0.01752
G1 X136.247 Y100.596 E0.13647
G1 X136.247 Y100.050 E0.01752
G1 X139.253 Y103.056 E0.13647
G1 X139.253 Y102.511 E0.01752
G1 X136.247 Y99.504 E0.13647
G1 X136.247 Y98.958 E0.01752
G1 X139.253 Y101.965 E0.13647
G1 X139.253 Y101.419 E0.01752
G1 X136.247 Y98.412 E0.13647
G1 X136.247 Y98.247 E0.00531
G1 X136.627 Y98.247 E0.01221
G1 X139.253 Y100.873 E0.11920
G1 X139.253 Y100.327 E0.01752
G1 X137.173 Y98.247 E0.09441
G1 X137.719 Y98.247 E0.01752
G1 X139.253 Y99.781 E0.06963
G1 X139.253 Y99.235 E0.01752
G1 X138.265 Y98.247 E0.04485
G1 X138.811 Y98.247 E0.01752
G1 X139.423 Y98.859 E0.02776
G1 F8640
G1 X138.811 Y98.247 E-0.19972
G1 X138.265 Y98.247 E-0.12606
G1 X139.253 Y99.235 E-0.32258
G1 X139.253 Y99.718 E-0.11164
G1 E-0.04000 F2100.00000
G1 Z0.800 F10800.000
G1 X110.923 Y98.842
G1 Z0.200
G1 E0.80000 F2100.00000
G1 F1200
G1 X110.328 Y98.247 E0.02646
G1 X109.793 Y98.247 E0.01682
G1 X110.753 Y99.207 E0.04271
G1 X110.753 Y99.742 E0.01682
G1 X109.258 Y98.247 E0.06650
G1 X108.723 Y98.247 E0.01682
G1 X110.753 Y100.277 E0.09029
G1 X110.753 Y100.812 E0.01682
G1 X108.647 Y98.706 E0.09367
G1 X108.647 Y99.241 E0.01682
G1 X110.753 Y101.347 E0.09367
G1 X110.753 Y101.882 E0.01682
G1 X108.647 Y99.775 E0.09367
G1 X108.647 Y100.310 E0.01682
G1 X110.753 Y102.416 E0.09367
G1 X110.753 Y102.951 E0.01682
G1 X108.647 Y100.845 E0.09367
G1 X108.647 Y101.380 E0.01682
G1 X110.753 Y103.486 E0.09367
G1 X110.753 Y104.021 E0.01682
G1 X108.647 Y101.915 E0.09367
G1 X108.647 Y102.450 E0.01682
G1 X110.753 Y104.556 E0.09367
G1 X110.753 Y105.091 E0.01682
G1 X108.647 Y102.985 E0.09367
G1 X108.647 Y103.520 E0.01682
G1 X110.753 Y105.626 E0.09367
G1 X110.753 Y106.161 E0.01682
G1 X108.647 Y104.055 E0.09367
G1 X108.647 Y104.589 E0.01682
G1 X110.753 Y106.696 E0.09367
G1 X110.753 Y107.230 E0.01682
G1 X108.647 Y105.124 E0.09367
G1 X108.647 Y105.659 E0.01682
G1 X110.753 Y107.765 E0.09367
G1 X110.753 Y108.300 E0.01682
G1 X108.647 Y106.194 E0.09367
G1 X108.647 Y106.729 E0.01682
G1 X110.753 Y108.835 E0.09367
G1 X110.753 Y109.370 E0.01682
G1 X108.647 Y107.264 E0.09367
G1 X108.647 Y107.799 E0.01682
G1 X110.753 Y109.905 E0.09367
G1 X110.753 Y110.440 E0.01682
G1 X108.647 Y108.334 E0.09367
G1 X108.647 Y108.869 E0.01682
G1 X110.753 Y110.975 E0.09367
G1 X110.753 Y111.510 E0.01682
G1 X108.647 Y109.403 E0.09367
G1 X108.647 Y109.938 E0.01682
G1 X110.753 Y112.044 E0.09367
G1 X110.753 Y112.503 E0.01442
G1 X110.677 Y112.503 E0.00240
G1 X108.647 Y110.473 E0.09028
G1 X108.647 Y111.008 E0.01682
G1 X110.142 Y112.503 E0.06649
G1 X109.607 Y112.503 E0.01682
G1 X108.647 Y111.543 E0.04270
G1 X108.647 Y112.078 E0.01682
G1 X109.242 Y112.673 E0.02646
;BEFORE_LAYER_CHANGE
G92 E0.0
;0.4


G1 F8640
G1 X108.647 Y112.078 E-0.19425
G1 X108.647 Y111.543 E-0.12351
G1 X109.607 Y112.503 E-0.31351
G1 X110.142 Y112.503 E-0.12351
G1 X110.126 Y112.487 E-0.00523
G1 E-0.04000 F2100.00000
G1 Z0.800 F10800.000
;AFTER_LAYER_CHANGE
;0.4
M104 S250 ; set temperature
M140 S90 ; set bed temperature
G1 X142.665 Y94.738
G1 Z0.400
G1 E0.80000 F2100.00000
G1 F2903
G1 X143.229 Y95.525 E0.03034
G1 X143.462 Y96.460 E0.03022
G1 X143.461 Y115.654 E0.60182
G1 X143.347 Y116.271 E0.01968
G1 X143.084 Y116.846 E0.01980
G1 X142.689 Y117.339 E0.01980
G1 X142.189 Y117.718 E0.01968
G1 X141.284 Y118.037 E0.03010
G1 X139.897 Y118.064 E0.04349
G1 X106.817 Y116.309 E1.03867
G1 X106.205 Y116.189 E0.01956
G1 X105.643 Y115.927 E0.01943
G1 X105.158 Y115.536 E0.01956
G1 X104.783 Y115.042 E0.01943
G1 X104.529 Y114.442 E0.02042
G1 X104.435 Y113.798 E0.02042
G1 X104.437 Y96.485 E0.54282
G1 X104.545 Y95.855 E0.02005
G1 X104.805 Y95.271 E0.02005
G1 X105.202 Y94.770 E0.02005
G1 X105.711 Y94.382 E0.02005
G1 X106.318 Y94.127 E0.02066
G1 X106.975 Y94.035 E0.02079
G1 X140.904 Y94.034 E1.06383
G1 X141.850 Y94.217 E0.03022
G1 X142.615 Y94.706 E0.02846
G1 F8640
G1 X143.229 Y95.525 E-0.23635
G1 X143.462 Y96.460 E-0.22253
G1 X143.462 Y97.764 E-0.30111
G1 E-0.04000 F2100.00000
G1 Z1.000 F10800.000
G1 X110.961 Y112.711
G1 Z0.400
G1 E0.80000 F2100.00000
M204 S800
G1 F1500
G1 X108.239 Y112.711 E0.09213
G1 X108.239 Y97.839 E0.50339
G1 X110.961 Y97.839 E0.09213
G1 X110.961 Y112.651 E0.50136
M204 S1000
G1 X111.368 Y113.118 F10800.000
M204 S800
G1 F1500
G1 X107.832 Y113.118 E0.11968
G1 X107.832 Y97.432 E0.53095
G1 X111.368 Y97.432 E0.11968
G1 X111.368 Y113.058 E0.52892
M73 Q2 S37
M73 P2 R37
M204 S1000
G1 F8640
G1 X108.077 Y113.114 E-0.76000
G1 E-0.04000 F2100.00000
G1 Z1.000 F10800.000
G1 X136.039 Y112.711
G1 Z0.400
G1 E0.80000 F2100.00000
M204 S800
G1 F1500
G1 X136.039 Y97.839 E0.50339
G1 X139.661 Y97.839 E0.12259
G1 X139.661 Y112.711 E0.50339
G1 X136.099 Y112.711 E0.12056
M204 S1000
G1 X135.632 Y113.118 F10800.000
M204 S800
G1 F1500
G1 X135.632 Y97.432 E0.53095
G1 X140.068 Y97.432 E0.15015
G1 X140.068 Y113.118 E0.53095
G1 X135.692 Y113.118 E0.14812
M204 S1000
G1 F8640
G1 X135.679 Y109.827 E-0.76000
G1 E-0.04000 F2100.00000
G1 Z1.000 F10800.000
G1 X140.225 Y113.525
G1 Z0.400
G1 E0.80000 F2100.00000
M204 S800
G1 F1500
G1 X135.225 Y113.525 E0.16924
G1 X135.225 Y97.525 E0.54158
G1 X111.775 Y97.525 E0.79375
G1 X111.775 Y113.525 E0.54158
G1 X107.425 Y113.525 E0.14724
G1 X107.425 Y97.025 E0.55851
G1 X140.475 Y97.025 E1.11870
G1 X140.475 Y115.075 E0.61097
G1 X140.225 Y115.075 E0.00846
G1 X140.225 Y113.585 E0.05043
M204 S1000
G1 X140.204 Y113.126 F10800.000
G1 F8640
G1 X136.934 Y113.546 E-0.76000
G1 E-0.04000 F2100.00000
G1 Z1.000 F10800.000
G1 X138.704 Y112.589
G1 Z0.400
G1 E0.80000 F2100.00000
M204 S1250
G1 F2903
G1 X139.356 Y111.937 E0.03160
G1 X139.356 Y111.354 E0.02001
G1 X138.304 Y112.406 E0.05101
G1 X137.721 Y112.406 E0.02001
G1 X139.356 Y110.771 E0.07932
G1 X139.356 Y110.187 E0.02001
G1 X137.137 Y112.406 E0.10762
G1 X136.554 Y112.406 E0.02001
G1 X139.356 Y109.604 E0.13592
G1 X139.356 Y109.020 E0.02001
G1 X136.344 Y112.031 E0.14608
G1 X136.344 Y111.448 E0.02001
G1 X139.356 Y108.437 E0.14608
G1 X139.356 Y107.853 E0.02001
G1 X136.344 Y110.864 E0.14608
G1 X136.344 Y110.281 E0.02001
G1 X139.356 Y107.270 E0.14608
G1 X139.356 Y106.687 E0.02001
G1 X136.344 Y109.698 E0.14608
G1 X136.344 Y109.114 E0.02001
G1 X139.356 Y106.103 E0.14608
G1 X139.356 Y105.520 E0.02001
G1 X136.344 Y108.531 E0.14608
G1 X136.344 Y107.947 E0.02001
G1 X139.356 Y104.936 E0.14608
G1 X139.356 Y104.353 E0.02001
G1 X136.344 Y107.364 E0.14608
G1 X136.344 Y106.780 E0.02001
G1 X139.356 Y103.769 E0.14608
G1 X139.356 Y103.186 E0.02001
G1 X136.344 Y106.197 E0.14608
G1 X136.344 Y105.614 E0.02001
G1 X139.356 Y102.603 E0.14608
G1 X139.356 Y102.019 E0.02001
G1 X136.344 Y105.030 E0.14608
G1 X136.344 Y104.447 E0.02001
G1 X139.356 Y101.436 E0.14608
G1 X139.356 Y100.852 E0.02001
G1 X136.344 Y103.863 E0.14608
G1 X136.344 Y103.280 E0.02001
G1 X139.356 Y100.269 E0.14608
G1 X139.356 Y99.685 E0.02001
G1 X136.344 Y102.696 E0.14608
G1 X136.344 Y102.113 E0.02001
G1 X139.356 Y99.102 E0.14608
G1 X139.356 Y98.519 E0.02001
G1 X136.344 Y101.530 E0.14608
G1 X136.344 Y100.946 E0.02001
G1 X139.146 Y98.144 E0.13592
G1 X138.563 Y98.144 E0.02001
G1 X136.344 Y100.363 E0.10762
G1 X136.344 Y99.779 E0.02001
G1 X137.979 Y98.144 E0.07931
G1 X137.396 Y98.144 E0.02001
G1 X136.344 Y99.196 E0.05101
G1 X136.344 Y98.612 E0.02001
G1 X136.996 Y97.961 E0.03159
M204 S1000
G1 F8640
G1 X136.344 Y98.612 E-0.21265
G1 X136.344 Y99.196 E-0.13472
G1 X137.396 Y98.144 E-0.34335
G1 X137.696 Y98.144 E-0.06928
G1 E-0.04000 F2100.00000
G1 Z1.000 F10800.000
G1 X135.429 Y97.275
G1 Z0.400
G1 E0.80000 F2100.00000
G1 F2400
G1 X111.571 Y97.275 E0.18433
G1 F8640
G1 X114.863 Y97.275 E-0.76000
G1 E-0.04000 F2100.00000
G1 Z1.000 F10800.000
G1 X109.209 Y97.961
G1 Z0.400
G1 E0.80000 F2100.00000
M204 S1250
G1 F2903
G1 X108.544 Y98.626 E0.03277
G1 X108.544 Y99.219 E0.02065
G1 X109.619 Y98.144 E0.05295
G1 X110.212 Y98.144 E0.02065
G1 X108.544 Y99.812 E0.08215
G1 X108.544 Y100.404 E0.02065
G1 X110.656 Y98.293 E0.10403
G1 X110.656 Y98.886 E0.02065
G1 X108.544 Y100.997 E0.10403
G1 X108.544 Y101.589 E0.02065
G1 X110.656 Y99.478 E0.10403
G1 X110.656 Y100.071 E0.02065
G1 X108.544 Y102.182 E0.10403
G1 X108.544 Y102.775 E0.02065
G1 X110.656 Y100.664 E0.10403
G1 X110.656 Y101.256 E0.02065
G1 X108.544 Y103.367 E0.10403
G1 X108.544 Y103.960 E0.02065
G1 X110.656 Y101.849 E0.10403
G1 X110.656 Y102.441 E0.02065
G1 X108.544 Y104.553 E0.10403
G1 X108.544 Y105.145 E0.02065
G1 X110.656 Y103.034 E0.10403
G1 X110.656 Y103.627 E0.02065
G1 X108.544 Y105.738 E0.10403
G1 X108.544 Y106.330 E0.02065
G1 X110.656 Y104.219 E0.10403
G1 X110.656 Y104.812 E0.02065
G1 X108.544 Y106.923 E0.10403
G1 X108.544 Y107.516 E0.02065
G1 X110.656 Y105.405 E0.10403
G1 X110.656 Y105.997 E0.02065
G1 X108.544 Y108.108 E0.10403
G1 X108.544 Y108.701 E0.02065
G1 X110.656 Y106.590 E0.10403
G1 X110.656 Y107.183 E0.02065
G1 X108.544 Y109.294 E0.10403
G1 X108.544 Y109.886 E0.02065
G1 X110.656 Y107.775 E0.10403
G1 X110.656 Y108.368 E0.02065
G1 X108.544 Y110.479 E0.10403
G1 X108.544 Y111.072 E0.02065
G1 X110.656 Y108.960 E0.10403
G1 X110.656 Y109.553 E0.02065
G1 X108.544 Y111.664 E0.10403
G1 X108.544 Y112.257 E0.02065
G1 X110.656 Y110.146 E0.10403
G1 X110.656 Y110.738 E0.02065
G1 X108.988 Y112.406 E0.08216
G1 X109.581 Y112.406 E0.02065
G1 X110.656 Y111.331 E0.05295
G1 X110.656 Y111.924 E0.02065
G1 X109.990 Y112.589 E0.03278
M204 S1000
;BEFORE_LAYER_CHANGE
G92 E0.0
;0.6


G1 F8640
G1 X110.656 Y111.924 E-0.21719
G1 X110.656 Y111.331 E-0.13684
G1 X109.581 Y112.406 E-0.35090
G1 X109.342 Y112.406 E-0.05507
G1 E-0.04000 F2100.00000
G1 Z1.000 F10800.000
;AFTER_LAYER_CHANGE
;0.6
G1 X142.665 Y94.738
G1 Z0.600
G1 E0.80000 F2100.00000
G1 F2850
G1 X143.229 Y95.525 E0.03034
G1 X143.462 Y96.460 E0.03022
G1 X143.461 Y115.654 E0.60182
G1 X143.347 Y116.271 E0.01968
G1 X143.084 Y116.846 E0.01980
G1 X142.689 Y117.339 E0.01980
G1 X142.189 Y117.718 E0.01968
G1 X141.284 Y118.037 E0.03010
G1 X139.897 Y118.064 E0.04349
G1 X106.817 Y116.309 E1.03867
G1 X106.205 Y116.189 E0.01956
G1 X105.643 Y115.927 E0.01943
G1 X105.158 Y115.536 E0.01956
G1 X104.783 Y115.042 E0.01943
G1 X104.529 Y114.442 E0.02042
G1 X104.435 Y113.798 E0.02042
