; generated by PrusaSlicer 2.0.0+win64 on 2019-09-06 at 16:19:49

; 

; external perimeters extrusion width = 0.45mm
; perimeters extrusion width = 0.45mm
; infill extrusion width = 0.45mm
; solid infill extrusion width = 0.45mm
; top infill extrusion width = 0.40mm
; first layer extrusion width = 0.42mm

M73 P0 R55
M73 Q0 S55
M201 X1000 Y1000 Z1000 E5000 ; sets maximum accelerations, mm/sec^2
M203 X200 Y200 Z12 E120 ; sets maximum feedrates, mm/sec
M204 P1250 R1250 T1250 ; sets acceleration (P, T) and retract acceleration (R), mm/sec^2
M205 X8.00 Y8.00 Z0.40 E1.50 ; sets the jerk limits, mm/sec
M205 S0 T0 ; sets the minimum extruding and travel feed rate, mm/sec
M107
M115 U3.7.2 ; tell printer latest fw version
G90 ; use absolute coordinates
M83 ; extruder relative mode
M104 S240 ; set extruder temp
M140 S85 ; set bed temp
Tx
M190 S85 ; wait for bed temp
M109 S240 ; wait for extruder temp
G28 W ; home all without mesh bed level
G80 ; mesh bed leveling

G21 ; set units to millimeters

;go outside print area
G1 Y-3.0 F1000.0
G1 Z0.4 F1000.0
; select extruder
Tc
; purge line
G1 X55.0 F2000.0
G1 Z0.3 F1000.0
G92 E0.0
G1 X240.0 E25.0 F2200.0
M73 Q0 S55
M73 P0 R54
G1 Y-2.0 F1000.0
G1 X55.0 E25 F1400.0
G1 Z0.20 F1000.0
G1 X5.0 E4.0 F1000.0

M221 S95
G92 E0.0
M900 K45 ; Filament gcode
G21 ; set units to millimeters
G90 ; use absolute coordinates
M83 ; use relative distances for extrusion
;BEFORE_LAYER_CHANGE
G92 E0.0
;0.2


G1 E-0.80000 F2100.00000
G1 Z0.600 F10800.000
;AFTER_LAYER_CHANGE
;0.2
G1 X106.935 Y86.276
G1 Z0.200
G1 E0.80000 F2100.00000
M204 S1000
G1 F1200
G1 X107.257 Y85.676 E0.02134
G1 X108.731 Y84.217 E0.06504
G1 X109.275 Y83.935 E0.01919
G1 X109.875 Y83.815 E0.01919
G1 X140.004 Y83.811 E0.94467
G1 X140.823 Y83.972 E0.02620
G1 X141.526 Y84.431 E0.02631
G1 X142.819 Y85.782 E0.05863
G1 X143.080 Y86.320 E0.01873
G1 X143.187 Y86.908 E0.01873
G1 X143.187 Y103.334 E0.51504
G1 X142.183 Y123.449 E0.63148
G1 X142.049 Y124.068 E0.01987
G1 X141.743 Y124.623 E0.01987
G1 X141.400 Y124.982 E0.01555
G1 X140.986 Y125.254 E0.01555
G1 X140.520 Y125.426 E0.01555
G1 X140.028 Y125.488 E0.01555
G1 X109.971 Y125.488 E0.94244
G1 X109.286 Y125.369 E0.02179
G1 X108.676 Y125.043 E0.02168
G1 X108.083 Y124.356 E0.02844
G1 X107.820 Y123.488 E0.02844
G1 X106.813 Y103.330 E0.63285
G1 X106.812 Y86.945 E0.51373
G1 X106.924 Y86.335 E0.01946
G1 F8640
G1 X107.257 Y85.676 E-0.17041
G1 X108.731 Y84.217 E-0.47895
G1 X109.157 Y83.996 E-0.11064
G1 E-0.04000 F2100.00000
G1 Z0.800 F10800.000
G1 X139.943 Y102.753
G1 Z0.200
G1 E0.80000 F2100.00000
G1 F1200
G1 X139.779 Y102.966 E0.00843
G1 X139.579 Y103.141 E0.00832
G1 X139.351 Y103.277 E0.00833
G1 X139.101 Y103.367 E0.00833
G1 X138.839 Y103.408 E0.00833
G1 X138.573 Y103.400 E0.00832
G1 X138.314 Y103.342 E0.00833
G1 X138.067 Y103.235 E0.00843
G1 X137.786 Y103.031 E0.01089
G1 X137.609 Y102.829 E0.00843
G1 X137.473 Y102.601 E0.00833
G1 X137.383 Y102.351 E0.00833
G1 X137.342 Y102.089 E0.00833
G1 X137.350 Y101.823 E0.00833
G1 X137.408 Y101.564 E0.00833
G1 X137.515 Y101.317 E0.00843
G1 X137.719 Y101.036 E0.01089
G1 X137.921 Y100.859 E0.00843
G1 X138.149 Y100.723 E0.00833
G1 X138.399 Y100.633 E0.00833
G1 X138.661 Y100.592 E0.00833
G1 X138.927 Y100.600 E0.00832
G1 X139.186 Y100.658 E0.00833
G1 X139.433 Y100.765 E0.00843
G1 X139.714 Y100.969 E0.01089
G1 X139.891 Y101.171 E0.00843
G1 X140.027 Y101.399 E0.00833
G1 X140.117 Y101.649 E0.00833
G1 X140.158 Y101.911 E0.00833
G1 X140.150 Y102.177 E0.00833
G1 X140.091 Y102.439 E0.00843
G1 X139.969 Y102.699 E0.00900
G1 X140.071 Y102.990 F10800.000
G1 F8640
G1 X139.779 Y102.966 E-0.07568
G1 X139.579 Y103.141 E-0.06131
G1 X139.351 Y103.277 E-0.06132
G1 X139.101 Y103.367 E-0.06132
G1 X138.839 Y103.408 E-0.06132
G1 X138.573 Y103.400 E-0.06131
G1 X138.314 Y103.342 E-0.06132
G1 X138.067 Y103.235 E-0.06209
G1 X137.786 Y103.031 E-0.08017
G1 X137.609 Y102.829 E-0.06210
G1 X137.473 Y102.601 E-0.06131
G1 X137.399 Y102.394 E-0.05075
G1 E-0.04000 F2100.00000
G1 Z0.800 F10800.000
G1 X138.839 Y89.908
G1 Z0.200
G1 E0.80000 F2100.00000
G1 F1200
G1 X138.573 Y89.900 E0.00832
G1 X138.314 Y89.842 E0.00833
G1 X138.067 Y89.735 E0.00843
G1 X137.786 Y89.531 E0.01089
G1 X137.609 Y89.329 E0.00843
G1 X137.473 Y89.101 E0.00833
G1 X137.383 Y88.851 E0.00833
G1 X137.342 Y88.589 E0.00833
G1 X137.350 Y88.323 E0.00833
G1 X137.409 Y88.061 E0.00843
G1 X137.557 Y87.747 E0.01089
G1 X137.721 Y87.534 E0.00843
G1 X137.921 Y87.359 E0.00832
G1 X138.149 Y87.223 E0.00833
G1 X138.399 Y87.133 E0.00833
G1 X138.661 Y87.092 E0.00833
G1 X138.927 Y87.100 E0.00833
G1 X139.186 Y87.158 E0.00833
G1 X139.433 Y87.265 E0.00843
G1 X139.714 Y87.469 E0.01089
G1 X139.891 Y87.671 E0.00843
G1 X140.027 Y87.899 E0.00833
G1 X140.117 Y88.149 E0.00833
G1 X140.158 Y88.411 E0.00833
G1 X140.150 Y88.677 E0.00833
G1 X140.091 Y88.939 E0.00843
G1 X139.943 Y89.253 E0.01089
G1 X139.779 Y89.466 E0.00843
G1 X139.579 Y89.641 E0.00833
G1 X139.351 Y89.777 E0.00833
G1 X139.101 Y89.867 E0.00833
G1 X138.898 Y89.899 E0.00645
G1 X138.721 Y90.146 F10800.000
G1 F8640
G1 X138.573 Y89.900 E-0.07496
G1 X138.314 Y89.842 E-0.06131
G1 X138.067 Y89.735 E-0.06210
G1 X137.786 Y89.531 E-0.08017
G1 X137.609 Y89.329 E-0.06210
G1 X137.473 Y89.101 E-0.06131
G1 X137.383 Y88.851 E-0.06132
G1 X137.342 Y88.589 E-0.06132
G1 X137.350 Y88.323 E-0.06131
G1 X137.409 Y88.061 E-0.06209
G1 X137.557 Y87.747 E-0.08017
G1 X137.641 Y87.638 E-0.03185
G1 E-0.04000 F2100.00000
G1 Z0.800 F10800.000
G1 X122.087 Y117.413
G1 Z0.200
G1 E0.80000 F2100.00000
G1 F1200
G1 X122.087 Y122.087 E0.14655
G1 X112.913 Y122.087 E0.28765
G1 X112.913 Y117.413 E0.14655
G1 X122.027 Y117.413 E0.28577
G1 X121.710 Y117.790 F10800.000
G1 F1200
G1 X121.710 Y121.710 E0.12291
G1 X113.290 Y121.710 E0.26400
G1 X113.290 Y117.790 E0.12291
G1 X121.650 Y117.790 E0.26212
G1 X122.106 Y117.732 F10800.000
G1 F8640
G1 X121.700 Y121.081 E-0.76000
G1 E-0.04000 F2100.00000
G1 Z0.800 F10800.000
G1 X122.464 Y117.036
G1 Z0.200
G1 E0.80000 F2100.00000
G1 F1200
G1 X112.536 Y117.036 E0.31130
G1 X112.536 Y121.936 E0.15364
G1 X110.964 Y121.936 E0.04928
G1 X110.964 Y104.148 E0.55772
G1 X111.386 Y104.164 E0.01324
G1 X111.789 Y104.100 E0.01280
G1 X112.173 Y103.962 E0.01280
G1 X112.524 Y103.754 E0.01279
G1 X112.842 Y103.474 E0.01328
G1 X113.144 Y103.059 E0.01611
G1 X113.312 Y102.670 E0.01328
G1 X113.401 Y102.272 E0.01280
G1 X113.414 Y101.864 E0.01279
G1 X113.350 Y101.461 E0.01280
G1 X113.212 Y101.077 E0.01280
G1 X113.004 Y100.726 E0.01279
G1 X112.724 Y100.408 E0.01328
G1 X112.309 Y100.106 E0.01611
G1 X111.920 Y99.938 E0.01328
G1 X111.522 Y99.849 E0.01280
G1 X111.114 Y99.836 E0.01279
G1 X110.711 Y99.900 E0.01280
G1 X110.327 Y100.038 E0.01280
G1 X109.964 Y100.256 E0.01326
G1 X109.964 Y90.229 E0.31437
G1 X110.191 Y90.394 E0.00880
G1 X110.580 Y90.562 E0.01328
G1 X110.978 Y90.651 E0.01279
G1 X111.386 Y90.664 E0.01279
G1 X111.789 Y90.600 E0.01280
G1 X112.173 Y90.462 E0.01280
G1 X112.524 Y90.254 E0.01279
G1 X112.842 Y89.974 E0.01328
G1 X113.144 Y89.559 E0.01611
G1 X113.312 Y89.170 E0.01328
G1 X113.401 Y88.772 E0.01280
G1 X113.414 Y88.364 E0.01279
G1 X113.350 Y87.961 E0.01280
G1 X113.212 Y87.577 E0.01280
G1 X113.004 Y87.226 E0.01279
G1 X112.774 Y86.964 E0.01092
G1 X137.228 Y86.964 E0.76672
G1 X136.910 Y87.350 E0.01568
G1 X136.691 Y87.815 E0.01611
G1 X136.599 Y88.228 E0.01328
G1 X136.586 Y88.636 E0.01280
G1 X136.650 Y89.039 E0.01280
G1 X136.788 Y89.423 E0.01280
G1 X136.996 Y89.774 E0.01279
G1 X137.276 Y90.092 E0.01328
G1 X137.691 Y90.394 E0.01611
G1 X138.080 Y90.562 E0.01328
G1 X138.478 Y90.651 E0.01280
G1 X138.886 Y90.664 E0.01279
G1 X139.289 Y90.600 E0.01280
G1 X139.673 Y90.462 E0.01280
G1 X140.036 Y90.244 E0.01326
G1 X140.036 Y100.271 E0.31437
G1 X139.809 Y100.106 E0.00880
G1 X139.420 Y99.938 E0.01328
G1 X139.022 Y99.849 E0.01280
G1 X138.614 Y99.836 E0.01279
G1 X138.211 Y99.900 E0.01280
G1 X137.827 Y100.038 E0.01280
G1 X137.475 Y100.246 E0.01279
G1 X137.158 Y100.526 E0.01327
G1 X136.856 Y100.941 E0.01611
G1 X136.688 Y101.330 E0.01328
G1 X136.599 Y101.728 E0.01280
G1 X136.586 Y102.136 E0.01280
G1 X136.650 Y102.539 E0.01280
G1 X136.788 Y102.923 E0.01280
G1 X136.996 Y103.274 E0.01279
G1 X137.276 Y103.592 E0.01328
G1 X137.691 Y103.894 E0.01611
G1 X138.080 Y104.062 E0.01328
G1 X138.478 Y104.151 E0.01280
G1 X138.886 Y104.164 E0.01279
G1 X139.036 Y104.140 E0.00475
G1 X139.036 Y121.936 E0.55796
G1 X122.464 Y121.936 E0.51959
G1 X122.464 Y117.096 E0.15175
G1 F8640
G1 X119.173 Y117.076 E-0.76000
G1 E-0.04000 F2100.00000
G1 Z0.800 F10800.000
G1 X110.587 Y104.007
G1 Z0.200
G1 E0.80000 F2100.00000
G1 F1200
G1 X109.587 Y103.007 E0.04434
G1 X109.587 Y102.641 E0.01147
G1 X109.631 Y102.762 E0.00403
G1 X109.802 Y103.052 E0.01056
G1 X110.031 Y103.312 E0.01085
G1 X110.379 Y103.565 E0.01350
G1 X110.697 Y103.702 E0.01086
G1 X111.026 Y103.776 E0.01056
G1 X111.362 Y103.786 E0.01056
G1 X111.695 Y103.733 E0.01056
G1 X112.012 Y103.619 E0.01056
G1 X112.302 Y103.448 E0.01056
G1 X112.562 Y103.219 E0.01085
G1 X112.815 Y102.871 E0.01350
G1 X112.952 Y102.553 E0.01086
G1 X113.026 Y102.224 E0.01056
G1 X113.036 Y101.888 E0.01056
G1 X112.983 Y101.555 E0.01056
G1 X112.869 Y101.238 E0.01056
G1 X112.698 Y100.948 E0.01056
G1 X112.469 Y100.688 E0.01085
G1 X112.121 Y100.435 E0.01350
G1 X111.803 Y100.298 E0.01086
G1 X111.474 Y100.224 E0.01056
G1 X111.138 Y100.214 E0.01056
G1 X110.805 Y100.267 E0.01056
G1 X110.488 Y100.381 E0.01056
G1 X110.198 Y100.552 E0.01056
G1 X109.938 Y100.781 E0.01085
G1 X109.685 Y101.129 E0.01350
G1 X109.587 Y101.356 E0.00776
G1 X109.587 Y89.141 E0.38300
G1 X109.631 Y89.262 E0.00403
G1 X109.802 Y89.552 E0.01056
G1 X110.031 Y89.812 E0.01085
G1 X110.379 Y90.065 E0.01350
G1 X110.697 Y90.202 E0.01086
G1 X111.026 Y90.276 E0.01056
G1 X111.362 Y90.286 E0.01056
G1 X111.695 Y90.233 E0.01056
G1 X112.012 Y90.119 E0.01056
G1 X112.302 Y89.948 E0.01056
G1 X112.562 Y89.719 E0.01085
G1 X112.815 Y89.371 E0.01350
G1 X112.952 Y89.053 E0.01086
G1 X113.026 Y88.724 E0.01056
G1 X113.036 Y88.388 E0.01056
G1 X112.983 Y88.055 E0.01056
G1 X112.869 Y87.738 E0.01056
G1 X112.698 Y87.448 E0.01056
G1 X112.469 Y87.188 E0.01085
G1 X112.121 Y86.935 E0.01350
G1 X111.803 Y86.798 E0.01086
G1 X111.474 Y86.724 E0.01056
G1 X111.138 Y86.714 E0.01056
G1 X110.805 Y86.767 E0.01056
G1 X110.488 Y86.881 E0.01056
G1 X110.198 Y87.052 E0.01056
G1 X109.938 Y87.281 E0.01085
G1 X109.685 Y87.629 E0.01350
G1 X109.587 Y87.856 E0.00776
G1 X109.587 Y87.243 E0.01923
G1 X110.243 Y86.587 E0.02909
G1 X139.757 Y86.587 E0.92538
G1 X140.413 Y87.243 E0.02909
G1 X140.413 Y87.859 E0.01931
G1 X140.369 Y87.738 E0.00403
G1 X140.198 Y87.448 E0.01056
G1 X139.969 Y87.188 E0.01086
G1 X139.621 Y86.935 E0.01350
G1 X139.303 Y86.798 E0.01086
G1 X138.974 Y86.724 E0.01056
G1 X138.638 Y86.714 E0.01056
G1 X138.305 Y86.767 E0.01056
G1 X137.988 Y86.881 E0.01056
G1 X137.698 Y87.052 E0.01056
G1 X137.445 Y87.275 E0.01056
G1 X137.233 Y87.548 E0.01086
G1 X137.050 Y87.938 E0.01350
G1 X136.974 Y88.276 E0.01085
G1 X136.964 Y88.612 E0.01056
G1 X137.017 Y88.945 E0.01056
G1 X137.131 Y89.262 E0.01056
G1 X137.302 Y89.552 E0.01056
G1 X137.531 Y89.812 E0.01086
G1 X137.879 Y90.065 E0.01350
G1 X138.197 Y90.202 E0.01086
G1 X138.526 Y90.276 E0.01056
G1 X138.862 Y90.286 E0.01056
G1 X139.195 Y90.233 E0.01056
G1 X139.512 Y90.119 E0.01056
G1 X139.802 Y89.948 E0.01056
G1 X140.055 Y89.725 E0.01056
G1 X140.267 Y89.452 E0.01086
G1 X140.413 Y89.141 E0.01076
G1 X140.413 Y101.359 E0.38308
G1 X140.369 Y101.238 E0.00403
G1 X140.198 Y100.948 E0.01056
G1 X139.969 Y100.688 E0.01086
G1 X139.621 Y100.435 E0.01350
G1 X139.303 Y100.298 E0.01086
G1 X138.974 Y100.224 E0.01056
G1 X138.638 Y100.214 E0.01056
G1 X138.305 Y100.267 E0.01056
G1 X137.988 Y100.381 E0.01056
G1 X137.698 Y100.552 E0.01056
G1 X137.438 Y100.781 E0.01085
G1 X137.185 Y101.129 E0.01350
G1 X137.048 Y101.447 E0.01085
G1 X136.974 Y101.776 E0.01056
G1 X136.964 Y102.112 E0.01056
G1 X137.017 Y102.445 E0.01056
G1 X137.131 Y102.762 E0.01056
G1 X137.302 Y103.052 E0.01056
G1 X137.531 Y103.312 E0.01086
G1 X137.879 Y103.565 E0.01350
G1 X138.197 Y103.702 E0.01086
G1 X138.526 Y103.776 E0.01056
G1 X138.862 Y103.786 E0.01056
G1 X139.195 Y103.733 E0.01056
G1 X139.512 Y103.619 E0.01056
G1 X139.802 Y103.448 E0.01056
G1 X140.055 Y103.225 E0.01056
G1 X140.267 Y102.952 E0.01086
G1 X140.413 Y102.641 E0.01076
G1 X140.413 Y103.007 E0.01147
G1 X139.413 Y104.007 E0.04434
G1 X139.413 Y122.313 E0.57397
G1 X110.587 Y122.313 E0.90381
G1 X110.587 Y104.067 E0.57209
G1 F8640
G1 X109.587 Y103.007 E-0.33648
G1 X109.587 Y102.641 E-0.08447
G1 X109.631 Y102.762 E-0.02970
G1 X109.802 Y103.052 E-0.07775
G1 X110.031 Y103.312 E-0.07994
G1 X110.379 Y103.565 E-0.09943
G1 X110.587 Y103.655 E-0.05224
G1 E-0.04000 F2100.00000
G1 Z0.800 F10800.000
G1 X111.073 Y89.900
G1 Z0.200
G1 E0.80000 F2100.00000
G1 F1200
G1 X110.814 Y89.842 E0.00832
G1 X110.567 Y89.735 E0.00843
G1 X110.286 Y89.531 E0.01089
G1 X110.109 Y89.329 E0.00843
G1 X109.973 Y89.101 E0.00832
G1 X109.883 Y88.851 E0.00833
G1 X109.842 Y88.589 E0.00833
G1 X109.850 Y88.323 E0.00832
G1 X109.908 Y88.064 E0.00833
G1 X110.015 Y87.817 E0.00843
G1 X110.219 Y87.536 E0.01089
G1 X110.421 Y87.359 E0.00843
G1 X110.649 Y87.223 E0.00833
G1 X110.899 Y87.133 E0.00833
G1 X111.161 Y87.092 E0.00833
G1 X111.427 Y87.100 E0.00832
G1 X111.686 Y87.158 E0.00832
G1 X111.933 Y87.265 E0.00843
G1 X112.214 Y87.469 E0.01089
G1 X112.391 Y87.671 E0.00843
G1 X112.527 Y87.899 E0.00833
G1 X112.617 Y88.149 E0.00833
G1 X112.658 Y88.411 E0.00833
G1 X112.650 Y88.677 E0.00832
G1 X112.592 Y88.936 E0.00833
G1 X112.485 Y89.183 E0.00843
G1 X112.281 Y89.464 E0.01089
G1 X112.079 Y89.641 E0.00843
G1 X111.851 Y89.777 E0.00832
G1 X111.601 Y89.867 E0.00833
G1 X111.339 Y89.908 E0.00833
G1 X111.133 Y89.902 E0.00644
G1 X110.913 Y90.111 F10800.000
G1 F8640
G1 X110.814 Y89.842 E-0.07496
G1 X110.567 Y89.735 E-0.06210
G1 X110.286 Y89.531 E-0.08018
G1 X110.109 Y89.329 E-0.06209
G1 X109.973 Y89.101 E-0.06131
G1 X109.883 Y88.851 E-0.06133
G1 X109.842 Y88.589 E-0.06132
G1 X109.850 Y88.323 E-0.06129
G1 X109.908 Y88.064 E-0.06131
G1 X110.015 Y87.817 E-0.06210
G1 X110.219 Y87.536 E-0.08018
G1 X110.322 Y87.445 E-0.03182
G1 E-0.04000 F2100.00000
G1 Z0.800 F10800.000
G1 X111.161 Y100.592
G1 Z0.200
G1 E0.80000 F2100.00000
G1 F1200
G1 X111.427 Y100.600 E0.00832
G1 X111.686 Y100.658 E0.00833
G1 X111.933 Y100.765 E0.00843
G1 X112.214 Y100.969 E0.01089
G1 X112.391 Y101.171 E0.00843
G1 X112.527 Y101.399 E0.00833
G1 X112.617 Y101.649 E0.00833
G1 X112.658 Y101.911 E0.00833
G1 X112.650 Y102.177 E0.00832
G1 X112.592 Y102.436 E0.00833
G1 X112.485 Y102.683 E0.00843
G1 X112.281 Y102.964 E0.01089
G1 X112.079 Y103.141 E0.00843
G1 X111.851 Y103.277 E0.00833
G1 X111.601 Y103.367 E0.00833
G1 X111.339 Y103.408 E0.00833
G1 X111.073 Y103.400 E0.00832
G1 X110.814 Y103.342 E0.00833
G1 X110.567 Y103.235 E0.00843
G1 X110.286 Y103.031 E0.01089
G1 X110.109 Y102.829 E0.00843
G1 X109.973 Y102.601 E0.00833
G1 X109.883 Y102.351 E0.00833
G1 X109.842 Y102.089 E0.00833
G1 X109.850 Y101.823 E0.00832
G1 X109.908 Y101.564 E0.00833
G1 X110.015 Y101.317 E0.00843
G1 X110.219 Y101.036 E0.01089
G1 X110.421 Y100.859 E0.00843
G1 X110.649 Y100.723 E0.00833
G1 X110.899 Y100.633 E0.00833
G1 X111.102 Y100.601 E0.00645
G1 X111.280 Y100.354 F10800.000
G1 F8640
G1 X111.427 Y100.600 E-0.07495
G1 X111.686 Y100.658 E-0.06131
G1 X111.933 Y100.765 E-0.06209
G1 X112.214 Y100.969 E-0.08018
G1 X112.391 Y101.171 E-0.06209
G1 X112.527 Y101.399 E-0.06131
G1 X112.617 Y101.649 E-0.06132
G1 X112.658 Y101.911 E-0.06132
G1 X112.650 Y102.177 E-0.06130
G1 X112.592 Y102.436 E-0.06131
G1 X112.485 Y102.683 E-0.06209
G1 X112.356 Y102.860 E-0.05071
G1 E-0.04000 F2100.00000
G1 Z0.800 F10800.000
G1 X110.210 Y104.163
G1 Z0.200
G1 E0.80000 F2100.00000
G1 F1200
G1 X109.210 Y103.163 E0.04434
G1 X109.210 Y87.087 E0.50405
G1 X110.087 Y86.210 E0.03889
G1 X139.913 Y86.210 E0.93517
G1 X140.790 Y87.087 E0.03889
G1 X140.790 Y103.163 E0.50405
G1 X139.790 Y104.163 E0.04434
G1 X139.790 Y122.690 E0.58090
G1 X110.210 Y122.690 E0.92746
G1 X110.210 Y104.223 E0.57902
G1 X110.284 Y103.770 F10800.000
G1 F8640
G1 X109.210 Y103.163 E-0.33648
