; generated by PrusaSlicer 2.0.0+win64 on 2020-02-02 at 12:14:49

; 

; external perimeters extrusion width = 0.45mm
; perimeters extrusion width = 0.45mm
; infill extrusion width = 0.45mm
; solid infill extrusion width = 0.45mm
; top infill extrusion width = 0.40mm
; first layer extrusion width = 0.42mm

M73 P0 R30
M73 Q0 S30
M201 X1000 Y1000 Z1000 E8000 ; sets maximum accelerations, mm/sec^2
M203 X200 Y200 Z12 E120 ; sets maximum feedrates, mm/sec
M204 P1250 R1250 T1250 ; sets acceleration (P, T) and retract acceleration (R), mm/sec^2
M205 X8.00 Y8.00 Z0.40 E1.50 ; sets the jerk limits, mm/sec
M205 S0 T0 ; sets the minimum extruding and travel feed rate, mm/sec
M107
M115 U3.7.1 ; tell printer latest fw version
G90 ; use absolute coordinates
M83 ; extruder relative mode
M104 S230 ; set extruder temp
M140 S85 ; set bed temp
M190 S85 ; wait for bed temp
M109 S230 ; wait for extruder temp
G28 W ; home all without mesh bed level
G80 ; mesh bed leveling
G21 ; set units to millimeters

; Send the filament type to the MMU2.0 unit.
; E stands for extruder number, F stands for filament type (0: default; 1:flex; 2: PVA)
M403 E0 F0
M403 E1 F0
M403 E2 F0
M403 E3 F0
M403 E4 F0


;go outside print area
G1 Y-3.0 F1000.0
G1 Z0.4 F1000.0
; select extruder
T0
; initial load
G1 X55.0 E29.0 F1073.0
M73 Q1 S29
M73 P1 R29
G1 X5.0 E29.0 F1800.0
G1 X55.0 E8.0 F2000.0
G1 Z0.3 F1000.0
G92 E0.0
G1 X240.0 E25.0 F2200.0
G1 Y-2.0 F1000.0
G1 X55.0 E25 F1400.0
G1 Z0.20 F1000.0
G1 X5.0 E4.0 F1000.0
G92 E0.0


M221 S95
G92 E0.0
M900 K45 ; Filament gcode
G21 ; set units to millimeters
G90 ; use absolute coordinates
M83 ; use relative distances for extrusion
;BEFORE_LAYER_CHANGE
G92 E0.0
;0.2


G1 E-0.80000 F2100.00000
G1 Z0.600 F10800.000
;AFTER_LAYER_CHANGE
;0.2
G1 X104.661 Y94.212
G1 Z0.200
G1 E0.80000 F2100.00000
M204 S1000
G1 F1200
G1 X105.099 Y93.903 E0.01680
G1 X105.599 Y93.710 E0.01680
G1 X106.134 Y93.644 E0.01692
G1 X144.178 Y94.200 E1.19297
G1 X144.740 Y94.287 E0.01783
G1 X145.261 Y94.516 E0.01783
G1 X145.800 Y94.976 E0.02225
G1 X146.164 Y95.586 E0.02225
G1 X146.572 Y96.899 E0.04312
G1 X146.774 Y98.354 E0.04606
G1 X146.517 Y116.849 E0.57995
G1 X146.429 Y117.403 E0.01760
G1 X146.202 Y117.917 E0.01760
G1 X145.853 Y118.356 E0.01760
G1 X145.406 Y118.690 E0.01749
G1 X144.889 Y118.900 E0.01749
G1 X144.336 Y118.972 E0.01749
G1 X105.287 Y118.402 E1.22449
G1 X104.725 Y118.316 E0.01783
G1 X104.201 Y118.086 E0.01794
G1 X103.777 Y117.752 E0.01692
G1 X103.448 Y117.325 E0.01692
G1 X103.234 Y116.830 E0.01692
G1 X103.147 Y116.297 E0.01692
G1 X103.431 Y97.696 E0.58329
G1 X103.692 Y96.206 E0.04744
G1 X104.005 Y95.250 E0.03154
G1 X104.311 Y94.618 E0.02201
G1 X104.622 Y94.258 E0.01492
G1 F8640
G1 X105.099 Y93.903 E-0.13722
G1 X105.599 Y93.710 E-0.12374
G1 X106.134 Y93.644 E-0.12458
G1 X107.756 Y93.668 E-0.37445
G1 E-0.04000 F2100.00000
G1 Z0.800 F10800.000
G1 X142.986 Y115.400
G1 Z0.200
G1 E0.80000 F2100.00000
G1 F1200
G1 X106.718 Y114.870 E1.13727
G1 X106.967 Y98.115 E0.52538
G1 X107.225 Y98.119 E0.00809
G1 X107.232 Y98.255 E0.00426
G1 X107.219 Y98.536 E0.00883
G1 X107.118 Y99.263 E0.02302
G1 X106.894 Y114.600 E0.48094
G1 X142.818 Y115.126 E1.12651
G1 X143.042 Y99.788 E0.48094
G1 X142.963 Y99.059 E0.02302
G1 X142.958 Y98.777 E0.00883
G1 X142.969 Y98.642 E0.00426
G1 X143.226 Y98.645 E0.00809
G1 X142.987 Y115.340 E0.52350
G1 F8640
G1 X139.695 Y115.297 E-0.76000
G1 E-0.04000 F2100.00000
G1 Z0.800 F10800.000
G1 X107.276 Y114.229
G1 Z0.200
G1 E0.80000 F2100.00000
G1 F1200
G1 X142.446 Y114.743 E1.10286
G1 X142.665 Y99.806 E0.46839
G1 X142.586 Y99.082 E0.02283
G1 X142.581 Y98.766 E0.00993
G1 X142.620 Y98.259 E0.01592
G1 X143.581 Y98.273 E0.03015
G1 X143.606 Y98.781 E0.01592
G1 X143.357 Y115.783 E0.53314
G1 X106.335 Y115.241 E1.16092
G1 X106.584 Y98.239 E0.53314
G1 X106.623 Y97.733 E0.01592
G1 X107.585 Y97.747 E0.03015
G1 X107.609 Y98.254 E0.01592
G1 X107.595 Y98.571 E0.00993
G1 X107.495 Y99.292 E0.02283
G1 X107.277 Y114.169 E0.46651
G1 X107.659 Y113.857 F10800.000
G1 F1200
G1 X142.075 Y114.361 E1.07921
G1 X142.288 Y99.824 E0.45584
G1 X142.209 Y99.106 E0.02265
G1 X142.203 Y98.754 E0.01103
G1 X142.260 Y98.029 E0.02280
G1 X142.286 Y97.877 E0.00483
G1 X143.920 Y97.901 E0.05126
G1 X143.977 Y98.422 E0.01642
G1 X143.983 Y98.780 E0.01124
G1 X143.729 Y116.165 E0.54515
G1 X105.953 Y115.613 E1.18457
G1 X106.207 Y98.228 E0.54515
G1 X106.224 Y97.870 E0.01124
G1 X106.295 Y97.351 E0.01642
G1 X107.930 Y97.375 E0.05126
G1 X107.952 Y97.527 E0.00483
G1 X107.987 Y98.254 E0.02280
G1 X107.970 Y98.605 E0.01103
G1 X107.871 Y99.321 E0.02265
G1 X107.660 Y113.797 E0.45396
G1 X107.652 Y114.257 F10800.000
;BEFORE_LAYER_CHANGE
G92 E0.0
;0.4


G1 F8640
G1 X110.950 Y113.851 E-0.76000
G1 E-0.04000 F2100.00000
G1 Z0.800 F10800.000
;AFTER_LAYER_CHANGE
;0.4
M140 S90 ; set bed temperature
G1 X104.725 Y118.316
G1 Z0.400
G1 E0.80000 F2100.00000
G1 F2145
G1 X104.201 Y118.086 E0.01794
G1 X103.777 Y117.752 E0.01692
G1 X103.448 Y117.325 E0.01692
G1 X103.234 Y116.830 E0.01692
G1 X103.147 Y116.297 E0.01692
G1 X103.431 Y97.696 E0.58329
G1 X103.692 Y96.206 E0.04744
G1 X104.005 Y95.250 E0.03154
G1 X104.311 Y94.618 E0.02201
G1 X104.661 Y94.212 E0.01680
G1 X105.099 Y93.903 E0.01680
G1 X105.599 Y93.710 E0.01680
G1 X106.134 Y93.644 E0.01692
G1 X144.178 Y94.200 E1.19297
G1 X144.740 Y94.287 E0.01783
G1 X145.261 Y94.516 E0.01783
G1 X145.800 Y94.976 E0.02225
G1 X146.164 Y95.586 E0.02225
G1 X146.572 Y96.899 E0.04312
G1 X146.774 Y98.354 E0.04606
G1 X146.517 Y116.849 E0.57995
G1 X146.429 Y117.403 E0.01760
G1 X146.202 Y117.917 E0.01760
G1 X145.853 Y118.356 E0.01760
G1 X145.406 Y118.690 E0.01749
G1 X144.889 Y118.900 E0.01749
G1 X144.336 Y118.972 E0.01749
G1 X105.287 Y118.402 E1.22449
G1 X104.785 Y118.325 E0.01595
G1 F8640
G1 X104.201 Y118.086 E-0.14554
G1 X103.777 Y117.752 E-0.12458
G1 X103.448 Y117.325 E-0.12458
G1 X103.234 Y116.830 E-0.12458
G1 X103.147 Y116.297 E-0.12458
G1 X103.155 Y115.794 E-0.11613
G1 E-0.04000 F2100.00000
G1 Z1.000 F10800.000
G1 X143.109 Y115.527
G1 Z0.400
G1 E0.80000 F2100.00000
M204 S800
G1 F2145
G1 X106.591 Y114.993 E1.23622
G1 X106.836 Y98.266 E0.56623
G1 X106.884 Y97.643 E0.02115
G1 X106.933 Y97.402 E0.00832
G1 X107.294 Y97.408 E0.01224
G1 X107.326 Y97.634 E0.00773
G1 X107.356 Y98.241 E0.02058
G1 X107.309 Y98.848 E0.02058
G1 X107.262 Y99.120 E0.00935
G1 X107.032 Y99.980 E0.03013
G1 X106.820 Y114.474 E0.49068
G1 X142.895 Y115.002 E1.22121
G1 X143.107 Y100.492 E0.49119
G1 X142.973 Y99.988 E0.01765
G1 X142.863 Y99.352 E0.02187
G1 X142.834 Y98.760 E0.02005
G1 X142.880 Y98.170 E0.02005
G1 X142.929 Y97.929 E0.00832
G1 X143.291 Y97.934 E0.01224
G1 X143.323 Y98.160 E0.00773
G1 X143.353 Y98.800 E0.02169
G1 X143.110 Y115.467 E0.56420
M204 S1000
G1 F8640
G1 X139.819 Y115.424 E-0.76000
G1 E-0.04000 F2100.00000
G1 Z1.000 F10800.000
G1 X107.233 Y114.073
G1 Z0.400
G1 E0.80000 F2100.00000
M73 Q5 S28
M204 S800
G1 F2145
G1 X142.494 Y114.589 E1.19365
M73 P5 R28
G1 X142.699 Y100.543 E0.47550
G1 X142.575 Y100.076 E0.01636
G1 X142.458 Y99.396 E0.02333
G1 X142.427 Y98.754 E0.02176
G1 X142.476 Y98.113 E0.02176
G1 X142.597 Y97.517 E0.02060
G1 X143.618 Y97.532 E0.03457
G1 X143.684 Y97.811 E0.00972
G1 X143.728 Y98.122 E0.01062
G1 X143.761 Y98.794 E0.02276
G1 X143.510 Y115.940 E0.58044
G1 X106.178 Y115.394 E1.26377
G1 X106.429 Y98.248 E0.58044
G1 X106.480 Y97.587 E0.02243
G1 X106.601 Y96.990 E0.02060
G1 X107.622 Y97.005 E0.03457
G1 X107.688 Y97.285 E0.00972
G1 X107.732 Y97.595 E0.01062
G1 X107.764 Y98.247 E0.02209
G1 X107.713 Y98.898 E0.02209
G1 X107.660 Y99.207 E0.01062
G1 X107.439 Y100.036 E0.02905
G1 X107.234 Y114.013 E0.47316
M204 S1000
G1 X107.646 Y113.672 F10800.000
M204 S800
G1 F1500
G1 X142.093 Y114.176 E1.16609
G1 X142.291 Y100.593 E0.45982
G1 X142.177 Y100.163 E0.01507
G1 X142.052 Y99.441 E0.02479
G1 X142.019 Y98.748 E0.02347
G1 X142.072 Y98.057 E0.02347
G1 X142.218 Y97.339 E0.02479
G1 X142.288 Y97.105 E0.00825
G1 X143.942 Y97.129 E0.05599
G1 X144.085 Y97.736 E0.02109
G1 X144.134 Y98.083 E0.01188
G1 X144.168 Y98.787 E0.02383
G1 X143.911 Y116.353 E0.59465
G1 X105.765 Y115.795 E1.29133
G1 X106.022 Y98.229 E0.59465
G1 X106.076 Y97.530 E0.02371
G1 X106.222 Y96.812 E0.02479
G1 X106.291 Y96.579 E0.00825
G1 X107.946 Y96.603 E0.05599
G1 X108.089 Y97.209 E0.02109
G1 X108.138 Y97.557 E0.01188
G1 X108.171 Y98.253 E0.02359
G1 X108.117 Y98.948 E0.02359
G1 X108.058 Y99.294 E0.01188
G1 X107.845 Y100.092 E0.02797
G1 X107.647 Y113.612 E0.45767
M204 S1000
G1 X107.639 Y114.072 F10800.000
G1 F8640
G1 X110.938 Y113.666 E-0.76000
G1 E-0.04000 F2100.00000
G1 Z1.000 F10800.000
G1 X106.798 Y114.735
G1 Z0.400
G1 E0.80000 F2100.00000
G1 F2145
G1 X142.909 Y115.263 E0.34416
G1 F8640
G1 X139.618 Y115.215 E-0.76000
G1 E-0.04000 F2100.00000
G1 Z1.000 F10800.000
G1 X143.116 Y99.475
G1 Z0.400
G1 E0.80000 F2100.00000
G1 F2145
G1 X143.093 Y98.764 E0.00454
G1 X143.100 Y98.295 E0.00299
G1 F8640
G1 X143.093 Y98.764 E-0.10825
G1 X143.116 Y99.475 E-0.16419
G1 E-0.52756 F2100.00000
G1 Z1.000 F10800.000
G1 X107.104 Y97.769
G1 Z0.400
G1 E0.80000 F2100.00000
G1 F2145
G1 X107.054 Y98.983 E0.00826
;BEFORE_LAYER_CHANGE
G92 E0.0
;0.6


G1 F8640
G1 X107.104 Y97.769 E-0.28060
G1 E-0.51940 F2100.00000
G1 Z1.000 F10800.000
;AFTER_LAYER_CHANGE
;0.6
G1 X104.311 Y94.618
G1 Z0.600
G1 E0.80000 F2100.00000
G1 F2352
G1 X104.661 Y94.212 E0.01680
G1 X105.099 Y93.903 E0.01680
G1 X105.599 Y93.710 E0.01680
G1 X106.134 Y93.644 E0.01692
G1 X144.178 Y94.200 E1.19297
G1 X144.740 Y94.287 E0.01783
G1 X145.261 Y94.516 E0.01783
G1 X145.800 Y94.976 E0.02225
G1 X146.164 Y95.586 E0.02225
G1 X146.572 Y96.899 E0.04312
G1 X146.774 Y98.354 E0.04606
G1 X146.517 Y116.849 E0.57995
G1 X146.429 Y117.403 E0.01760
G1 X146.202 Y117.917 E0.01760
G1 X145.853 Y118.356 E0.01760
G1 X145.406 Y118.690 E0.01749
G1 X144.889 Y118.900 E0.01749
G1 X144.336 Y118.972 E0.01749
G1 X105.287 Y118.402 E1.22449
G1 X104.725 Y118.316 E0.01783
G1 X104.201 Y118.086 E0.01794
G1 X103.777 Y117.752 E0.01692
G1 X103.448 Y117.325 E0.01692
G1 X103.234 Y116.830 E0.01692
G1 X103.147 Y116.297 E0.01692
G1 X103.431 Y97.696 E0.58329
G1 X103.692 Y96.206 E0.04744
G1 X104.005 Y95.250 E0.03154
G1 X104.285 Y94.672 E0.02013
G1 F8640
G1 X104.661 Y94.212 E-0.13718
G1 X105.099 Y93.903 E-0.12374
G1 X105.599 Y93.710 E-0.12374
G1 X106.134 Y93.644 E-0.12458
G1 X107.220 Y93.660 E-0.25075
G1 E-0.04000 F2100.00000
G1 Z1.200 F10800.000
G1 X143.306 Y115.730
G1 Z0.600
G1 E0.80000 F2100.00000
M204 S800
G1 F2352
G1 X106.389 Y115.190 E1.24973
G1 X106.651 Y97.950 E0.58361
G1 X106.734 Y97.359 E0.02022
G1 X106.857 Y96.882 E0.01665
G1 X107.376 Y96.890 E0.01758
G1 X107.485 Y97.370 E0.01665
G1 X107.551 Y97.963 E0.02021
G1 X107.543 Y98.525 E0.01902
G1 X107.462 Y99.101 E0.01969
G1 X107.297 Y99.725 E0.02186
G1 X107.026 Y100.446 E0.02606
G1 X106.823 Y114.274 E0.46812
G1 X142.898 Y114.802 E1.22121
G1 X143.100 Y100.974 E0.46812
G1 X142.845 Y100.232 E0.02655
G1 X142.767 Y99.935 E0.01037
G1 X142.662 Y99.323 E0.02102
G1 X142.634 Y98.757 E0.01919
G1 X142.678 Y98.192 E0.01919
G1 X142.853 Y97.409 E0.02716
G1 X143.367 Y97.416 E0.01741
G1 X143.487 Y97.927 E0.01774
G1 X143.524 Y98.189 E0.00895
G1 X143.553 Y98.803 E0.02083
G1 X143.307 Y115.670 E0.57097
M204 S1000
G1 F8640
G1 X140.016 Y115.627 E-0.76000
G1 E-0.04000 F2100.00000
G1 Z1.200 F10800.000
G1 X107.236 Y113.873
G1 Z0.600
G1 E0.80000 F2100.00000
M204 S800
G1 F2352
G1 X142.497 Y114.389 E1.19365
G1 X142.692 Y101.039 E0.45194
G1 X142.456 Y100.350 E0.02465
G1 X142.369 Y100.022 E0.01147
G1 X142.256 Y99.368 E0.02246
G1 X142.227 Y98.751 E0.02090
G1 X142.274 Y98.136 E0.02090
G1 X142.406 Y97.485 E0.02246
G1 X142.563 Y96.998 E0.01734
G1 X143.674 Y97.014 E0.03761
G1 X143.728 Y97.170 E0.00558
G1 X143.887 Y97.852 E0.02371
G1 X143.929 Y98.150 E0.01020
G1 X143.961 Y98.796 E0.02190
G1 X143.707 Y116.143 E0.58721
G1 X105.976 Y115.591 E1.27730
G1 X106.244 Y97.919 E0.59825
G1 X106.334 Y97.284 E0.02169
G1 X106.408 Y96.968 E0.01100
G1 X106.567 Y96.471 E0.01765
G1 X107.678 Y96.487 E0.03761
G1 X107.823 Y96.988 E0.01765
G1 X107.888 Y97.307 E0.01100
G1 X107.958 Y97.944 E0.02169
G1 X107.949 Y98.556 E0.02075
G1 X107.862 Y99.182 E0.02137
G1 X107.685 Y99.849 E0.02338
G1 X107.432 Y100.523 E0.02435
G1 X107.237 Y113.813 E0.44991
M204 S1000
G1 X107.649 Y113.472 F10800.000
M204 S800
G1 F1500
G1 X142.096 Y113.976 E1.16609
G1 X142.284 Y101.104 E0.43576
G1 X142.066 Y100.468 E0.02276
G1 X141.971 Y100.109 E0.01257
G1 X141.851 Y99.413 E0.02391
G1 X141.819 Y98.745 E0.02262
G1 X141.870 Y98.079 E0.02262
G1 X142.011 Y97.387 E0.02391
G1 X142.116 Y97.031 E0.01257
G1 X142.283 Y96.586 E0.01607
G1 X143.966 Y96.611 E0.05699
G1 X144.120 Y97.057 E0.01597
G1 X144.288 Y97.777 E0.02502
G1 X144.335 Y98.112 E0.01145
G1 X144.368 Y98.790 E0.02297
G1 X144.108 Y116.556 E0.60142
G1 X105.562 Y115.992 E1.30487
G1 X105.838 Y97.887 E0.61290
G1 X105.933 Y97.209 E0.02317
G1 X106.014 Y96.864 E0.01201
G1 X106.120 Y96.504 E0.01268
G1 X106.287 Y96.060 E0.01607
G1 X107.970 Y96.085 E0.05699
G1 X108.124 Y96.534 E0.01607
G1 X108.220 Y96.896 E0.01268
G1 X108.290 Y97.244 E0.01201
G1 X108.366 Y97.924 E0.02317
G1 X108.356 Y98.588 E0.02247
G1 X108.261 Y99.262 E0.02306
G1 X108.073 Y99.974 E0.02490
G1 X107.838 Y100.600 E0.02265
G1 X107.650 Y113.412 E0.43373
M204 S1000
G1 X107.641 Y113.872 F10800.000
G1 F8640
G1 X110.941 Y113.466 E-0.76000
G1 E-0.04000 F2100.00000
G1 Z1.200 F10800.000
G1 X107.349 Y115.082
G1 Z0.600
G1 E0.80000 F2100.00000
M204 S1250
G1 F2352
G1 X106.847 Y114.580 E0.02405
G1 X107.433 Y114.589 E0.01984
G1 X107.748 Y114.904 E0.01514
G1 X108.334 Y114.913 E0.01984
G1 X108.018 Y114.597 E0.01514
G1 X108.603 Y114.606 E0.01984
G1 X108.919 Y114.921 E0.01514
G1 X109.504 Y114.930 E0.01984
G1 X109.188 Y114.614 E0.01514
G1 X109.774 Y114.623 E0.01984
G1 X110.089 Y114.939 E0.01514
G1 X110.674 Y114.947 E0.01984
G1 X110.359 Y114.631 E0.01514
G1 X110.944 Y114.640 E0.01984
G1 X111.260 Y114.956 E0.01514
G1 X111.845 Y114.964 E0.01984
G1 X111.529 Y114.649 E0.01514
G1 X112.114 Y114.657 E0.01984
G1 X112.430 Y114.973 E0.01514
G1 X113.015 Y114.981 E0.01984
G1 X112.700 Y114.666 E0.01514
G1 X113.285 Y114.674 E0.01984
G1 X113.600 Y114.990 E0.01514
G1 X114.186 Y114.998 E0.01984
G1 X113.870 Y114.683 E0.01514
G1 X114.455 Y114.691 E0.01984
G1 X114.771 Y115.007 E0.01514
G1 X115.356 Y115.016 E0.01984
G1 X115.040 Y114.700 E0.01514
G1 X115.626 Y114.708 E0.01984
G1 X115.941 Y115.024 E0.01514
G1 X116.526 Y115.033 E0.01984
G1 X116.211 Y114.717 E0.01514
G1 X116.796 Y114.726 E0.01984
G1 X117.112 Y115.041 E0.01514
G1 X117.697 Y115.050 E0.01984
G1 X117.381 Y114.734 E0.01514
G1 X117.966 Y114.743 E0.01984
G1 X118.282 Y115.058 E0.01514
G1 X118.867 Y115.067 E0.01984
G1 X118.552 Y114.751 E0.01514
G1 X119.137 Y114.760 E0.01984
G1 X119.452 Y115.075 E0.01514
G1 X120.038 Y115.084 E0.01984
G1 X119.722 Y114.768 E0.01514
G1 X120.307 Y114.777 E0.01984
G1 X120.623 Y115.093 E0.01514
G1 X121.208 Y115.101 E0.01984
G1 X120.892 Y114.785 E0.01514
G1 X121.478 Y114.794 E0.01984
G1 X121.793 Y115.110 E0.01514
G1 X122.378 Y115.118 E0.01984
G1 X122.063 Y114.803 E0.01514
G1 X122.648 Y114.811 E0.01984
G1 X122.964 Y115.127 E0.01514
G1 X123.549 Y115.135 E0.01984
G1 X123.233 Y114.820 E0.01514
G1 X123.818 Y114.828 E0.01984
G1 X124.134 Y115.144 E0.01514
G1 X124.719 Y115.153 E0.01984
G1 X124.404 Y114.837 E0.01514
G1 X124.989 Y114.845 E0.01984
G1 X125.305 Y115.161 E0.01514
G1 X125.890 Y115.170 E0.01984
G1 X125.574 Y114.854 E0.01514
G1 X126.159 Y114.862 E0.01984
G1 X126.475 Y115.178 E0.01514
G1 X127.060 Y115.187 E0.01984
G1 X126.744 Y114.871 E0.01514
G1 X127.330 Y114.880 E0.01984
G1 X127.645 Y115.195 E0.01514
G1 X128.231 Y115.204 E0.01984
G1 X127.915 Y114.888 E0.01514
G1 X128.500 Y114.897 E0.01984
G1 X128.816 Y115.212 E0.01514
G1 X129.401 Y115.221 E0.01984
G1 X129.085 Y114.905 E0.01514
G1 X129.670 Y114.914 E0.01984
G1 X129.986 Y115.230 E0.01514
G1 X130.571 Y115.238 E0.01984
G1 X130.256 Y114.922 E0.01514
G1 X130.841 Y114.931 E0.01984
G1 X131.157 Y115.247 E0.01514
G1 X131.742 Y115.255 E0.01984
G1 X131.426 Y114.939 E0.01514
G1 X132.011 Y114.948 E0.01984
G1 X132.327 Y115.264 E0.01514
G1 X132.912 Y115.272 E0.01984
G1 X132.596 Y114.957 E0.01514
