; generated by PrusaSlicer 2.0.0+win64 on 2019-09-12 at 19:16:02

; 

; external perimeters extrusion width = 0.45mm
; perimeters extrusion width = 0.45mm
; infill extrusion width = 0.45mm
; solid infill extrusion width = 0.45mm
; top infill extrusion width = 0.40mm
; first layer extrusion width = 0.42mm

M73 P0 R16
M73 Q0 S16
M201 X1000 Y1000 Z1000 E5000 ; sets maximum accelerations, mm/sec^2
M203 X200 Y200 Z12 E120 ; sets maximum feedrates, mm/sec
M204 P1250 R1250 T1250 ; sets acceleration (P, T) and retract acceleration (R), mm/sec^2
M205 X8.00 Y8.00 Z0.40 E1.50 ; sets the jerk limits, mm/sec
M205 S0 T0 ; sets the minimum extruding and travel feed rate, mm/sec
M107
M115 U3.7.2 ; tell printer latest fw version
G90 ; use absolute coordinates
M83 ; extruder relative mode
M104 S240 ; set extruder temp
M140 S85 ; set bed temp
Tx
M190 S85 ; wait for bed temp
M109 S240 ; wait for extruder temp
G28 W ; home all without mesh bed level
G80 ; mesh bed leveling

G21 ; set units to millimeters

;go outside print area
G1 Y-3.0 F1000.0
G1 Z0.4 F1000.0
; select extruder
Tc
; purge line
G1 X55.0 F2000.0
G1 Z0.3 F1000.0
G92 E0.0
G1 X240.0 E25.0 F2200.0
M73 Q0 S16
M73 P0 R16
G1 Y-2.0 F1000.0
G1 X55.0 E25 F1400.0
G1 Z0.20 F1000.0
G1 X5.0 E4.0 F1000.0

M221 S95
G92 E0.0
M900 K45 ; Filament gcode
G21 ; set units to millimeters
G90 ; use absolute coordinates
M83 ; use relative distances for extrusion
;BEFORE_LAYER_CHANGE
G92 E0.0
;0.2


G1 E-0.80000 F2100.00000
G1 Z0.600 F10800.000
;AFTER_LAYER_CHANGE
;0.2
G1 X108.986 Y74.536
G1 Z0.200
G1 E0.80000 F2100.00000
M204 S1000
G1 F1200
G1 X109.232 Y73.901 E0.02134
G1 X109.662 Y73.373 E0.02134
G1 X110.232 Y73.002 E0.02134
G1 X110.886 Y72.825 E0.02123
G1 X124.629 Y72.811 E0.43090
G1 X125.168 Y72.880 E0.01703
G1 X125.676 Y73.080 E0.01714
G1 X139.979 Y81.210 E0.51583
G1 X140.549 Y81.690 E0.02338
G1 X140.925 Y82.334 E0.02338
G1 X141.064 Y83.092 E0.02417
G1 X141.014 Y116.564 E1.04949
G1 X140.867 Y117.007 E0.01464
G1 X140.627 Y117.412 E0.01475
G1 X126.366 Y136.326 E0.74271
G1 X125.853 Y136.811 E0.02213
G1 X125.290 Y137.085 E0.01964
G1 X124.672 Y137.188 E0.01964
G1 X110.661 Y137.139 E0.43930
G1 X109.988 Y136.870 E0.02270
G1 X109.440 Y136.397 E0.02270
G1 X109.076 Y135.768 E0.02281
G1 X108.937 Y135.057 E0.02270
G1 X108.986 Y74.596 E1.89572
G1 F8640
G1 X109.232 Y73.901 E-0.17017
G1 X109.662 Y73.373 E-0.15717
G1 X110.232 Y73.002 E-0.15717
G1 X110.886 Y72.825 E-0.15634
G1 X111.402 Y72.824 E-0.11916
G1 E-0.04000 F2100.00000
G1 Z0.800 F10800.000
G1 X134.446 Y114.222
G1 Z0.200
G1 E0.80000 F2100.00000
G1 F1200
G1 X134.302 Y114.505 E0.00997
G1 X134.107 Y114.757 E0.00997
G1 X133.868 Y114.967 E0.00997
G1 X133.594 Y115.129 E0.00997
G1 X133.286 Y115.240 E0.01026
G1 X132.875 Y115.292 E0.01300
G1 X132.466 Y115.240 E0.01292
G1 X132.156 Y115.129 E0.01034
G1 X131.882 Y114.967 E0.00998
G1 X131.643 Y114.757 E0.00997
G1 X131.448 Y114.505 E0.00997
G1 X131.304 Y114.222 E0.00997
G1 X131.215 Y113.917 E0.00997
G1 X131.185 Y113.600 E0.00997
G1 X131.215 Y113.283 E0.00997
G1 X131.304 Y112.978 E0.00997
G1 X131.448 Y112.695 E0.00997
G1 X131.643 Y112.443 E0.00997
G1 X131.882 Y112.233 E0.00997
G1 X132.156 Y112.071 E0.00997
G1 X132.463 Y111.960 E0.01026
G1 X132.863 Y111.910 E0.01263
G1 X133.191 Y111.940 E0.01034
G1 X133.497 Y112.029 E0.00998
G1 X133.780 Y112.173 E0.00997
G1 X134.039 Y112.374 E0.01026
G1 X134.297 Y112.686 E0.01271
G1 X134.446 Y112.978 E0.01027
G1 X134.535 Y113.283 E0.00997
G1 X134.565 Y113.600 E0.00997
G1 X134.535 Y113.917 E0.00997
G1 X134.463 Y114.164 E0.00809
G1 X134.094 Y114.083 F10800.000
G1 F1200
G1 X133.982 Y114.302 E0.00774
G1 X133.831 Y114.497 E0.00774
G1 X133.646 Y114.661 E0.00774
G1 X133.433 Y114.786 E0.00774
G1 X133.198 Y114.871 E0.00784
G1 X132.875 Y114.912 E0.01020
G1 X132.555 Y114.871 E0.01013
G1 X132.317 Y114.786 E0.00792
G1 X132.104 Y114.661 E0.00774
G1 X131.919 Y114.497 E0.00774
G1 X131.768 Y114.302 E0.00774
G1 X131.656 Y114.083 E0.00774
G1 X131.587 Y113.846 E0.00774
G1 X131.564 Y113.600 E0.00774
G1 X131.587 Y113.354 E0.00774
G1 X131.656 Y113.117 E0.00774
G1 X131.768 Y112.898 E0.00774
G1 X131.919 Y112.703 E0.00774
G1 X132.104 Y112.539 E0.00774
G1 X132.317 Y112.414 E0.00774
G1 X132.552 Y112.329 E0.00784
G1 X132.869 Y112.289 E0.01002
G1 X133.120 Y112.312 E0.00791
G1 X133.358 Y112.381 E0.00774
G1 X133.577 Y112.493 E0.00774
G1 X133.775 Y112.646 E0.00784
G1 X133.980 Y112.895 E0.01010
G1 X134.094 Y113.117 E0.00784
G1 X134.163 Y113.354 E0.00774
G1 X134.186 Y113.600 E0.00774
G1 X134.163 Y113.846 E0.00774
G1 X134.111 Y114.025 E0.00585
G1 X134.247 Y114.276 F10800.000
G1 F8640
G1 X133.982 Y114.302 E-0.07064
G1 X133.831 Y114.497 E-0.05697
G1 X133.646 Y114.661 E-0.05697
G1 X133.433 Y114.786 E-0.05697
G1 X133.198 Y114.871 E-0.05774
G1 X132.875 Y114.912 E-0.07514
G1 X132.555 Y114.871 E-0.07459
G1 X132.317 Y114.786 E-0.05829
G1 X132.104 Y114.661 E-0.05701
G1 X131.919 Y114.497 E-0.05697
G1 X131.768 Y114.302 E-0.05697
G1 X131.656 Y114.083 E-0.05698
G1 X131.626 Y113.980 E-0.02476
G1 E-0.04000 F2100.00000
G1 Z0.800 F10800.000
G1 X134.383 Y115.016
G1 Z0.200
G1 E0.80000 F2100.00000
G1 F1200
G1 X134.621 Y114.708 E0.01221
G1 X134.798 Y114.361 E0.01221
G1 X134.907 Y113.987 E0.01221
G1 X134.943 Y113.600 E0.01220
G1 X134.907 Y113.213 E0.01220
G1 X134.798 Y112.839 E0.01221
G1 X134.615 Y112.478 E0.01269
G1 X134.255 Y112.064 E0.01719
G1 X137.911 Y112.064 E0.11463
G1 X137.911 Y115.136 E0.09631
G1 X134.247 Y115.136 E0.11488
G1 X134.338 Y115.056 E0.00380
G1 F8640
G1 X134.621 Y114.708 E-0.10353
G1 X134.798 Y114.361 E-0.08993
G1 X134.907 Y113.987 E-0.08989
G1 X134.943 Y113.600 E-0.08987
G1 X134.907 Y113.213 E-0.08987
G1 X134.798 Y112.839 E-0.08989
G1 X134.615 Y112.478 E-0.09348
G1 X134.292 Y112.107 E-0.11355
G1 E-0.04000 F2100.00000
G1 Z0.800 F10800.000
G1 X134.383 Y87.136
G1 Z0.200
G1 E0.80000 F2100.00000
G1 F1200
G1 X134.243 Y87.136 E0.00438
G1 X134.374 Y87.028 E0.00530
G1 X134.622 Y86.708 E0.01269
G1 X134.798 Y86.361 E0.01221
G1 X134.907 Y85.987 E0.01220
G1 X134.943 Y85.600 E0.01220
G1 X134.907 Y85.213 E0.01220
G1 X134.798 Y84.839 E0.01220
G1 X134.615 Y84.478 E0.01269
G1 X134.255 Y84.064 E0.01719
G1 X137.911 Y84.064 E0.11463
G1 X137.911 Y87.136 E0.09631
G1 X134.443 Y87.136 E0.10874
G1 X134.101 Y86.764 F10800.000
G1 F1200
G1 X133.789 Y87.022 E0.01271
G1 X133.497 Y87.171 E0.01027
G1 X133.192 Y87.260 E0.00997
G1 X132.875 Y87.290 E0.00997
G1 X132.558 Y87.260 E0.00997
G1 X132.253 Y87.171 E0.00997
G1 X131.961 Y87.022 E0.01027
G1 X131.649 Y86.764 E0.01271
G1 X131.448 Y86.505 E0.01026
G1 X131.304 Y86.222 E0.00997
G1 X131.215 Y85.917 E0.00997
G1 X131.185 Y85.600 E0.00997
G1 X131.215 Y85.283 E0.00997
G1 X131.304 Y84.978 E0.00997
G1 X131.448 Y84.695 E0.00997
G1 X131.643 Y84.443 E0.00997
G1 X131.882 Y84.233 E0.00997
G1 X132.156 Y84.071 E0.00997
G1 X132.463 Y83.960 E0.01026
G1 X132.863 Y83.910 E0.01263
G1 X133.191 Y83.940 E0.01034
G1 X133.497 Y84.029 E0.00998
G1 X133.780 Y84.173 E0.00998
G1 X134.039 Y84.374 E0.01026
G1 X134.297 Y84.686 E0.01271
G1 X134.446 Y84.978 E0.01027
G1 X134.535 Y85.283 E0.00997
G1 X134.565 Y85.600 E0.00997
G1 X134.535 Y85.917 E0.00997
G1 X134.446 Y86.222 E0.00997
G1 X134.302 Y86.505 E0.00997
G1 X134.138 Y86.717 E0.00838
G1 X133.829 Y86.500 F10800.000
G1 F1200
G1 X133.580 Y86.705 E0.01010
G1 X133.358 Y86.819 E0.00784
G1 X133.121 Y86.888 E0.00773
G1 X132.875 Y86.911 E0.00774
G1 X132.629 Y86.888 E0.00774
G1 X132.392 Y86.819 E0.00773
G1 X132.170 Y86.705 E0.00784
G1 X131.921 Y86.500 E0.01010
G1 X131.768 Y86.302 E0.00784
G1 X131.656 Y86.083 E0.00774
G1 X131.587 Y85.846 E0.00773
G1 X131.564 Y85.600 E0.00774
G1 X131.587 Y85.354 E0.00774
G1 X131.656 Y85.117 E0.00773
G1 X131.768 Y84.898 E0.00774
G1 X131.919 Y84.703 E0.00774
G1 X132.104 Y84.539 E0.00774
G1 X132.317 Y84.414 E0.00774
G1 X132.552 Y84.329 E0.00784
G1 X132.869 Y84.289 E0.01002
G1 X133.120 Y84.312 E0.00791
G1 X133.358 Y84.381 E0.00774
G1 X133.577 Y84.493 E0.00774
G1 X133.775 Y84.646 E0.00784
G1 X133.980 Y84.895 E0.01010
G1 X134.094 Y85.117 E0.00784
G1 X134.163 Y85.354 E0.00773
G1 X134.186 Y85.600 E0.00774
G1 X134.163 Y85.846 E0.00774
G1 X134.094 Y86.083 E0.00773
G1 X133.982 Y86.302 E0.00774
G1 X133.865 Y86.453 E0.00596
G1 X133.915 Y86.810 F10800.000
G1 F8640
G1 X133.580 Y86.705 E-0.08796
G1 X133.358 Y86.819 E-0.05776
G1 X133.121 Y86.888 E-0.05696
G1 X132.875 Y86.911 E-0.05696
G1 X132.629 Y86.888 E-0.05696
G1 X132.392 Y86.819 E-0.05696
G1 X132.170 Y86.705 E-0.05776
G1 X131.921 Y86.500 E-0.07439
G1 X131.768 Y86.302 E-0.05774
G1 X131.656 Y86.083 E-0.05699
G1 X131.587 Y85.846 E-0.05696
G1 X131.564 Y85.600 E-0.05696
G1 X131.575 Y85.490 E-0.02563
G1 E-0.04000 F2100.00000
G1 Z0.800 F10800.000
G1 X117.520 Y127.198
G1 Z0.200
G1 E0.80000 F2100.00000
G1 F1200
G1 X117.948 Y127.416 E0.01504
G1 X118.315 Y127.700 E0.01457
G1 X118.622 Y128.049 E0.01457
G1 X118.858 Y128.449 E0.01456
G1 X119.016 Y128.886 E0.01457
G1 X119.089 Y129.345 E0.01456
G1 X119.074 Y129.825 E0.01504
G1 X118.927 Y130.395 E0.01847
G1 X118.709 Y130.823 E0.01504
G1 X118.425 Y131.190 E0.01457
G1 X118.076 Y131.497 E0.01457
G1 X117.676 Y131.733 E0.01456
G1 X117.239 Y131.891 E0.01457
G1 X116.780 Y131.964 E0.01456
G1 X116.300 Y131.949 E0.01504
G1 X115.730 Y131.802 E0.01847
G1 X115.302 Y131.584 E0.01504
G1 X114.935 Y131.300 E0.01457
G1 X114.628 Y130.951 E0.01457
G1 X114.392 Y130.551 E0.01456
G1 X114.234 Y130.114 E0.01457
G1 X114.161 Y129.655 E0.01456
G1 X114.176 Y129.175 E0.01504
G1 X114.323 Y128.605 E0.01847
G1 X114.541 Y128.177 E0.01504
G1 X114.825 Y127.810 E0.01457
G1 X115.174 Y127.503 E0.01457
G1 X115.574 Y127.267 E0.01456
G1 X116.011 Y127.109 E0.01457
G1 X116.470 Y127.036 E0.01456
G1 X116.950 Y127.051 E0.01504
G1 X117.462 Y127.183 E0.01659
G1 X117.386 Y127.553 F10800.000
G1 F1200
G1 X117.745 Y127.736 E0.01262
G1 X118.055 Y127.977 E0.01233
G1 X118.316 Y128.272 E0.01233
G1 X118.516 Y128.610 E0.01233
G1 X118.649 Y128.980 E0.01234
G1 X118.711 Y129.369 E0.01233
G1 X118.698 Y129.771 E0.01262
G1 X118.572 Y130.261 E0.01586
G1 X118.389 Y130.620 E0.01262
G1 X118.148 Y130.930 E0.01233
G1 X117.853 Y131.191 E0.01233
G1 X117.515 Y131.391 E0.01233
G1 X117.145 Y131.524 E0.01234
G1 X116.756 Y131.586 E0.01233
G1 X116.354 Y131.573 E0.01262
G1 X115.864 Y131.447 E0.01586
G1 X115.505 Y131.264 E0.01262
G1 X115.195 Y131.023 E0.01233
G1 X114.934 Y130.728 E0.01233
G1 X114.734 Y130.390 E0.01233
G1 X114.601 Y130.020 E0.01234
G1 X114.539 Y129.631 E0.01233
G1 X114.552 Y129.229 E0.01262
G1 X114.678 Y128.739 E0.01586
G1 X114.861 Y128.380 E0.01262
G1 X115.102 Y128.070 E0.01233
G1 X115.397 Y127.809 E0.01233
G1 X115.735 Y127.609 E0.01233
G1 X116.105 Y127.476 E0.01234
G1 X116.494 Y127.414 E0.01233
G1 X116.896 Y127.427 E0.01262
G1 X117.328 Y127.538 E0.01398
G1 X117.252 Y127.908 F10800.000
G1 F1200
G1 X117.542 Y128.055 E0.01020
G1 X117.796 Y128.253 E0.01010
G1 X118.009 Y128.494 E0.01010
G1 X118.173 Y128.771 E0.01010
G1 X118.282 Y129.075 E0.01010
G1 X118.333 Y129.393 E0.01009
G1 X118.322 Y129.718 E0.01020
G1 X118.217 Y130.127 E0.01324
G1 X118.070 Y130.417 E0.01020
G1 X117.872 Y130.671 E0.01010
G1 X117.631 Y130.884 E0.01010
G1 X117.354 Y131.048 E0.01010
G1 X117.050 Y131.157 E0.01010
G1 X116.732 Y131.208 E0.01009
G1 X116.407 Y131.197 E0.01020
G1 X115.998 Y131.092 E0.01324
G1 X115.708 Y130.945 E0.01020
G1 X115.454 Y130.747 E0.01010
G1 X115.241 Y130.506 E0.01010
G1 X115.077 Y130.229 E0.01010
G1 X114.968 Y129.925 E0.01010
G1 X114.917 Y129.607 E0.01009
G1 X114.928 Y129.282 E0.01020
G1 X115.033 Y128.873 E0.01324
G1 X115.180 Y128.583 E0.01020
G1 X115.378 Y128.329 E0.01010
G1 X115.619 Y128.116 E0.01010
G1 X115.896 Y127.952 E0.01010
G1 X116.200 Y127.843 E0.01010
G1 X116.518 Y127.792 E0.01009
G1 X116.843 Y127.803 E0.01020
G1 X117.194 Y127.893 E0.01136
G1 X117.505 Y127.703 F10800.000
G1 F8640
G1 X117.542 Y128.055 E-0.08869
G1 X117.796 Y128.253 E-0.07435
G1 X118.009 Y128.494 E-0.07436
G1 X118.173 Y128.771 E-0.07435
G1 X118.282 Y129.075 E-0.07438
G1 X118.333 Y129.393 E-0.07434
G1 X118.322 Y129.718 E-0.07512
G1 X118.217 Y130.127 E-0.09754
G1 X118.070 Y130.417 E-0.07511
G1 X117.932 Y130.594 E-0.05175
G1 E-0.04000 F2100.00000
G1 Z0.800 F10800.000
G1 X116.300 Y82.949
G1 Z0.200
G1 E0.80000 F2100.00000
G1 F1200
G1 X115.730 Y82.802 E0.01847
G1 X115.302 Y82.584 E0.01504
G1 X114.935 Y82.300 E0.01457
G1 X114.628 Y81.951 E0.01457
G1 X114.392 Y81.551 E0.01456
G1 X114.234 Y81.114 E0.01457
G1 X114.161 Y80.655 E0.01456
G1 X114.176 Y80.175 E0.01504
G1 X114.323 Y79.605 E0.01847
G1 X114.541 Y79.177 E0.01504
G1 X114.825 Y78.810 E0.01457
G1 X115.174 Y78.503 E0.01457
G1 X115.574 Y78.267 E0.01456
G1 X116.011 Y78.109 E0.01457
G1 X116.470 Y78.036 E0.01456
G1 X116.950 Y78.051 E0.01504
G1 X117.520 Y78.198 E0.01847
G1 X117.948 Y78.416 E0.01504
G1 X118.315 Y78.700 E0.01457
G1 X118.622 Y79.049 E0.01457
G1 X118.858 Y79.449 E0.01456
G1 X119.016 Y79.886 E0.01457
G1 X119.089 Y80.345 E0.01456
G1 X119.074 Y80.825 E0.01504
G1 X118.927 Y81.395 E0.01847
G1 X118.709 Y81.823 E0.01504
G1 X118.425 Y82.190 E0.01457
G1 X118.076 Y82.497 E0.01457
G1 X117.676 Y82.733 E0.01456
G1 X117.239 Y82.891 E0.01457
G1 X116.780 Y82.964 E0.01456
G1 X116.360 Y82.950 E0.01316
G1 X116.354 Y82.573 F10800.000
G1 F1200
G1 X115.864 Y82.447 E0.01586
G1 X115.505 Y82.264 E0.01262
G1 X115.195 Y82.023 E0.01233
G1 X114.934 Y81.728 E0.01233
G1 X114.734 Y81.390 E0.01233
G1 X114.601 Y81.020 E0.01234
G1 X114.539 Y80.631 E0.01233
G1 X114.552 Y80.229 E0.01262
G1 X114.678 Y79.739 E0.01586
G1 X114.861 Y79.380 E0.01262
G1 X115.102 Y79.070 E0.01233
G1 X115.397 Y78.809 E0.01233
G1 X115.735 Y78.609 E0.01233
G1 X116.105 Y78.476 E0.01234
G1 X116.494 Y78.414 E0.01233
G1 X116.896 Y78.427 E0.01262
G1 X117.386 Y78.553 E0.01586
G1 X117.745 Y78.736 E0.01262
G1 X118.055 Y78.977 E0.01233
G1 X118.316 Y79.272 E0.01233
G1 X118.516 Y79.610 E0.01233
G1 X118.649 Y79.980 E0.01234
G1 X118.711 Y80.369 E0.01233
G1 X118.698 Y80.771 E0.01262
G1 X118.572 Y81.261 E0.01586
G1 X118.389 Y81.620 E0.01262
G1 X118.148 Y81.930 E0.01233
G1 X117.853 Y82.191 E0.01233
G1 X117.515 Y82.391 E0.01233
G1 X117.145 Y82.524 E0.01234
G1 X116.756 Y82.586 E0.01233
G1 X116.414 Y82.575 E0.01074
G1 X116.407 Y82.197 F10800.000
G1 F1200
G1 X115.998 Y82.092 E0.01324
G1 X115.708 Y81.945 E0.01020
G1 X115.454 Y81.747 E0.01010
G1 X115.241 Y81.506 E0.01010
G1 X115.077 Y81.229 E0.01010
G1 X114.968 Y80.925 E0.01010
G1 X114.917 Y80.607 E0.01009
G1 X114.928 Y80.282 E0.01020
G1 X115.033 Y79.873 E0.01324
G1 X115.180 Y79.583 E0.01020
G1 X115.378 Y79.329 E0.01010
G1 X115.619 Y79.116 E0.01010
G1 X115.896 Y78.952 E0.01010
G1 X116.200 Y78.843 E0.01010
G1 X116.518 Y78.792 E0.01009
G1 X116.843 Y78.803 E0.01020
G1 X117.252 Y78.908 E0.01324
G1 X117.542 Y79.055 E0.01020
G1 X117.796 Y79.253 E0.01010
G1 X118.009 Y79.494 E0.01010
G1 X118.173 Y79.771 E0.01010
G1 X118.282 Y80.075 E0.01010
G1 X118.333 Y80.393 E0.01009
G1 X118.322 Y80.718 E0.01020
G1 X118.217 Y81.127 E0.01324
G1 X118.070 Y81.417 E0.01020
G1 X117.872 Y81.671 E0.01010
G1 X117.631 Y81.884 E0.01010
G1 X117.354 Y82.048 E0.01010
G1 X117.050 Y82.157 E0.01010
G1 X116.732 Y82.208 E0.01009
G1 X116.467 Y82.199 E0.00832
G1 X116.159 Y82.511 F10800.000
G1 F8640
G1 X115.998 Y82.092 E-0.11110
G1 X115.708 Y81.945 E-0.07512
G1 X115.454 Y81.747 E-0.07435
G1 X115.241 Y81.506 E-0.07437
G1 X115.077 Y81.229 E-0.07435
G1 X114.968 Y80.925 E-0.07438
G1 X114.917 Y80.607 E-0.07434
G1 X114.928 Y80.282 E-0.07512
G1 X115.033 Y79.873 E-0.09754
G1 X115.090 Y79.760 E-0.02934
G1 E-0.04000 F2100.00000
G1 Z0.800 F10800.000
G1 X123.261 Y84.064
G1 Z0.200
G1 E0.80000 F2100.00000
G1 F1200
G1 X131.503 Y84.064 E0.25843
G1 X131.367 Y84.184 E0.00568
G1 X131.129 Y84.492 E0.01221
G1 X130.952 Y84.839 E0.01221
G1 X130.843 Y85.213 E0.01220
G1 X130.807 Y85.600 E0.01220
G1 X130.843 Y85.987 E0.01220
G1 X130.952 Y86.361 E0.01220
G1 X131.129 Y86.708 E0.01221
G1 X131.376 Y87.028 E0.01269
G1 X131.507 Y87.136 E0.00530
G1 X125.661 Y87.136 E0.18330
G1 X125.661 Y112.064 E0.78161
G1 X131.503 Y112.064 E0.18318
G1 X131.367 Y112.184 E0.00568
G1 X131.129 Y112.492 E0.01221
G1 X130.952 Y112.839 E0.01221
G1 X130.843 Y113.213 E0.01221
G1 X130.807 Y113.600 E0.01220
G1 X130.843 Y113.987 E0.01220
