; generated by PrusaSlicer 2.0.0+win64 on 2019-08-20 at 10:32:42

; 

; external perimeters extrusion width = 0.45mm
; perimeters extrusion width = 0.45mm
; infill extrusion width = 0.45mm
; solid infill extrusion width = 0.45mm
; top infill extrusion width = 0.40mm
; first layer extrusion width = 0.42mm

M73 P0 R30
M73 Q0 S30
M201 X1000 Y1000 Z1000 E5000 ; sets maximum accelerations, mm/sec^2
M203 X200 Y200 Z12 E120 ; sets maximum feedrates, mm/sec
M204 P1250 R1250 T1250 ; sets acceleration (P, T) and retract acceleration (R), mm/sec^2
M205 X8.00 Y8.00 Z0.40 E1.50 ; sets the jerk limits, mm/sec
M205 S0 T0 ; sets the minimum extruding and travel feed rate, mm/sec
M107
M115 U3.7.2 ; tell printer latest fw version
G90 ; use absolute coordinates
M83 ; extruder relative mode
M104 S240 ; set extruder temp
M140 S85 ; set bed temp
Tx
M190 S85 ; wait for bed temp
M109 S240 ; wait for extruder temp
G28 W ; home all without mesh bed level
G80 ; mesh bed leveling

G21 ; set units to millimeters

;go outside print area
G1 Y-3.0 F1000.0
G1 Z0.4 F1000.0
; select extruder
Tc
; purge line
G1 X55.0 F2000.0
G1 Z0.3 F1000.0
G92 E0.0
G1 X240.0 E25.0 F2200.0
M73 Q0 S30
M73 P0 R30
G1 Y-2.0 F1000.0
G1 X55.0 E25 F1400.0
G1 Z0.20 F1000.0
G1 X5.0 E4.0 F1000.0

M221 S95
G92 E0.0
M900 K45 ; Filament gcode
G21 ; set units to millimeters
G90 ; use absolute coordinates
M83 ; use relative distances for extrusion
;BEFORE_LAYER_CHANGE
G92 E0.0
;0.2


G1 E-0.80000 F2100.00000
G1 Z0.600 F10800.000
;AFTER_LAYER_CHANGE
;0.2
G1 X110.374 Y84.035
G1 Z0.200
G1 E0.80000 F2100.00000
M204 S1000
G1 F1200
G1 X110.806 Y83.666 E0.01783
G1 X111.322 Y83.419 E0.01794
G1 X111.885 Y83.315 E0.01794
G1 X133.004 Y83.311 E0.66217
G1 X133.962 Y83.372 E0.03010
G1 X134.886 Y83.542 E0.02947
G1 X136.430 Y84.074 E0.05122
G1 X136.864 Y84.382 E0.01669
G1 X137.209 Y84.783 E0.01658
G1 X137.448 Y85.254 E0.01658
G1 X137.567 Y85.773 E0.01669
G1 X137.579 Y124.011 E1.19892
G1 X137.517 Y124.518 E0.01601
G1 X137.341 Y124.993 E0.01589
G1 X136.892 Y125.593 E0.02349
G1 X136.263 Y126.007 E0.02360
G1 X134.919 Y126.451 E0.04438
G1 X133.467 Y126.674 E0.04606
G1 X111.978 Y126.688 E0.67378
G1 X111.479 Y126.626 E0.01578
G1 X111.007 Y126.450 E0.01578
G1 X110.525 Y126.116 E0.01839
G1 X110.148 Y125.666 E0.01839
G1 X109.905 Y125.133 E0.01839
G1 X109.812 Y124.550 E0.01851
G1 X109.811 Y85.489 E1.22472
G1 X109.874 Y84.982 E0.01601
G1 X110.050 Y84.507 E0.01589
G1 X110.340 Y84.085 E0.01606
G1 F8640
G1 X110.806 Y83.666 E-0.14471
G1 X111.322 Y83.419 E-0.13211
G1 X111.885 Y83.315 E-0.13211
G1 X113.405 Y83.314 E-0.35106
G1 E-0.04000 F2100.00000
G1 Z0.800 F10800.000
G1 X133.120 Y123.132
G1 Z0.200
G1 E0.80000 F2100.00000
G1 F1200
G1 X113.364 Y123.136 E0.61945
G1 X113.364 Y86.864 E1.13727
G1 X133.120 Y86.868 E0.61945
G1 X133.120 Y87.132 E0.00825
G1 X133.000 Y87.135 E0.00378
G1 X132.703 Y87.126 E0.00931
G1 X131.975 Y87.036 E0.02302
G1 X113.636 Y87.036 E0.57501
G1 X113.636 Y122.964 E1.12651
G1 X131.975 Y122.964 E0.57501
G1 X132.703 Y122.874 E0.02302
G1 X132.985 Y122.865 E0.00883
G1 X133.120 Y122.874 E0.00426
G1 X133.120 Y123.072 E0.00621
G1 F8640
G1 X129.829 Y123.082 E-0.76000
G1 E-0.04000 F2100.00000
G1 Z0.800 F10800.000
G1 X114.013 Y87.413
G1 Z0.200
G1 E0.80000 F2100.00000
G1 F1200
G1 X114.013 Y122.587 E1.10286
G1 X131.952 Y122.587 E0.56245
G1 X132.674 Y122.498 E0.02283
G1 X132.991 Y122.488 E0.00993
G1 X133.498 Y122.520 E0.01592
G1 X133.498 Y123.481 E0.03015
G1 X132.991 Y123.513 E0.01592
G1 X112.987 Y123.513 E0.62720
G1 X112.987 Y86.487 E1.16092
G1 X133.009 Y86.488 E0.62779
G1 X133.498 Y86.519 E0.01533
G1 X133.498 Y87.481 E0.03017
G1 X133.326 Y87.502 E0.00543
G1 X132.674 Y87.502 E0.02043
G1 X131.952 Y87.413 E0.02283
G1 X114.073 Y87.413 E0.56057
G1 X114.390 Y87.790 F10800.000
G1 F1200
G1 X114.390 Y122.210 E1.07921
G1 X131.928 Y122.210 E0.54990
G1 X132.645 Y122.121 E0.02265
G1 X132.997 Y122.110 E0.01103
G1 X133.722 Y122.156 E0.02280
G1 X133.875 Y122.180 E0.00483
G1 X133.875 Y123.814 E0.05126
G1 X133.355 Y123.879 E0.01642
G1 X132.997 Y123.890 E0.01124
G1 X112.610 Y123.890 E0.63921
G1 X112.610 Y86.110 E1.18457
G1 X133.015 Y86.111 E0.63980
G1 X133.355 Y86.121 E0.01065
G1 X133.875 Y86.186 E0.01642
G1 X133.875 Y87.814 E0.05107
G1 X133.355 Y87.879 E0.01642
G1 X132.645 Y87.879 E0.02226
G1 X131.928 Y87.790 E0.02265
G1 X114.450 Y87.790 E0.54802
G1 X113.990 Y87.789 F10800.000
;BEFORE_LAYER_CHANGE
G92 E0.0
;0.4


G1 F8640
G1 X114.444 Y91.081 E-0.76000
G1 E-0.04000 F2100.00000
G1 Z0.800 F10800.000
;AFTER_LAYER_CHANGE
;0.4
M104 S250 ; set temperature
M140 S90 ; set bed temperature
G1 X110.374 Y84.035
G1 Z0.400
G1 E0.80000 F2100.00000
G1 F2388
G1 X110.806 Y83.666 E0.01783
G1 X111.322 Y83.419 E0.01794
G1 X111.885 Y83.315 E0.01794
G1 X133.004 Y83.311 E0.66217
G1 X133.962 Y83.372 E0.03010
G1 X134.886 Y83.542 E0.02947
G1 X136.430 Y84.074 E0.05122
G1 X136.864 Y84.382 E0.01669
G1 X137.209 Y84.783 E0.01658
G1 X137.448 Y85.254 E0.01658
G1 X137.567 Y85.773 E0.01669
G1 X137.579 Y124.011 E1.19892
G1 X137.517 Y124.518 E0.01601
G1 X137.341 Y124.993 E0.01589
G1 X136.892 Y125.593 E0.02349
G1 X136.263 Y126.007 E0.02360
G1 X134.919 Y126.451 E0.04438
G1 X133.467 Y126.674 E0.04606
G1 X111.978 Y126.688 E0.67378
G1 X111.479 Y126.626 E0.01578
G1 X111.007 Y126.450 E0.01578
G1 X110.525 Y126.116 E0.01839
G1 X110.148 Y125.666 E0.01839
G1 X109.905 Y125.133 E0.01839
G1 X109.812 Y124.550 E0.01851
G1 X109.811 Y85.489 E1.22472
G1 X109.874 Y84.982 E0.01601
G1 X110.050 Y84.507 E0.01589
G1 X110.340 Y84.085 E0.01606
G1 F8640
G1 X110.806 Y83.666 E-0.14471
G1 X111.322 Y83.419 E-0.13211
G1 X111.885 Y83.315 E-0.13211
G1 X113.405 Y83.314 E-0.35106
G1 E-0.04000 F2100.00000
G1 Z1.000 F10800.000
G1 X133.833 Y123.185
G1 Z0.400
G1 E0.80000 F2100.00000
M204 S800
G1 F2388
G1 X133.607 Y123.221 E0.00773
G1 X132.967 Y123.261 E0.02169
G1 X113.239 Y123.261 E0.66778
G1 X113.239 Y86.739 E1.23621
G1 X133.022 Y86.741 E0.66963
G1 X133.605 Y86.779 E0.01979
G1 X133.833 Y86.815 E0.00778
G1 X133.833 Y87.185 E0.01254
G1 X133.607 Y87.221 E0.00773
G1 X133.000 Y87.259 E0.02058
G1 X132.393 Y87.221 E0.02058
G1 X132.120 Y87.178 E0.00935
G1 X131.257 Y86.961 E0.03013
G1 X113.761 Y86.961 E0.59222
G1 X113.761 Y123.039 E1.22121
G1 X131.272 Y123.039 E0.59273
G1 X131.774 Y122.898 E0.01765
G1 X132.409 Y122.778 E0.02187
G1 X133.000 Y122.741 E0.02005
G1 X133.591 Y122.778 E0.02005
G1 X133.833 Y122.824 E0.00832
G1 X133.833 Y123.125 E0.01021
M204 S1000
G1 F8640
G1 X133.607 Y123.221 E-0.05657
G1 X132.967 Y123.261 E-0.14796
G1 X130.562 Y123.261 E-0.55547
G1 E-0.04000 F2100.00000
G1 Z1.000 F10800.000
G1 X114.168 Y87.368
G1 Z0.400
G1 E0.80000 F2100.00000
M204 S800
G1 F2388
G1 X114.168 Y122.632 E1.19365
G1 X131.216 Y122.632 E0.57705
G1 X131.681 Y122.501 E0.01636
G1 X132.358 Y122.374 E0.02333
G1 X133.000 Y122.333 E0.02176
G1 X133.642 Y122.374 E0.02176
G1 X134.240 Y122.486 E0.02060
G1 X134.240 Y123.507 E0.03457
G1 X133.961 Y123.577 E0.00972
G1 X133.651 Y123.626 E0.01062
G1 X132.980 Y123.668 E0.02276
G1 X112.832 Y123.668 E0.68199
G1 X112.832 Y86.332 E1.26377
G1 X133.035 Y86.334 E0.68386
G1 X133.650 Y86.374 E0.02086
G1 X133.961 Y86.423 E0.01065
G1 X134.240 Y86.493 E0.00972
G1 X134.240 Y87.507 E0.03433
G1 X133.961 Y87.577 E0.00972
G1 X133.651 Y87.626 E0.01062
G1 X133.000 Y87.667 E0.02209
G1 X132.349 Y87.626 E0.02209
G1 X132.039 Y87.577 E0.01062
G1 X131.207 Y87.368 E0.02905
G1 X114.228 Y87.368 E0.57471
M204 S1000
G1 X114.575 Y87.775 F10800.000
M204 S800
G1 F1500
G1 X114.575 Y122.225 E1.16609
G1 X131.159 Y122.225 E0.56136
M73 Q3 S29
G1 X131.588 Y122.104 E0.01507
G1 X132.308 Y121.969 E0.02479
G1 X133.000 Y121.925 E0.02347
G1 X133.692 Y121.969 E0.02347
G1 X134.412 Y122.104 E0.02479
G1 X134.647 Y122.170 E0.00825
G1 X134.647 Y123.825 E0.05599
G1 X134.042 Y123.977 E0.02109
G1 X133.696 Y124.031 E0.01188
G1 X132.993 Y124.075 E0.02383
G1 X112.425 Y124.075 E0.69620
M73 P3 R29
G1 X112.425 Y85.925 E1.29133
G1 X133.049 Y85.927 E0.69809
G1 X133.695 Y85.969 E0.02193
G1 X134.042 Y86.023 E0.01189
G1 X134.647 Y86.175 E0.02109
G1 X134.647 Y87.825 E0.05582
G1 X134.042 Y87.977 E0.02109
G1 X133.696 Y88.031 E0.01188
G1 X133.000 Y88.075 E0.02359
G1 X132.304 Y88.031 E0.02359
G1 X131.958 Y87.977 E0.01188
G1 X131.156 Y87.775 E0.02797
G1 X114.635 Y87.775 E0.55922
M204 S1000
G1 X114.175 Y87.773 F10800.000
G1 F8640
G1 X114.629 Y91.066 E-0.76000
G1 E-0.04000 F2100.00000
G1 Z1.000 F10800.000
G1 X113.500 Y86.943
G1 Z0.400
G1 E0.80000 F2100.00000
G1 F2388
G1 X113.500 Y123.057 E0.34416
G1 F8640
G1 X113.500 Y119.766 E-0.76000
G1 E-0.04000 F2100.00000
G1 Z1.000 F10800.000
G1 X132.290 Y123.033
G1 Z0.400
G1 E0.80000 F2100.00000
G1 F2388
G1 X133.000 Y123.000 E0.00483
G1 X133.469 Y123.000 E0.00319
G1 F8640
G1 X133.000 Y123.000 E-0.10824
G1 X132.290 Y123.033 E-0.16419
G1 E-0.52757 F2100.00000
G1 Z1.000 F10800.000
G1 X133.473 Y87.000
G1 Z0.400
G1 E0.80000 F2100.00000
G1 F2388
G1 X132.419 Y86.981 E0.00716
G1
G1 X132.265 Y86.969 E0.00095
;BEFORE_LAYER_CHANGE
G92 E0.0
;0.6


G1 F8640
G1 X132.419 Y86.981 E-0.03578
G1 E-0.76422 F2100.00000
G1 Z1.000 F10800.000
;AFTER_LAYER_CHANGE
;0.6
G1 X136.430 Y84.074
G1 Z0.600
G1 E0.80000 F2100.00000
G1 F2611
G1 X136.864 Y84.382 E0.01669
G1 X137.209 Y84.783 E0.01658
G1 X137.448 Y85.254 E0.01658
G1 X137.567 Y85.773 E0.01669
G1 X137.579 Y124.011 E1.19892
G1 X137.517 Y124.518 E0.01601
G1 X137.341 Y124.993 E0.01589
G1 X136.892 Y125.593 E0.02349
G1 X136.263 Y126.007 E0.02360
G1 X134.919 Y126.451 E0.04438
G1 X133.467 Y126.674 E0.04606
G1 X111.978 Y126.688 E0.67378
G1 X111.479 Y126.626 E0.01578
G1 X111.007 Y126.450 E0.01578
G1 X110.525 Y126.116 E0.01839
G1 X110.148 Y125.666 E0.01839
G1 X109.905 Y125.133 E0.01839
G1 X109.812 Y124.550 E0.01851
G1 X109.811 Y85.489 E1.22472
G1 X109.874 Y84.982 E0.01601
G1 X110.050 Y84.507 E0.01589
G1 X110.374 Y84.035 E0.01794
G1 X110.806 Y83.666 E0.01783
G1 X111.322 Y83.419 E0.01794
G1 X111.885 Y83.315 E0.01794
G1 X133.004 Y83.311 E0.66217
G1 X133.962 Y83.372 E0.03010
G1 X134.886 Y83.542 E0.02947
G1 X136.374 Y84.055 E0.04934
G1 F8640
G1 X136.864 Y84.382 E-0.13626
G1 X137.209 Y84.783 E-0.12207
G1 X137.448 Y85.254 E-0.12207
G1 X137.567 Y85.773 E-0.12291
G1 X137.568 Y86.885 E-0.25670
G1 E-0.04000 F2100.00000
G1 Z1.200 F10800.000
G1 X134.351 Y123.255
G1 Z0.600
G1 E0.80000 F2100.00000
M204 S800
G1 F2611
G1 X133.843 Y123.381 E0.01774
G1 X133.582 Y123.422 E0.00895
G1 X132.967 Y123.461 E0.02083
G1 X113.039 Y123.461 E0.67455
G1 X113.039 Y86.539 E1.24975
G1 X133.058 Y86.542 E0.67763
G1 X133.579 Y86.577 E0.01767
G1 X133.843 Y86.619 E0.00904
G1 X134.351 Y86.745 E0.01774
G1 X134.351 Y87.255 E0.01724
G1 X133.843 Y87.381 E0.01774
G1 X133.582 Y87.422 E0.00895
G1 X133.000 Y87.459 E0.01973
G1 X132.418 Y87.422 E0.01973
G1 X132.157 Y87.381 E0.00895
G1 X131.515 Y87.221 E0.02240
G1 X130.791 Y86.961 E0.02606
G1 X113.961 Y86.961 E0.56967
G1 X113.961 Y123.039 E1.22121
G1 X130.791 Y123.039 E0.56967
G1 X131.529 Y122.774 E0.02655
G1 X131.824 Y122.691 E0.01037
G1 X132.434 Y122.577 E0.02102
G1 X133.000 Y122.541 E0.01919
G1 X133.566 Y122.577 E0.01919
G1 X134.351 Y122.740 E0.02716
G1 X134.351 Y123.195 E0.01538
M204 S1000
G1 F8640
G1 X133.843 Y123.381 E-0.12509
G1 X133.582 Y123.422 E-0.06105
G1 X132.967 Y123.461 E-0.14211
G1 X131.098 Y123.461 E-0.43175
G1 E-0.04000 F2100.00000
G1 Z1.200 F10800.000
G1 X114.368 Y87.368
G1 Z0.600
G1 E0.80000 F2100.00000
M204 S800
G1 F2611
G1 X114.368 Y122.632 E1.19365
G1 X130.720 Y122.632 E0.55349
G1 X131.405 Y122.386 E0.02465
G1 X131.731 Y122.295 E0.01147
G1 X132.384 Y122.172 E0.02246
G1 X133.000 Y122.133 E0.02090
G1 X133.616 Y122.172 E0.02090
G1 X134.269 Y122.295 E0.02246
G1 X134.758 Y122.444 E0.01734
G1 X134.758 Y123.556 E0.03761
G1 X134.603 Y123.611 E0.00558
G1 X133.924 Y123.781 E0.02371
G1 X133.626 Y123.827 E0.01020
G1 X132.980 Y123.868 E0.02190
G1 X112.632 Y123.868 E0.68876
G1 X112.632 Y86.132 E1.27731
G1 X133.072 Y86.135 E0.69187
G1 X133.624 Y86.172 E0.01874
G1 X133.924 Y86.219 E0.01025
G1 X134.603 Y86.389 E0.02371
G1 X134.758 Y86.444 E0.00558
G1 X134.758 Y87.556 E0.03761
G1 X134.603 Y87.611 E0.00558
G1 X133.924 Y87.781 E0.02371
G1 X133.626 Y87.827 E0.01020
G1 X133.000 Y87.867 E0.02123
G1 X132.374 Y87.827 E0.02123
G1 X132.076 Y87.781 E0.01020
G1 X131.397 Y87.611 E0.02371
G1 X130.720 Y87.368 E0.02435
G1 X114.428 Y87.368 E0.55146
M204 S1000
G1 X114.775 Y87.775 F10800.000
M204 S800
G1 F1500
G1 X114.775 Y122.225 E1.16609
G1 X130.649 Y122.225 E0.53731
G1 X131.281 Y121.998 E0.02276
G1 X131.639 Y121.898 E0.01257
G1 X132.333 Y121.767 E0.02391
G1 X133.000 Y121.725 E0.02262
G1 X133.667 Y121.767 E0.02262
G1 X134.361 Y121.898 E0.02391
G1 X134.719 Y121.998 E0.01257
G1 X135.166 Y122.158 E0.01607
G1 X135.166 Y123.842 E0.05699
G1 X134.722 Y124.001 E0.01597
G1 X134.005 Y124.180 E0.02502
G1 X133.670 Y124.232 E0.01145
G1 X132.993 Y124.275 E0.02297
G1 X112.225 Y124.275 E0.70297
G1 X112.225 Y85.725 E1.30487
G1 X133.086 Y85.728 E0.70612
G1 X133.670 Y85.768 E0.01980
G1 X134.005 Y85.820 E0.01147
G1 X134.722 Y85.999 E0.02502
G1 X135.166 Y86.158 E0.01597
G1 X135.166 Y87.842 E0.05699
G1 X134.722 Y88.001 E0.01597
G1 X134.005 Y88.180 E0.02502
G1 X133.670 Y88.232 E0.01145
G1 X133.000 Y88.275 E0.02273
G1 X132.330 Y88.232 E0.02273
G1 X131.995 Y88.180 E0.01145
G1 X131.278 Y88.001 E0.02502
G1 X130.649 Y87.775 E0.02265
G1 X114.835 Y87.775 E0.53528
M204 S1000
G1 X114.375 Y87.773 F10800.000
G1 F8640
G1 X114.829 Y91.066 E-0.76000
G1 E-0.04000 F2100.00000
G1 Z1.200 F10800.000
G1 X113.839 Y87.485
G1 Z0.600
G1 E0.80000 F2100.00000
M204 S1250
G1 F2611
G1 X113.344 Y86.991 E0.02367
G1 X113.344 Y87.566 E0.01950
G1 X113.656 Y87.878 E0.01490
G1 X113.656 Y88.453 E0.01950
G1 X113.344 Y88.142 E0.01490
G1 X113.344 Y88.718 E0.01950
G1 X113.656 Y89.029 E0.01490
G1 X113.656 Y89.605 E0.01950
G1 X113.344 Y89.294 E0.01490
G1 X113.344 Y89.870 E0.01950
G1 X113.656 Y90.181 E0.01490
G1 X113.656 Y90.757 E0.01950
G1 X113.344 Y90.446 E0.01490
G1 X113.344 Y91.022 E0.01950
G1 X113.656 Y91.333 E0.01490
G1 X113.656 Y91.909 E0.01950
G1 X113.344 Y91.598 E0.01490
G1 X113.344 Y92.174 E0.01950
G1 X113.656 Y92.485 E0.01490
G1 X113.656 Y93.061 E0.01950
G1 X113.344 Y92.750 E0.01490
G1 X113.344 Y93.326 E0.01950
G1 X113.656 Y93.637 E0.01490
G1 X113.656 Y94.213 E0.01950
G1 X113.344 Y93.902 E0.01490
G1 X113.344 Y94.478 E0.01950
G1 X113.656 Y94.789 E0.01490
G1 X113.656 Y95.365 E0.01950
G1 X113.344 Y95.054 E0.01490
G1 X113.344 Y95.630 E0.01950
G1 X113.656 Y95.941 E0.01490
G1 X113.656 Y96.517 E0.01950
G1 X113.344 Y96.206 E0.01490
G1 X113.344 Y96.781 E0.01950
G1 X113.656 Y97.093 E0.01490
G1 X113.656 Y97.669 E0.01950
G1 X113.344 Y97.357 E0.01490
G1 X113.344 Y97.933 E0.01950
G1 X113.656 Y98.244 E0.01490
G1 X113.656 Y98.820 E0.01950
G1 X113.344 Y98.509 E0.01490
G1 X113.344 Y99.085 E0.01950
G1 X113.656 Y99.396 E0.01490
G1 X113.656 Y99.972 E0.01950
G1 X113.344 Y99.661 E0.01490
G1 X113.344 Y100.237 E0.01950
G1 X113.656 Y100.548 E0.01490
G1 X113.656 Y101.124 E0.01950
G1 X113.344 Y100.813 E0.01490
G1 X113.344 Y101.389 E0.01950
G1 X113.656 Y101.700 E0.01490
G1 X113.656 Y102.276 E0.01950
G1 X113.344 Y101.965 E0.01490
G1 X113.344 Y102.541 E0.01950
G1 X113.656 Y102.852 E0.01490
G1 X113.656 Y103.428 E0.01950
G1 X113.344 Y103.117 E0.01490
G1 X113.344 Y103.693 E0.01950
G1 X113.656 Y104.004 E0.01490
G1 X113.656 Y104.580 E0.01950
G1 X113.344 Y104.269 E0.01490
G1 X113.344 Y104.845 E0.01950
G1 X113.656 Y105.156 E0.01490
G1 X113.656 Y105.732 E0.01950
G1 X113.344 Y105.421 E0.01490
G1 X113.344 Y105.996 E0.01950
G1 X113.656 Y106.308 E0.01490
G1 X113.656 Y106.884 E0.01950
G1 X113.344 Y106.572 E0.01490
G1 X113.344 Y107.148 E0.01950
G1 X113.656 Y107.459 E0.01490
G1 X113.656 Y108.035 E0.01950
G1 X113.344 Y107.724 E0.01490
G1 X113.344 Y108.300 E0.01950
G1 X113.656 Y108.611 E0.01490
G1 X113.656 Y109.187 E0.01950
G1 X113.344 Y108.876 E0.01490
G1 X113.344 Y109.452 E0.01950
G1 X113.656 Y109.763 E0.01490
G1 X113.656 Y110.339 E0.01950
G1 X113.344 Y110.028 E0.01490
G1 X113.344 Y110.604 E0.01950
G1 X113.656 Y110.915 E0.01490
G1 X113.656 Y111.491 E0.01950
G1 X113.344 Y111.180 E0.01490
G1 X113.344 Y111.756 E0.01950
G1 X113.656 Y112.067 E0.01490
G1 X113.656 Y112.643 E0.01950
