; generated by PrusaSlicer 2.0.0+win64 on 2019-09-06 at 09:51:57

; 

; external perimeters extrusion width = 0.45mm
; perimeters extrusion width = 0.45mm
; infill extrusion width = 0.45mm
; solid infill extrusion width = 0.45mm
; top infill extrusion width = 0.40mm
; first layer extrusion width = 0.42mm

M73 P0 R30
M73 Q0 S30
M201 X1000 Y1000 Z1000 E5000 ; sets maximum accelerations, mm/sec^2
M203 X200 Y200 Z12 E120 ; sets maximum feedrates, mm/sec
M204 P1250 R1250 T1250 ; sets acceleration (P, T) and retract acceleration (R), mm/sec^2
M205 X8.00 Y8.00 Z0.40 E1.50 ; sets the jerk limits, mm/sec
M205 S0 T0 ; sets the minimum extruding and travel feed rate, mm/sec
M107
M115 U3.7.2 ; tell printer latest fw version
G90 ; use absolute coordinates
M83 ; extruder relative mode
M104 S240 ; set extruder temp
M140 S85 ; set bed temp
Tx
M190 S85 ; wait for bed temp
M109 S240 ; wait for extruder temp
G28 W ; home all without mesh bed level
G80 ; mesh bed leveling

G21 ; set units to millimeters

;go outside print area
G1 Y-3.0 F1000.0
G1 Z0.4 F1000.0
; select extruder
Tc
; purge line
G1 X55.0 F2000.0
G1 Z0.3 F1000.0
G92 E0.0
G1 X240.0 E25.0 F2200.0
M73 Q0 S30
M73 P0 R30
G1 Y-2.0 F1000.0
G1 X55.0 E25 F1400.0
G1 Z0.20 F1000.0
G1 X5.0 E4.0 F1000.0

M221 S95
G92 E0.0
M900 K45 ; Filament gcode
G21 ; set units to millimeters
G90 ; use absolute coordinates
M83 ; use relative distances for extrusion
;BEFORE_LAYER_CHANGE
G92 E0.0
;0.2


G1 E-0.80000 F2100.00000
G1 Z0.600 F10800.000
;AFTER_LAYER_CHANGE
;0.2
G1 X104.857 Y89.908
G1 Z0.200
G1 E0.80000 F2100.00000
M204 S1000
G1 F1200
G1 X105.480 Y89.812 E0.01976
G1 X144.504 Y89.811 E1.22357
G1 X145.327 Y89.974 E0.02631
G1 X146.029 Y90.434 E0.02631
G1 X146.506 Y91.124 E0.02631
G1 X146.688 Y91.943 E0.02631
G1 X146.674 Y113.473 E0.67506
G1 X146.459 Y114.882 E0.04470
G1 X146.122 Y115.976 E0.03589
G1 X145.761 Y116.689 E0.02506
G1 X145.211 Y117.213 E0.02383
G1 X144.642 Y117.483 E0.01976
G1 X144.019 Y117.579 E0.01976
G1 X105.967 Y117.579 E1.19309
G1 X105.443 Y117.507 E0.01658
G1 X104.952 Y117.312 E0.01658
G1 X104.519 Y117.002 E0.01669
G1 X104.176 Y116.600 E0.01658
G1 X103.868 Y115.952 E0.02250
G1 X103.565 Y114.979 E0.03194
G1 X103.324 Y113.423 E0.04936
G1 X103.311 Y91.989 E0.67206
G1 X103.379 Y91.461 E0.01669
G1 X103.573 Y90.962 E0.01680
G1 X103.884 Y90.525 E0.01680
G1 X104.291 Y90.176 E0.01680
G1 X104.803 Y89.934 E0.01776
G1 F8640
G1 X105.480 Y89.812 E-0.15882
G1 X108.083 Y89.812 E-0.60118
G1 E-0.04000 F2100.00000
G1 Z0.800 F10800.000
G1 X143.132 Y113.120
G1 Z0.200
G1 E0.80000 F2100.00000
G1 F1200
G1 X142.868 Y113.120 E0.00825
G1 X142.865 Y113.000 E0.00378
G1 X142.874 Y112.703 E0.00931
G1 X142.964 Y111.975 E0.02302
G1 X142.964 Y93.636 E0.57501
G1 X107.036 Y93.636 E1.12651
G1 X107.036 Y111.975 E0.57501
G1 X107.126 Y112.703 E0.02302
G1 X107.135 Y112.985 E0.00883
G1 X107.126 Y113.120 E0.00426
G1 X106.868 Y113.120 E0.00809
G1 X106.864 Y93.364 E0.61945
G1 X143.136 Y93.364 E1.13727
G1 X143.133 Y113.061 E0.61757
G1 F8640
G1 X142.868 Y113.120 E-0.06275
G1 X142.865 Y113.000 E-0.02784
G1 X142.874 Y112.703 E-0.06853
G1 X142.964 Y111.975 E-0.16951
G1 X142.964 Y110.107 E-0.43138
G1 E-0.04000 F2100.00000
G1 Z0.800 F10800.000
G1 X142.587 Y94.013
G1 Z0.200
G1 E0.80000 F2100.00000
G1 F1200
G1 X107.413 Y94.013 E1.10286
G1 X107.413 Y111.952 E0.56245
G1 X107.502 Y112.674 E0.02283
G1 X107.512 Y112.991 E0.00993
G1 X107.480 Y113.498 E0.01592
G1 X106.519 Y113.498 E0.03015
G1 X106.487 Y112.991 E0.01592
G1 X106.487 Y92.987 E0.62720
G1 X143.513 Y92.987 E1.16092
G1 X143.513 Y112.991 E0.62720
G1 X143.481 Y113.498 E0.01592
G1 X142.519 Y113.498 E0.03017
G1 X142.498 Y113.326 E0.00543
G1 X142.498 Y112.674 E0.02043
G1 X142.587 Y111.952 E0.02283
G1 X142.587 Y94.073 E0.56057
G1 X142.210 Y94.390 F10800.000
G1 F1200
G1 X107.790 Y94.390 E1.07921
G1 X107.790 Y111.928 E0.54990
G1 X107.879 Y112.645 E0.02265
G1 X107.890 Y112.997 E0.01103
G1 X107.844 Y113.722 E0.02280
G1 X107.820 Y113.875 E0.00483
G1 X106.186 Y113.875 E0.05126
G1 X106.121 Y113.355 E0.01642
G1 X106.110 Y112.997 E0.01124
G1 X106.110 Y92.610 E0.63921
G1 X143.890 Y92.610 E1.18457
G1 X143.890 Y112.997 E0.63921
G1 X143.879 Y113.355 E0.01124
G1 X143.814 Y113.875 E0.01642
G1 X142.186 Y113.875 E0.05107
G1 X142.121 Y113.355 E0.01642
G1 X142.121 Y112.645 E0.02226
G1 X142.210 Y111.928 E0.02265
G1 X142.210 Y94.450 E0.54802
G1 X142.211 Y93.990 F10800.000
;BEFORE_LAYER_CHANGE
G92 E0.0
;0.4


G1 F8640
G1 X138.919 Y94.444 E-0.76000
G1 E-0.04000 F2100.00000
G1 Z0.800 F10800.000
;AFTER_LAYER_CHANGE
;0.4
M104 S250 ; set temperature
M140 S90 ; set bed temperature
G1 X145.327 Y89.974
G1 Z0.400
G1 E0.80000 F2100.00000
G1 F2340
G1 X146.029 Y90.434 E0.02631
G1 X146.506 Y91.124 E0.02631
G1 X146.688 Y91.943 E0.02631
G1 X146.674 Y113.473 E0.67506
G1 X146.459 Y114.882 E0.04470
G1 X146.122 Y115.976 E0.03589
G1 X145.761 Y116.689 E0.02506
G1 X145.211 Y117.213 E0.02383
G1 X144.642 Y117.483 E0.01976
G1 X144.019 Y117.579 E0.01976
G1 X105.967 Y117.579 E1.19309
G1 X105.443 Y117.507 E0.01658
G1 X104.952 Y117.312 E0.01658
G1 X104.519 Y117.002 E0.01669
G1 X104.176 Y116.600 E0.01658
G1 X103.868 Y115.952 E0.02250
G1 X103.565 Y114.979 E0.03194
G1 X103.324 Y113.423 E0.04936
G1 X103.311 Y91.989 E0.67206
G1 X103.379 Y91.461 E0.01669
G1 X103.573 Y90.962 E0.01680
G1 X103.884 Y90.525 E0.01680
G1 X104.291 Y90.176 E0.01680
G1 X104.857 Y89.908 E0.01964
G1 X105.480 Y89.812 E0.01976
G1 X144.504 Y89.811 E1.22357
G1 X145.268 Y89.962 E0.02443
G1 F8640
G1 X146.029 Y90.434 E-0.20664
G1 X146.506 Y91.124 E-0.19374
G1 X146.688 Y91.943 E-0.19374
G1 X146.687 Y92.661 E-0.16589
G1 E-0.04000 F2100.00000
G1 Z1.000 F10800.000
G1 X143.185 Y113.833
G1 Z0.400
G1 E0.80000 F2100.00000
M204 S800
G1 F2340
G1 X142.815 Y113.833 E0.01254
G1 X142.779 Y113.607 E0.00773
G1 X142.741 Y113.000 E0.02058
G1 X142.779 Y112.393 E0.02058
G1 X142.822 Y112.120 E0.00935
G1 X143.039 Y111.257 E0.03013
G1 X143.039 Y93.761 E0.59222
G1 X106.961 Y93.761 E1.22121
G1 X106.961 Y111.272 E0.59273
G1 X107.102 Y111.774 E0.01765
G1 X107.222 Y112.409 E0.02187
G1 X107.259 Y113.000 E0.02005
G1 X107.222 Y113.591 E0.02005
G1 X107.176 Y113.833 E0.00832
G1 X106.815 Y113.833 E0.01224
G1 X106.779 Y113.607 E0.00773
G1 X106.739 Y112.967 E0.02169
G1 X106.739 Y93.239 E0.66778
G1 X143.261 Y93.239 E1.23622
G1 X143.261 Y112.967 E0.66778
G1 X143.195 Y113.773 E0.02737
M204 S1000
G1 F8640
G1 X142.815 Y113.833 E-0.08877
G1 X142.779 Y113.607 E-0.05275
G1 X142.741 Y113.000 E-0.14040
G1 X142.779 Y112.393 E-0.14040
G1 X142.822 Y112.120 E-0.06381
G1 X143.039 Y111.257 E-0.20552
G1 X143.039 Y110.961 E-0.06835
G1 E-0.04000 F2100.00000
G1 Z1.000 F10800.000
G1 X142.632 Y94.168
G1 Z0.400
G1 E0.80000 F2100.00000
M204 S800
G1 F2340
G1 X107.368 Y94.168 E1.19365
G1 X107.368 Y111.216 E0.57705
G1 X107.499 Y111.681 E0.01636
G1 X107.626 Y112.358 E0.02333
G1 X107.667 Y113.000 E0.02176
G1 X107.626 Y113.642 E0.02176
G1 X107.514 Y114.240 E0.02060
G1 X106.493 Y114.240 E0.03457
G1 X106.423 Y113.961 E0.00972
G1 X106.374 Y113.651 E0.01062
G1 X106.332 Y112.980 E0.02276
G1 X106.332 Y92.832 E0.68199
G1 X143.668 Y92.832 E1.26377
G1 X143.668 Y112.980 E0.68199
G1 X143.626 Y113.651 E0.02276
G1 X143.577 Y113.961 E0.01062
G1 X143.507 Y114.240 E0.00972
G1 X142.493 Y114.240 E0.03433
G1 X142.423 Y113.961 E0.00972
G1 X142.374 Y113.651 E0.01062
G1 X142.333 Y113.000 E0.02209
G1 X142.374 Y112.349 E0.02209
G1 X142.423 Y112.039 E0.01062
G1 X142.632 Y111.207 E0.02905
G1 X142.632 Y94.228 E0.57471
M204 S1000
G1 X142.225 Y94.575 F10800.000
M204 S800
G1 F1500
G1 X107.775 Y94.575 E1.16609
G1 X107.775 Y111.159 E0.56136
G1 X107.896 Y111.588 E0.01507
G1 X108.031 Y112.308 E0.02479
G1 X108.075 Y113.000 E0.02347
G1 X108.031 Y113.692 E0.02347
G1 X107.896 Y114.412 E0.02479
G1 X107.830 Y114.647 E0.00825
G1 X106.175 Y114.647 E0.05599
G1 X106.023 Y114.042 E0.02109
G1 X105.969 Y113.696 E0.01188
G1 X105.925 Y112.993 E0.02383
M73 Q3 S29
G1 X105.925 Y92.425 E0.69620
M73 P3 R29
G1 X144.075 Y92.425 E1.29133
G1 X144.075 Y112.993 E0.69620
G1 X144.031 Y113.696 E0.02383
G1 X143.977 Y114.042 E0.01188
G1 X143.825 Y114.647 E0.02109
G1 X142.175 Y114.647 E0.05582
G1 X142.023 Y114.042 E0.02109
G1 X141.969 Y113.696 E0.01188
G1 X141.925 Y113.000 E0.02359
G1 X141.969 Y112.304 E0.02359
G1 X142.023 Y111.958 E0.01188
G1 X142.225 Y111.156 E0.02797
G1 X142.225 Y94.635 E0.55922
M204 S1000
G1 X142.227 Y94.175 F10800.000
G1 F8640
G1 X138.934 Y94.629 E-0.76000
G1 E-0.04000 F2100.00000
G1 Z1.000 F10800.000
G1 X143.057 Y93.500
G1 Z0.400
G1 E0.80000 F2100.00000
G1 F2340
G1 X106.943 Y93.500 E0.34416
G1 F8640
G1 X110.234 Y93.500 E-0.76000
G1 E-0.04000 F2100.00000
G1 Z1.000 F10800.000
G1 X106.967 Y112.290
G1 Z0.400
G1 E0.80000 F2100.00000
G1 F2340
G1 X107.000 Y113.000 E0.00483
G1 X107.000 Y113.469 E0.00319
G1 F8640
G1 X107.000 Y113.000 E-0.10824
G1 X106.967 Y112.290 E-0.16419
G1 E-0.52757 F2100.00000
G1 Z1.000 F10800.000
G1 X143.000 Y113.469
G1 Z0.400
G1 E0.80000 F2100.00000
G1 F2340
G1 X143.032 Y112.254 E0.00763
;BEFORE_LAYER_CHANGE
G92 E0.0
;0.6


G1 F8640
G1 X143.000 Y113.469 E-0.28060
G1 E-0.51940 F2100.00000
G1 Z1.000 F10800.000
;AFTER_LAYER_CHANGE
;0.6
G1 X145.761 Y116.689
G1 Z0.600
G1 E0.80000 F2100.00000
G1 F2546
G1 X145.211 Y117.213 E0.02383
G1 X144.642 Y117.483 E0.01976
G1 X144.019 Y117.579 E0.01976
G1 X105.967 Y117.579 E1.19309
G1 X105.443 Y117.507 E0.01658
G1 X104.952 Y117.312 E0.01658
G1 X104.519 Y117.002 E0.01669
G1 X104.176 Y116.600 E0.01658
G1 X103.868 Y115.952 E0.02250
G1 X103.565 Y114.979 E0.03194
G1 X103.324 Y113.423 E0.04936
G1 X103.311 Y91.989 E0.67206
G1 X103.379 Y91.461 E0.01669
G1 X103.573 Y90.962 E0.01680
G1 X103.884 Y90.525 E0.01680
G1 X104.291 Y90.176 E0.01680
G1 X104.857 Y89.908 E0.01964
G1 X105.480 Y89.812 E0.01976
G1 X144.504 Y89.811 E1.22357
G1 X145.327 Y89.974 E0.02631
G1 X146.029 Y90.434 E0.02631
G1 X146.506 Y91.124 E0.02631
G1 X146.688 Y91.943 E0.02631
G1 X146.674 Y113.473 E0.67506
G1 X146.459 Y114.882 E0.04470
G1 X146.122 Y115.976 E0.03589
G1 X145.789 Y116.636 E0.02318
G1 F8640
G1 X145.211 Y117.213 E-0.18859
G1 X144.642 Y117.483 E-0.14549
G1 X144.019 Y117.579 E-0.14549
G1 X142.804 Y117.579 E-0.28043
G1 E-0.04000 F2100.00000
G1 Z1.200 F10800.000
G1 X143.255 Y114.351
G1 Z0.600
G1 E0.80000 F2100.00000
M204 S800
G1 F2546
G1 X142.745 Y114.351 E0.01724
G1 X142.619 Y113.843 E0.01774
G1 X142.578 Y113.582 E0.00895
G1 X142.541 Y113.000 E0.01973
G1 X142.578 Y112.418 E0.01973
G1 X142.619 Y112.157 E0.00895
G1 X142.779 Y111.515 E0.02240
G1 X143.039 Y110.791 E0.02606
G1 X143.039 Y93.961 E0.56967
G1 X106.961 Y93.961 E1.22121
G1 X106.961 Y110.791 E0.56967
G1 X107.226 Y111.529 E0.02655
G1 X107.309 Y111.824 E0.01037
G1 X107.423 Y112.434 E0.02102
G1 X107.459 Y113.000 E0.01919
G1 X107.423 Y113.566 E0.01919
G1 X107.260 Y114.351 E0.02716
G1 X106.745 Y114.351 E0.01741
G1 X106.619 Y113.843 E0.01774
G1 X106.578 Y113.582 E0.00895
G1 X106.539 Y112.967 E0.02083
G1 X106.539 Y93.039 E0.67455
G1 X143.461 Y93.039 E1.24976
G1 X143.461 Y112.967 E0.67455
G1 X143.422 Y113.582 E0.02083
G1 X143.381 Y113.843 E0.00895
G1 X143.269 Y114.293 E0.01571
M204 S1000
G1 F8640
G1 X142.745 Y114.351 E-0.12167
G1 X142.619 Y113.843 E-0.12101
G1 X142.578 Y113.582 E-0.06105
G1 X142.541 Y113.000 E-0.13456
G1 X142.578 Y112.418 E-0.13456
G1 X142.619 Y112.157 E-0.06105
G1 X142.751 Y111.627 E-0.12611
G1 E-0.04000 F2100.00000
G1 Z1.200 F10800.000
G1 X142.632 Y94.368
G1 Z0.600
G1 E0.80000 F2100.00000
M204 S800
G1 F2546
G1 X107.368 Y94.368 E1.19365
G1 X107.368 Y110.720 E0.55349
G1 X107.614 Y111.405 E0.02465
G1 X107.705 Y111.731 E0.01147
G1 X107.828 Y112.384 E0.02246
G1 X107.867 Y113.000 E0.02090
G1 X107.828 Y113.616 E0.02090
G1 X107.705 Y114.269 E0.02246
G1 X107.556 Y114.758 E0.01734
G1 X106.444 Y114.758 E0.03761
G1 X106.389 Y114.603 E0.00558
G1 X106.219 Y113.924 E0.02371
G1 X106.173 Y113.626 E0.01020
G1 X106.132 Y112.980 E0.02190
G1 X106.132 Y92.632 E0.68876
G1 X143.868 Y92.632 E1.27731
G1 X143.868 Y112.980 E0.68876
G1 X143.827 Y113.626 E0.02190
G1 X143.781 Y113.924 E0.01020
G1 X143.611 Y114.603 E0.02371
G1 X143.556 Y114.758 E0.00558
G1 X142.444 Y114.758 E0.03761
G1 X142.389 Y114.603 E0.00558
G1 X142.219 Y113.924 E0.02371
G1 X142.173 Y113.626 E0.01020
G1 X142.133 Y113.000 E0.02123
G1 X142.173 Y112.374 E0.02123
G1 X142.219 Y112.076 E0.01020
G1 X142.389 Y111.397 E0.02371
G1 X142.632 Y110.720 E0.02435
G1 X142.632 Y94.428 E0.55146
M204 S1000
G1 X142.225 Y94.775 F10800.000
M204 S800
G1 F1500
G1 X107.775 Y94.775 E1.16609
G1 X107.775 Y110.649 E0.53731
G1 X108.002 Y111.281 E0.02276
G1 X108.102 Y111.639 E0.01257
G1 X108.233 Y112.333 E0.02391
G1 X108.275 Y113.000 E0.02262
G1 X108.233 Y113.667 E0.02262
G1 X108.102 Y114.361 E0.02391
G1 X108.002 Y114.719 E0.01257
G1 X107.842 Y115.166 E0.01607
G1 X106.158 Y115.166 E0.05699
G1 X105.999 Y114.722 E0.01597
G1 X105.820 Y114.005 E0.02502
G1 X105.768 Y113.670 E0.01145
G1 X105.725 Y112.993 E0.02297
G1 X105.725 Y92.225 E0.70297
G1 X144.275 Y92.225 E1.30487
G1 X144.275 Y112.993 E0.70297
G1 X144.232 Y113.670 E0.02297
G1 X144.180 Y114.005 E0.01145
G1 X144.001 Y114.722 E0.02502
G1 X143.842 Y115.166 E0.01597
G1 X142.158 Y115.166 E0.05699
G1 X141.999 Y114.722 E0.01597
G1 X141.820 Y114.005 E0.02502
G1 X141.768 Y113.670 E0.01145
G1 X141.725 Y113.000 E0.02273
G1 X141.768 Y112.330 E0.02273
G1 X141.820 Y111.995 E0.01145
G1 X141.999 Y111.278 E0.02502
G1 X142.225 Y110.649 E0.02265
G1 X142.225 Y94.835 E0.53528
M204 S1000
G1 X142.227 Y94.375 F10800.000
G1 F8640
G1 X138.934 Y94.829 E-0.76000
G1 E-0.04000 F2100.00000
G1 Z1.200 F10800.000
G1 X143.193 Y93.839
G1 Z0.600
G1 E0.80000 F2100.00000
M204 S1250
G1 F2546
G1 X142.699 Y93.344 E0.02367
G1 X142.123 Y93.344 E0.01950
G1 X142.434 Y93.656 E0.01490
G1 X141.858 Y93.656 E0.01950
G1 X141.547 Y93.344 E0.01490
G1 X140.971 Y93.344 E0.01950
G1 X141.282 Y93.656 E0.01490
G1 X140.706 Y93.656 E0.01950
G1 X140.395 Y93.344 E0.01490
G1 X139.819 Y93.344 E0.01950
G1 X140.130 Y93.656 E0.01490
G1 X139.554 Y93.656 E0.01950
G1 X139.243 Y93.344 E0.01490
G1 X138.667 Y93.344 E0.01950
G1 X138.978 Y93.656 E0.01490
G1 X138.402 Y93.656 E0.01950
G1 X138.091 Y93.344 E0.01490
G1 X137.515 Y93.344 E0.01950
G1 X137.826 Y93.656 E0.01490
G1 X137.250 Y93.656 E0.01950
G1 X136.939 Y93.344 E0.01490
G1 X136.363 Y93.344 E0.01950
G1 X136.674 Y93.656 E0.01490
G1 X136.098 Y93.656 E0.01950
G1 X135.787 Y93.344 E0.01490
G1 X135.211 Y93.344 E0.01950
G1 X135.522 Y93.656 E0.01490
G1 X134.947 Y93.656 E0.01950
G1 X134.635 Y93.344 E0.01490
G1 X134.059 Y93.344 E0.01950
G1 X134.371 Y93.656 E0.01490
G1 X133.795 Y93.656 E0.01950
G1 X133.484 Y93.344 E0.01490
G1 X132.908 Y93.344 E0.01950
G1 X133.219 Y93.656 E0.01490
G1 X132.643 Y93.656 E0.01950
G1 X132.332 Y93.344 E0.01490
G1 X131.756 Y93.344 E0.01950
G1 X132.067 Y93.656 E0.01490
G1 X131.491 Y93.656 E0.01950
G1 X131.180 Y93.344 E0.01490
G1 X130.604 Y93.344 E0.01950
G1 X130.915 Y93.656 E0.01490
G1 X130.339 Y93.656 E0.01950
G1 X130.028 Y93.344 E0.01490
G1 X129.452 Y93.344 E0.01950
G1 X129.763 Y93.656 E0.01490
G1 X129.187 Y93.656 E0.01950
G1 X128.876 Y93.344 E0.01490
G1 X128.300 Y93.344 E0.01950
G1 X128.611 Y93.656 E0.01490
G1 X128.035 Y93.656 E0.01950
G1 X127.724 Y93.344 E0.01490
G1 X127.148 Y93.344 E0.01950
G1 X127.459 Y93.656 E0.01490
G1 X126.883 Y93.656 E0.01950
G1 X126.572 Y93.344 E0.01490
G1 X125.996 Y93.344 E0.01950
G1 X126.307 Y93.656 E0.01490
G1 X125.731 Y93.656 E0.01950
G1 X125.420 Y93.344 E0.01490
G1 X124.844 Y93.344 E0.01950
G1 X125.156 Y93.656 E0.01490
G1 X124.580 Y93.656 E0.01950
G1 X124.268 Y93.344 E0.01490
G1 X123.693 Y93.344 E0.01950
G1 X124.004 Y93.656 E0.01490
G1 X123.428 Y93.656 E0.01950
G1 X123.117 Y93.344 E0.01490
G1 X122.541 Y93.344 E0.01950
G1 X122.852 Y93.656 E0.01490
G1 X122.276 Y93.656 E0.01950
G1 X121.965 Y93.344 E0.01490
G1 X121.389 Y93.344 E0.01950
G1 X121.700 Y93.656 E0.01490
G1 X121.124 Y93.656 E0.01950
G1 X120.813 Y93.344 E0.01490
G1 X120.237 Y93.344 E0.01950
G1 X120.548 Y93.656 E0.01490
G1 X119.972 Y93.656 E0.01950
G1 X119.661 Y93.344 E0.01490
G1 X119.085 Y93.344 E0.01950
G1 X119.396 Y93.656 E0.01490
G1 X118.820 Y93.656 E0.01950
G1 X118.509 Y93.344 E0.01490
G1 X117.933 Y93.344 E0.01950
G1 X118.244 Y93.656 E0.01490
