; generated by PrusaSlicer 2.0.0+win64 on 2019-09-12 at 19:58:59

; 

; external perimeters extrusion width = 0.45mm
; perimeters extrusion width = 0.45mm
; infill extrusion width = 0.45mm
; solid infill extrusion width = 0.45mm
; top infill extrusion width = 0.40mm
; first layer extrusion width = 0.42mm

M73 P0 R16
M73 Q0 S16
M201 X1000 Y1000 Z1000 E5000 ; sets maximum accelerations, mm/sec^2
M203 X200 Y200 Z12 E120 ; sets maximum feedrates, mm/sec
M204 P1250 R1250 T1250 ; sets acceleration (P, T) and retract acceleration (R), mm/sec^2
M205 X8.00 Y8.00 Z0.40 E1.50 ; sets the jerk limits, mm/sec
M205 S0 T0 ; sets the minimum extruding and travel feed rate, mm/sec
M107
M115 U3.7.2 ; tell printer latest fw version
G90 ; use absolute coordinates
M83 ; extruder relative mode
M104 S240 ; set extruder temp
M140 S85 ; set bed temp
Tx
M190 S85 ; wait for bed temp
M109 S240 ; wait for extruder temp
G28 W ; home all without mesh bed level
G80 ; mesh bed leveling

G21 ; set units to millimeters

;go outside print area
G1 Y-3.0 F1000.0
G1 Z0.4 F1000.0
; select extruder
Tc
; purge line
G1 X55.0 F2000.0
G1 Z0.3 F1000.0
G92 E0.0
G1 X240.0 E25.0 F2200.0
M73 Q0 S16
M73 P0 R16
G1 Y-2.0 F1000.0
G1 X55.0 E25 F1400.0
G1 Z0.20 F1000.0
G1 X5.0 E4.0 F1000.0

M221 S95
G92 E0.0
M900 K45 ; Filament gcode
G21 ; set units to millimeters
G90 ; use absolute coordinates
M83 ; use relative distances for extrusion
;BEFORE_LAYER_CHANGE
G92 E0.0
;0.2


G1 E-0.80000 F2100.00000
G1 Z0.600 F10800.000
;AFTER_LAYER_CHANGE
;0.2
G1 X108.986 Y82.636
G1 Z0.200
G1 E0.80000 F2100.00000
M204 S1000
G1 F1200
G1 X109.337 Y81.838 E0.02732
G1 X109.974 Y81.239 E0.02743
G1 X124.690 Y72.921 E0.53002
G1 X125.359 Y72.812 E0.02123
G1 X138.879 Y72.811 E0.42391
G1 X139.698 Y72.972 E0.02620
G1 X140.396 Y73.426 E0.02608
G1 X140.875 Y74.111 E0.02620
G1 X141.062 Y74.925 E0.02620
G1 X141.014 Y135.464 E1.89818
G1 X140.766 Y136.102 E0.02146
G1 X140.333 Y136.632 E0.02146
G1 X139.758 Y137.003 E0.02146
G1 X139.100 Y137.177 E0.02134
G1 X124.911 Y137.139 E0.44489
G1 X124.207 Y136.851 E0.02383
G1 X123.647 Y136.343 E0.02372
G1 X109.371 Y117.409 E0.74351
G1 X109.024 Y116.712 E0.02439
G1 X108.936 Y116.103 E0.01930
G1 X108.986 Y82.696 E1.04747
G1 F8640
G1 X109.337 Y81.838 E-0.21395
G1 X109.974 Y81.239 E-0.20201
G1 X111.271 Y80.505 E-0.34404
G1 E-0.04000 F2100.00000
G1 Z0.800 F10800.000
G1 X118.732 Y114.122
G1 Z0.200
G1 E0.80000 F2100.00000
G1 F1200
G1 X118.606 Y114.414 E0.00997
G1 X118.422 Y114.685 E0.01026
G1 X118.126 Y114.962 E0.01271
G1 X117.844 Y115.129 E0.01026
G1 X117.545 Y115.237 E0.00997
G1 X117.231 Y115.286 E0.00997
G1 X116.913 Y115.276 E0.00997
G1 X116.603 Y115.207 E0.00997
G1 X116.311 Y115.081 E0.00997
G1 X116.048 Y114.902 E0.00997
G1 X115.816 Y114.670 E0.01027
G1 X115.599 Y114.328 E0.01271
G1 X115.488 Y114.020 E0.01026
G1 X115.439 Y113.706 E0.00997
G1 X115.449 Y113.379 E0.01026
G1 X115.550 Y112.986 E0.01271
G1 X115.698 Y112.695 E0.01027
G1 X115.893 Y112.443 E0.00997
G1 X116.132 Y112.233 E0.00997
G1 X116.406 Y112.071 E0.00997
G1 X116.705 Y111.963 E0.00998
G1 X117.031 Y111.912 E0.01034
G1 X117.433 Y111.938 E0.01263
G1 X117.747 Y112.029 E0.01026
G1 X118.030 Y112.173 E0.00997
G1 X118.282 Y112.368 E0.00997
G1 X118.492 Y112.607 E0.00997
G1 X118.654 Y112.881 E0.00997
G1 X118.762 Y113.180 E0.00997
G1 X118.811 Y113.494 E0.00997
G1 X118.801 Y113.812 E0.00997
G1 X118.745 Y114.064 E0.00809
G1 X118.372 Y114.005 F10800.000
G1 F1200
G1 X118.274 Y114.232 E0.00774
G1 X118.133 Y114.438 E0.00784
G1 X117.898 Y114.659 E0.01010
G1 X117.683 Y114.786 E0.00784
G1 X117.451 Y114.870 E0.00774
G1 X117.207 Y114.908 E0.00774
G1 X116.961 Y114.901 E0.00774
G1 X116.720 Y114.847 E0.00773
G1 X116.493 Y114.749 E0.00774
G1 X116.289 Y114.610 E0.00774
G1 X116.113 Y114.433 E0.00784
G1 X115.940 Y114.161 E0.01010
G1 X115.855 Y113.926 E0.00784
G1 X115.817 Y113.682 E0.00774
G1 X115.825 Y113.432 E0.00784
G1 X115.905 Y113.120 E0.01010
G1 X116.018 Y112.898 E0.00784
G1 X116.169 Y112.703 E0.00774
G1 X116.354 Y112.539 E0.00774
G1 X116.567 Y112.414 E0.00774
G1 X116.799 Y112.330 E0.00774
G1 X117.048 Y112.291 E0.00792
G1 X117.368 Y112.311 E0.01002
G1 X117.608 Y112.381 E0.00784
G1 X117.827 Y112.493 E0.00774
G1 X118.022 Y112.644 E0.00774
G1 X118.186 Y112.829 E0.00774
G1 X118.311 Y113.042 E0.00774
G1 X118.395 Y113.274 E0.00774
G1 X118.433 Y113.518 E0.00774
G1 X118.426 Y113.764 E0.00774
G1 X118.385 Y113.947 E0.00586
G1 X118.537 Y114.189 F10800.000
G1 F8640
G1 X118.274 Y114.232 E-0.07063
G1 X118.133 Y114.438 E-0.05773
G1 X117.898 Y114.659 E-0.07438
G1 X117.683 Y114.786 E-0.05774
G1 X117.451 Y114.870 E-0.05697
G1 X117.207 Y114.908 E-0.05698
G1 X116.961 Y114.901 E-0.05699
G1 X116.720 Y114.847 E-0.05696
G1 X116.493 Y114.749 E-0.05696
G1 X116.289 Y114.610 E-0.05698
G1 X116.113 Y114.433 E-0.05775
G1 X115.940 Y114.161 E-0.07437
G1 X115.902 Y114.057 E-0.02555
G1 E-0.04000 F2100.00000
G1 Z0.800 F10800.000
G1 X115.749 Y115.136
G1 Z0.200
G1 E0.80000 F2100.00000
G1 F1200
G1 X112.089 Y115.136 E0.11474
G1 X112.089 Y112.064 E0.09631
G1 X115.753 Y112.064 E0.11488
G1 X115.617 Y112.184 E0.00568
G1 X115.379 Y112.492 E0.01221
G1 X115.195 Y112.852 E0.01269
G1 X115.073 Y113.326 E0.01532
G1 X115.061 Y113.730 E0.01268
G1 X115.122 Y114.114 E0.01220
G1 X115.259 Y114.495 E0.01268
G1 X115.520 Y114.908 E0.01532
G1 X115.706 Y115.093 E0.00824
G1 F8640
G1 X112.415 Y115.132 E-0.76000
G1 E-0.04000 F2100.00000
G1 Z0.800 F10800.000
G1 X115.749 Y87.136
G1 Z0.200
G1 E0.80000 F2100.00000
G1 F1200
G1 X112.089 Y87.136 E0.11474
G1 X112.089 Y84.064 E0.09631
G1 X115.753 Y84.064 E0.11488
G1 X115.617 Y84.184 E0.00568
G1 X115.369 Y84.504 E0.01269
G1 X115.161 Y84.946 E0.01532
G1 X115.073 Y85.341 E0.01268
G1 X115.061 Y85.730 E0.01221
G1 X115.122 Y86.114 E0.01220
G1 X115.259 Y86.495 E0.01268
G1 X115.520 Y86.908 E0.01532
G1 X115.706 Y87.093 E0.00824
G1 X115.816 Y86.670 F10800.000
G1 F1200
G1 X115.599 Y86.328 E0.01271
G1 X115.488 Y86.020 E0.01026
G1 X115.439 Y85.706 E0.00997
G1 X115.449 Y85.388 E0.00997
G1 X115.520 Y85.069 E0.01026
G1 X115.693 Y84.702 E0.01271
G1 X115.893 Y84.443 E0.01026
G1 X116.132 Y84.233 E0.00997
G1 X116.406 Y84.071 E0.00997
G1 X116.705 Y83.963 E0.00998
G1 X117.031 Y83.912 E0.01034
G1 X117.433 Y83.938 E0.01262
G1 X117.747 Y84.029 E0.01026
G1 X118.030 Y84.173 E0.00997
G1 X118.282 Y84.368 E0.00997
G1 X118.492 Y84.607 E0.00997
G1 X118.654 Y84.881 E0.00997
G1 X118.762 Y85.180 E0.00997
G1 X118.811 Y85.494 E0.00997
G1 X118.801 Y85.812 E0.00997
G1 X118.732 Y86.122 E0.00997
G1 X118.606 Y86.414 E0.00997
G1 X118.427 Y86.677 E0.00997
G1 X118.195 Y86.909 E0.01027
G1 X117.853 Y87.126 E0.01271
G1 X117.545 Y87.237 E0.01026
G1 X117.231 Y87.286 E0.00997
G1 X116.913 Y87.276 E0.00997
G1 X116.603 Y87.207 E0.00997
G1 X116.311 Y87.081 E0.00997
G1 X116.048 Y86.902 E0.00997
G1 X115.859 Y86.713 E0.00839
G1 X116.113 Y86.433 F10800.000
G1 F1200
G1 X115.940 Y86.161 E0.01010
G1 X115.855 Y85.926 E0.00784
G1 X115.817 Y85.682 E0.00774
G1 X115.824 Y85.436 E0.00774
G1 X115.879 Y85.192 E0.00784
G1 X116.016 Y84.900 E0.01010
G1 X116.169 Y84.703 E0.00784
G1 X116.354 Y84.539 E0.00774
G1 X116.567 Y84.414 E0.00774
G1 X116.799 Y84.330 E0.00774
G1 X117.048 Y84.291 E0.00792
G1 X117.367 Y84.311 E0.01002
G1 X117.608 Y84.381 E0.00784
G1 X117.827 Y84.493 E0.00774
G1 X118.022 Y84.644 E0.00774
G1 X118.186 Y84.829 E0.00774
G1 X118.311 Y85.042 E0.00774
G1 X118.395 Y85.274 E0.00774
G1 X118.433 Y85.518 E0.00774
G1 X118.426 Y85.764 E0.00774
G1 X118.372 Y86.005 E0.00774
G1 X118.274 Y86.232 E0.00774
G1 X118.135 Y86.436 E0.00774
G1 X117.958 Y86.612 E0.00784
G1 X117.686 Y86.785 E0.01010
G1 X117.451 Y86.870 E0.00784
G1 X117.207 Y86.908 E0.00774
G1 X116.961 Y86.901 E0.00774
G1 X116.720 Y86.847 E0.00774
G1 X116.493 Y86.749 E0.00774
G1 X116.289 Y86.610 E0.00774
G1 X116.155 Y86.476 E0.00596
G1 X115.794 Y86.480 F10800.000
G1 F8640
G1 X115.940 Y86.161 E-0.08794
G1 X115.855 Y85.926 E-0.05774
G1 X115.817 Y85.682 E-0.05697
G1 X115.824 Y85.436 E-0.05698
G1 X115.879 Y85.192 E-0.05773
G1 X116.016 Y84.900 E-0.07438
G1 X116.169 Y84.703 E-0.05775
G1 X116.354 Y84.539 E-0.05697
G1 X116.567 Y84.414 E-0.05697
G1 X116.799 Y84.330 E-0.05700
G1 X117.048 Y84.291 E-0.05829
G1 X117.367 Y84.311 E-0.07381
G1 X117.399 Y84.320 E-0.00747
G1 E-0.04000 F2100.00000
G1 Z0.800 F10800.000
G1 X132.324 Y127.267
G1 Z0.200
G1 E0.80000 F2100.00000
G1 F1200
G1 X132.761 Y127.109 E0.01457
G1 X133.220 Y127.036 E0.01456
G1 X133.700 Y127.051 E0.01504
G1 X134.270 Y127.198 E0.01847
G1 X134.698 Y127.416 E0.01504
G1 X135.065 Y127.700 E0.01457
G1 X135.372 Y128.049 E0.01457
G1 X135.608 Y128.449 E0.01456
G1 X135.766 Y128.886 E0.01457
G1 X135.839 Y129.345 E0.01456
G1 X135.824 Y129.825 E0.01504
G1 X135.677 Y130.395 E0.01847
G1 X135.459 Y130.823 E0.01504
G1 X135.175 Y131.190 E0.01457
G1 X134.826 Y131.497 E0.01457
G1 X134.426 Y131.733 E0.01456
G1 X133.989 Y131.891 E0.01457
G1 X133.530 Y131.964 E0.01456
G1 X133.050 Y131.949 E0.01504
G1 X132.480 Y131.802 E0.01847
G1 X132.052 Y131.584 E0.01504
G1 X131.685 Y131.300 E0.01457
G1 X131.378 Y130.951 E0.01457
G1 X131.142 Y130.551 E0.01456
G1 X130.984 Y130.114 E0.01457
G1 X130.911 Y129.655 E0.01456
G1 X130.926 Y129.175 E0.01504
G1 X131.073 Y128.605 E0.01847
G1 X131.291 Y128.177 E0.01504
G1 X131.575 Y127.810 E0.01457
G1 X131.924 Y127.503 E0.01457
G1 X132.272 Y127.297 E0.01268
G1 X132.485 Y127.609 F10800.000
G1 F1200
G1 X132.855 Y127.476 E0.01234
G1 X133.244 Y127.414 E0.01233
G1 X133.646 Y127.427 E0.01262
G1 X134.136 Y127.553 E0.01586
G1 X134.495 Y127.736 E0.01262
G1 X134.805 Y127.977 E0.01233
G1 X135.066 Y128.272 E0.01233
G1 X135.266 Y128.610 E0.01233
G1 X135.399 Y128.980 E0.01234
G1 X135.461 Y129.369 E0.01233
G1 X135.448 Y129.771 E0.01262
G1 X135.322 Y130.261 E0.01586
G1 X135.139 Y130.620 E0.01262
G1 X134.898 Y130.930 E0.01233
G1 X134.603 Y131.191 E0.01233
G1 X134.265 Y131.391 E0.01233
G1 X133.895 Y131.524 E0.01234
G1 X133.506 Y131.586 E0.01233
G1 X133.104 Y131.573 E0.01262
G1 X132.614 Y131.447 E0.01586
G1 X132.255 Y131.264 E0.01262
G1 X131.945 Y131.023 E0.01233
G1 X131.684 Y130.728 E0.01233
G1 X131.484 Y130.390 E0.01233
G1 X131.351 Y130.020 E0.01234
G1 X131.289 Y129.631 E0.01233
G1 X131.302 Y129.229 E0.01262
G1 X131.428 Y128.739 E0.01586
G1 X131.611 Y128.380 E0.01262
G1 X131.852 Y128.070 E0.01233
G1 X132.147 Y127.809 E0.01233
G1 X132.434 Y127.640 E0.01045
G1 X132.646 Y127.952 F10800.000
G1 F1200
G1 X132.950 Y127.843 E0.01010
G1 X133.268 Y127.792 E0.01009
G1 X133.593 Y127.803 E0.01020
G1 X134.002 Y127.908 E0.01324
G1 X134.292 Y128.055 E0.01020
G1 X134.546 Y128.253 E0.01010
G1 X134.759 Y128.494 E0.01010
G1 X134.923 Y128.771 E0.01010
G1 X135.032 Y129.075 E0.01010
G1 X135.083 Y129.393 E0.01009
G1 X135.072 Y129.718 E0.01020
G1 X134.967 Y130.127 E0.01324
G1 X134.820 Y130.417 E0.01020
G1 X134.622 Y130.671 E0.01010
G1 X134.381 Y130.884 E0.01010
G1 X134.104 Y131.048 E0.01010
G1 X133.800 Y131.157 E0.01010
G1 X133.482 Y131.208 E0.01009
G1 X133.157 Y131.197 E0.01020
G1 X132.748 Y131.092 E0.01324
G1 X132.458 Y130.945 E0.01020
G1 X132.204 Y130.747 E0.01010
G1 X131.991 Y130.506 E0.01010
G1 X131.827 Y130.229 E0.01010
G1 X131.718 Y129.925 E0.01010
G1 X131.667 Y129.607 E0.01009
G1 X131.678 Y129.282 E0.01020
G1 X131.783 Y128.873 E0.01324
G1 X131.930 Y128.583 E0.01020
G1 X132.128 Y128.329 E0.01010
G1 X132.369 Y128.116 E0.01010
G1 X132.595 Y127.982 E0.00821
G1 X132.673 Y127.631 F10800.000
G1 F8640
G1 X132.950 Y127.843 E-0.08803
G1 X133.268 Y127.792 E-0.07434
G1 X133.593 Y127.803 E-0.07512
G1 X134.002 Y127.908 E-0.09754
G1 X134.292 Y128.055 E-0.07512
G1 X134.546 Y128.253 E-0.07435
G1 X134.759 Y128.494 E-0.07436
G1 X134.923 Y128.771 E-0.07435
G1 X135.032 Y129.075 E-0.07438
G1 X135.068 Y129.299 E-0.05241
G1 E-0.04000 F2100.00000
G1 Z0.800 F10800.000
G1 X133.050 Y82.949
G1 Z0.200
G1 E0.80000 F2100.00000
G1 F1200
G1 X132.480 Y82.802 E0.01847
G1 X132.052 Y82.584 E0.01504
G1 X131.685 Y82.300 E0.01457
G1 X131.378 Y81.951 E0.01457
G1 X131.142 Y81.551 E0.01456
G1 X130.984 Y81.114 E0.01457
G1 X130.911 Y80.655 E0.01456
G1 X130.926 Y80.175 E0.01504
G1 X131.073 Y79.605 E0.01847
G1 X131.291 Y79.177 E0.01504
G1 X131.575 Y78.810 E0.01457
G1 X131.924 Y78.503 E0.01457
G1 X132.324 Y78.267 E0.01456
G1 X132.761 Y78.109 E0.01457
G1 X133.220 Y78.036 E0.01456
G1 X133.700 Y78.051 E0.01504
G1 X134.270 Y78.198 E0.01847
G1 X134.698 Y78.416 E0.01504
G1 X135.065 Y78.700 E0.01457
G1 X135.372 Y79.049 E0.01457
G1 X135.608 Y79.449 E0.01456
G1 X135.766 Y79.886 E0.01457
G1 X135.839 Y80.345 E0.01456
G1 X135.824 Y80.825 E0.01504
G1 X135.677 Y81.395 E0.01847
G1 X135.459 Y81.823 E0.01504
G1 X135.175 Y82.190 E0.01457
G1 X134.826 Y82.497 E0.01457
G1 X134.426 Y82.733 E0.01456
G1 X133.989 Y82.891 E0.01457
G1 X133.530 Y82.964 E0.01456
G1 X133.110 Y82.950 E0.01316
G1 X133.104 Y82.573 F10800.000
G1 F1200
G1 X132.614 Y82.447 E0.01586
G1 X132.255 Y82.264 E0.01262
G1 X131.945 Y82.023 E0.01233
G1 X131.684 Y81.728 E0.01233
G1 X131.484 Y81.390 E0.01233
G1 X131.351 Y81.020 E0.01234
G1 X131.289 Y80.631 E0.01233
G1 X131.302 Y80.229 E0.01262
G1 X131.428 Y79.739 E0.01586
G1 X131.611 Y79.380 E0.01262
G1 X131.852 Y79.070 E0.01233
G1 X132.147 Y78.809 E0.01233
G1 X132.485 Y78.609 E0.01233
G1 X132.855 Y78.476 E0.01234
G1 X133.244 Y78.414 E0.01233
G1 X133.646 Y78.427 E0.01262
G1 X134.136 Y78.553 E0.01586
G1 X134.495 Y78.736 E0.01262
G1 X134.805 Y78.977 E0.01233
G1 X135.066 Y79.272 E0.01233
G1 X135.266 Y79.610 E0.01233
G1 X135.399 Y79.980 E0.01234
G1 X135.461 Y80.369 E0.01233
G1 X135.448 Y80.771 E0.01262
G1 X135.322 Y81.261 E0.01586
G1 X135.139 Y81.620 E0.01262
G1 X134.898 Y81.930 E0.01233
G1 X134.603 Y82.191 E0.01233
G1 X134.265 Y82.391 E0.01233
G1 X133.895 Y82.524 E0.01234
G1 X133.506 Y82.586 E0.01233
G1 X133.164 Y82.575 E0.01074
G1 X133.157 Y82.197 F10800.000
G1 F1200
G1 X132.748 Y82.092 E0.01324
G1 X132.458 Y81.945 E0.01020
G1 X132.204 Y81.747 E0.01010
G1 X131.991 Y81.506 E0.01010
G1 X131.827 Y81.229 E0.01010
G1 X131.718 Y80.925 E0.01010
G1 X131.667 Y80.607 E0.01009
G1 X131.678 Y80.282 E0.01020
G1 X131.783 Y79.873 E0.01324
G1 X131.930 Y79.583 E0.01020
G1 X132.128 Y79.329 E0.01010
G1 X132.369 Y79.116 E0.01010
G1 X132.646 Y78.952 E0.01010
G1 X132.950 Y78.843 E0.01010
G1 X133.268 Y78.792 E0.01009
G1 X133.593 Y78.803 E0.01020
G1 X134.002 Y78.908 E0.01324
G1 X134.292 Y79.055 E0.01020
G1 X134.546 Y79.253 E0.01010
G1 X134.759 Y79.494 E0.01010
G1 X134.923 Y79.771 E0.01010
G1 X135.032 Y80.075 E0.01010
G1 X135.083 Y80.393 E0.01009
G1 X135.072 Y80.718 E0.01020
G1 X134.967 Y81.127 E0.01324
G1 X134.820 Y81.417 E0.01020
G1 X134.622 Y81.671 E0.01010
G1 X134.381 Y81.884 E0.01010
G1 X134.104 Y82.048 E0.01010
G1 X133.800 Y82.157 E0.01010
G1 X133.482 Y82.208 E0.01009
G1 X133.217 Y82.199 E0.00832
G1 X132.909 Y82.511 F10800.000
G1 F8640
G1 X132.748 Y82.092 E-0.11110
G1 X132.458 Y81.945 E-0.07512
G1 X132.204 Y81.747 E-0.07435
G1 X131.991 Y81.506 E-0.07436
G1 X131.827 Y81.229 E-0.07435
G1 X131.718 Y80.925 E-0.07438
G1 X131.667 Y80.607 E-0.07434
G1 X131.678 Y80.282 E-0.07512
G1 X131.783 Y79.873 E-0.09754
G1 X131.840 Y79.760 E-0.02934
G1 E-0.04000 F2100.00000
G1 Z0.800 F10800.000
G1 X126.739 Y115.136
G1 Z0.200
G1 E0.80000 F2100.00000
G1 F1200
G1 X118.492 Y115.136 E0.25856
G1 X118.710 Y114.931 E0.00938
G1 X118.938 Y114.596 E0.01268
G1 X119.092 Y114.239 E0.01221
G1 X119.177 Y113.859 E0.01221
G1 X119.189 Y113.470 E0.01220
G1 X119.128 Y113.086 E0.01220
G1 X118.997 Y112.719 E0.01221
G1 X118.798 Y112.384 E0.01221
G1 X118.505 Y112.064 E0.01362
G1 X124.339 Y112.064 E0.18293
G1 X124.339 Y87.136 E0.78161
G1 X118.501 Y87.136 E0.18304
G1 X118.719 Y86.918 E0.00964
G1 X118.938 Y86.596 E0.01220
G1 X119.092 Y86.239 E0.01220
G1 X119.177 Y85.859 E0.01221
G1 X119.189 Y85.470 E0.01221
G1 X119.128 Y85.086 E0.01220
G1 X118.997 Y84.719 E0.01221
G1 X118.798 Y84.384 E0.01221
G1 X118.505 Y84.064 E0.01361
G1 X126.739 Y84.064 E0.25818
G1 X126.739 Y80.031 E0.12646
G1 X126.770 Y79.545 E0.01527
G1 X126.858 Y79.082 E0.01479
G1 X126.913 Y78.892 E0.00621
G1 X127.092 Y78.439 E0.01527
G1 X127.182 Y78.262 E0.00621
G1 X127.443 Y77.851 E0.01527
G1 X127.565 Y77.695 E0.00621
G1 X127.887 Y77.351 E0.01479
G1 X128.239 Y77.060 E0.01431
G1 X128.625 Y76.815 E0.01431
