; generated by PrusaSlicer 2.0.0+win64 on 2020-03-24 at 18:38:51

; 

; external perimeters extrusion width = 0.45mm
; perimeters extrusion width = 0.45mm
; infill extrusion width = 0.45mm
; solid infill extrusion width = 0.45mm
; top infill extrusion width = 0.40mm
; first layer extrusion width = 0.42mm

M73 P0 R54
M73 Q0 S55
M201 X1000 Y1000 Z1000 E8000 ; sets maximum accelerations, mm/sec^2
M203 X200 Y200 Z12 E120 ; sets maximum feedrates, mm/sec
M204 P1250 R1250 T1250 ; sets acceleration (P, T) and retract acceleration (R), mm/sec^2
M205 X8.00 Y8.00 Z0.40 E1.50 ; sets the jerk limits, mm/sec
M205 S0 T0 ; sets the minimum extruding and travel feed rate, mm/sec
M107
M115 U3.7.1 ; tell printer latest fw version
G90 ; use absolute coordinates
M83 ; extruder relative mode
M104 S230 ; set extruder temp
M140 S85 ; set bed temp
M190 S85 ; wait for bed temp
M109 S230 ; wait for extruder temp
G28 W ; home all without mesh bed level
G80 ; mesh bed leveling
G21 ; set units to millimeters

; Send the filament type to the MMU2.0 unit.
; E stands for extruder number, F stands for filament type (0: default; 1:flex; 2: PVA)
M403 E0 F0
M403 E1 F0
M403 E2 F0
M403 E3 F0
M403 E4 F0


;go outside print area
G1 Y-3.0 F1000.0
G1 Z0.4 F1000.0
; select extruder
T0
; initial load
G1 X55.0 E29.0 F1073.0
M73 Q0 S54
M73 P0 R54
G1 X5.0 E29.0 F1800.0
G1 X55.0 E8.0 F2000.0
G1 Z0.3 F1000.0
G92 E0.0
G1 X240.0 E25.0 F2200.0
G1 Y-2.0 F1000.0
G1 X55.0 E25 F1400.0
G1 Z0.20 F1000.0
G1 X5.0 E4.0 F1000.0
G92 E0.0


M221 S95
G92 E0.0
M900 K45 ; Filament gcode
G21 ; set units to millimeters
G90 ; use absolute coordinates
M83 ; use relative distances for extrusion
;BEFORE_LAYER_CHANGE
G92 E0.0
;0.2


G1 E-0.80000 F2100.00000
G1 Z0.600 F10800.000
;AFTER_LAYER_CHANGE
;0.2
G1 X93.649 Y79.064
G1 Z0.200
G1 E0.80000 F2100.00000
M204 S1000
G1 F1200
G1 X95.337 Y77.149 E0.08003
G1 X97.097 Y75.387 E0.07808
G1 X99.116 Y73.607 E0.08438
G1 X101.084 Y72.082 E0.07808
G1 X103.196 Y70.647 E0.08003
G1 X105.459 Y69.312 E0.08239
G1 X107.676 Y68.184 E0.07801
G1 X110.019 Y67.170 E0.08003
G1 X112.492 Y66.283 E0.08239
G1 X114.882 Y65.590 E0.07801
G1 X117.376 Y65.032 E0.08015
G1 X119.897 Y64.633 E0.08003
G1 X122.377 Y64.397 E0.07808
G1 X125.004 Y64.311 E0.08243
G1 X127.556 Y64.392 E0.08003
G1 X130.031 Y64.625 E0.07797
G1 X132.625 Y65.032 E0.08232
G1 X135.116 Y65.589 E0.08003
G1 X137.511 Y66.284 E0.07820
G1 X140.040 Y67.194 E0.08427
G1 X142.325 Y68.184 E0.07808
G1 X144.544 Y69.314 E0.07808
G1 X146.893 Y70.706 E0.08560
G1 X148.917 Y72.083 E0.07675
G1 X150.936 Y73.649 E0.08015
G1 X152.851 Y75.337 E0.08003
G1 X154.613 Y77.097 E0.07808
G1 X156.393 Y79.116 E0.08438
G1 X157.918 Y81.084 E0.07808
G1 X159.353 Y83.196 E0.08003
G1 X160.688 Y85.459 E0.08239
G1 X161.816 Y87.676 E0.07801
G1 X162.830 Y90.019 E0.08003
G1 X163.717 Y92.492 E0.08239
G1 X164.410 Y94.882 E0.07801
G1 X164.968 Y97.376 E0.08015
G1 X165.367 Y99.897 E0.08003
G1 X165.603 Y102.377 E0.07808
G1 X165.689 Y105.001 E0.08232
G1 X165.608 Y107.552 E0.08003
G1 X165.375 Y110.031 E0.07808
G1 X164.968 Y112.625 E0.08232
G1 X164.411 Y115.116 E0.08003
G1 X163.716 Y117.511 E0.07820
G1 X162.806 Y120.040 E0.08427
G1 X161.816 Y122.325 E0.07808
G1 X160.686 Y124.544 E0.07808
G1 X159.317 Y126.859 E0.08434
G1 X157.917 Y128.917 E0.07801
G1 X156.351 Y130.936 E0.08015
G1 X154.663 Y132.851 E0.08003
G1 X152.903 Y134.613 E0.07808
G1 X150.884 Y136.393 E0.08438
G1 X148.916 Y137.918 E0.07808
G1 X146.804 Y139.353 E0.08003
G1 X144.541 Y140.688 E0.08239
G1 X142.324 Y141.816 E0.07801
G1 X139.981 Y142.830 E0.08003
G1 X137.508 Y143.717 E0.08239
G1 X135.118 Y144.410 E0.07801
G1 X132.624 Y144.968 E0.08015
G1 X130.103 Y145.367 E0.08003
G1 X127.623 Y145.603 E0.07808
G1 X124.999 Y145.689 E0.08232
G1 X122.448 Y145.608 E0.08003
G1 X119.969 Y145.375 E0.07808
G1 X117.372 Y144.967 E0.08243
G1 X114.881 Y144.410 E0.08003
G1 X112.489 Y143.716 E0.07808
G1 X109.960 Y142.806 E0.08427
G1 X107.675 Y141.816 E0.07808
G1 X105.449 Y140.683 E0.07831
G1 X102.974 Y139.203 E0.09042
G1 X101.080 Y137.915 E0.07181
G1 X99.061 Y136.348 E0.08015
G1 X97.149 Y134.663 E0.07992
G1 X95.387 Y132.903 E0.07808
G1 X93.607 Y130.884 E0.08438
G1 X92.082 Y128.916 E0.07808
G1 X90.647 Y126.804 E0.08003
G1 X89.312 Y124.541 E0.08239
G1 X88.184 Y122.324 E0.07801
G1 X87.170 Y119.981 E0.08003
G1 X86.283 Y117.508 E0.08239
G1 X85.590 Y115.118 E0.07801
G1 X85.032 Y112.624 E0.08015
G1 X84.633 Y110.103 E0.08003
G1 X84.397 Y107.623 E0.07808
G1 X84.311 Y104.999 E0.08232
G1 X84.392 Y102.444 E0.08015
G1 X84.625 Y99.969 E0.07797
G1 X85.032 Y97.375 E0.08232
G1 X85.589 Y94.884 E0.08003
G1 X86.284 Y92.489 E0.07820
G1 X87.194 Y89.960 E0.08427
G1 X88.184 Y87.675 E0.07808
G1 X89.314 Y85.456 E0.07808
G1 X90.683 Y83.141 E0.08434
G1 X92.083 Y81.083 E0.07801
G1 X93.613 Y79.111 E0.07827
G1 F8640
G1 X95.337 Y77.149 E-0.60321
G1 X95.817 Y76.669 E-0.15679
G1 E-0.04000 F2100.00000
G1 Z0.800 F10800.000
G1 X92.831 Y119.944
G1 Z0.200
G1 E0.80000 F2100.00000
G1 F1200
G1 X94.082 Y118.909 E0.05090
G1 X95.134 Y119.726 E0.04176
G1 X96.080 Y120.369 E0.03585
G1 X97.064 Y120.951 E0.03585
G1 X98.083 Y121.470 E0.03585
G1 X99.133 Y121.924 E0.03585
G1 X100.209 Y122.311 E0.03585
G1 X101.307 Y122.630 E0.03585
G1 X102.423 Y122.880 E0.03585
G1 X103.552 Y123.058 E0.03585
G1 X104.690 Y123.166 E0.03585
G1 X105.833 Y123.202 E0.03585
G1 X106.976 Y123.166 E0.03585
G1 X108.115 Y123.058 E0.03586
G1 X109.244 Y122.880 E0.03585
G1 X110.360 Y122.630 E0.03585
G1 X111.458 Y122.311 E0.03585
G1 X112.534 Y121.924 E0.03585
G1 X113.583 Y121.470 E0.03585
G1 X114.602 Y120.951 E0.03585
G1 X115.586 Y120.369 E0.03585
G1 X116.532 Y119.726 E0.03585
G1 X117.436 Y119.025 E0.03585
G1 X118.293 Y118.269 E0.03585
G1 X119.102 Y117.460 E0.03585
G1 X119.858 Y116.602 E0.03585
G1 X120.559 Y115.699 E0.03585
G1 X121.202 Y114.753 E0.03585
G1 X121.784 Y113.769 E0.03585
G1 X122.303 Y112.750 E0.03585
G1 X122.757 Y111.701 E0.03585
G1 X123.144 Y110.625 E0.03585
G1 X123.464 Y109.527 E0.03585
G1 X123.812 Y107.966 E0.05013
G1 X125.012 Y108.035 E0.03769
G1 X125.175 Y108.030 E0.00511
G1 X125.584 Y107.978 E0.01290
G1 X126.116 Y107.821 E0.01740
G1 X126.613 Y107.571 E0.01747
G1 X126.933 Y107.339 E0.01238
G1 X127.223 Y107.067 E0.01246
G1 X127.571 Y106.613 E0.01791
G1 X127.979 Y105.793 E0.02875
G1 X128.949 Y105.420 E0.03258
G1 X129.976 Y105.099 E0.03374
G1 X131.022 Y104.842 E0.03374
G1 X132.081 Y104.651 E0.03374
G1 X133.150 Y104.528 E0.03374
G1 X134.207 Y104.472 E0.03320
G1 X135.300 Y104.483 E0.03427
G1 X136.374 Y104.561 E0.03376
G1 X137.440 Y104.707 E0.03374
G1 X138.495 Y104.920 E0.03374
G1 X139.535 Y105.199 E0.03374
G1 X140.555 Y105.542 E0.03374
G1 X141.551 Y105.949 E0.03374
G1 X142.520 Y106.417 E0.03374
G1 X143.458 Y106.945 E0.03374
G1 X144.360 Y107.531 E0.03375
G1 X145.224 Y108.173 E0.03374
G1 X146.046 Y108.868 E0.03374
G1 X146.823 Y109.613 E0.03375
G1 X147.552 Y110.405 E0.03374
G1 X148.229 Y111.241 E0.03374
G1 X148.852 Y112.119 E0.03374
G1 X149.419 Y113.033 E0.03374
G1 X149.928 Y113.982 E0.03374
G1 X150.376 Y114.960 E0.03374
G1 X150.762 Y115.965 E0.03374
G1 X151.084 Y116.992 E0.03375
G1 X151.340 Y118.037 E0.03374
G1 X151.531 Y119.096 E0.03374
G1 X151.655 Y120.165 E0.03374
G1 X151.711 Y121.240 E0.03375
G1 X151.700 Y122.316 E0.03374
G1 X151.621 Y123.390 E0.03374
G1 X151.475 Y124.456 E0.03374
G1 X151.262 Y125.511 E0.03375
G1 X150.983 Y126.550 E0.03374
G1 X150.640 Y127.570 E0.03374
G1 X150.234 Y128.567 E0.03374
G1 X149.765 Y129.536 E0.03374
G1 X149.237 Y130.473 E0.03375
G1 X148.606 Y131.444 E0.03629
G1 X147.606 Y132.326 E0.04182
G1 X145.846 Y133.692 E0.06986
G1 X144.003 Y134.944 E0.06986
G1 X142.085 Y136.078 E0.06986
G1 X140.100 Y137.089 E0.06985
G1 X138.055 Y137.974 E0.06986
G1 X135.959 Y138.729 E0.06985
G1 X133.820 Y139.350 E0.06986
G1 X131.645 Y139.836 E0.06986
G1 X129.445 Y140.185 E0.06986
G1 X127.227 Y140.395 E0.06986
G1 X125.000 Y140.465 E0.06986
G1 X122.773 Y140.395 E0.06986
G1 X120.555 Y140.185 E0.06986
G1 X118.355 Y139.836 E0.06986
G1 X116.180 Y139.350 E0.06986
G1 X114.041 Y138.729 E0.06986
G1 X111.945 Y137.974 E0.06985
G1 X109.900 Y137.089 E0.06986
G1 X107.915 Y136.078 E0.06985
G1 X105.997 Y134.944 E0.06986
G1 X104.154 Y133.692 E0.06986
G1 X102.394 Y132.326 E0.06986
G1 X100.723 Y130.853 E0.06986
G1 X99.147 Y129.277 E0.06985
G1 X97.674 Y127.606 E0.06986
G1 X96.308 Y125.846 E0.06986
G1 X95.056 Y124.003 E0.06986
G1 X93.922 Y122.085 E0.06986
G1 X92.858 Y119.998 E0.07346
G1 X93.304 Y120.042 F10800.000
G1 F1200
G1 X94.090 Y119.393 E0.03196
G1 X94.913 Y120.031 E0.03266
G1 X95.878 Y120.687 E0.03660
G1 X96.883 Y121.281 E0.03660
G1 X97.923 Y121.811 E0.03660
G1 X98.994 Y122.275 E0.03660
G1 X100.092 Y122.670 E0.03660
G1 X101.213 Y122.996 E0.03660
G1 X102.352 Y123.250 E0.03660
G1 X103.505 Y123.433 E0.03659
G1 X104.667 Y123.543 E0.03660
G1 X105.833 Y123.579 E0.03660
G1 X107.000 Y123.543 E0.03660
G1 X108.162 Y123.433 E0.03660
G1 X109.315 Y123.250 E0.03659
G1 X110.454 Y122.996 E0.03660
G1 X111.575 Y122.670 E0.03660
G1 X112.673 Y122.275 E0.03660
G1 X113.744 Y121.811 E0.03660
G1 X114.784 Y121.281 E0.03660
G1 X115.789 Y120.687 E0.03660
G1 X116.754 Y120.031 E0.03660
G1 X117.676 Y119.316 E0.03660
G1 X118.552 Y118.544 E0.03660
G1 X119.377 Y117.718 E0.03660
G1 X120.149 Y116.843 E0.03660
G1 X120.864 Y115.921 E0.03660
G1 X121.520 Y114.955 E0.03660
G1 X122.114 Y113.951 E0.03660
G1 X122.644 Y112.911 E0.03660
G1 X123.108 Y111.839 E0.03660
G1 X123.503 Y110.741 E0.03660
G1 X123.829 Y109.620 E0.03660
G1 X124.110 Y108.361 E0.04046
G1 X125.008 Y108.412 E0.02817
G1 X125.205 Y108.406 E0.00619
G1 X125.648 Y108.350 E0.01401
G1 X125.840 Y108.307 E0.00615
G1 X126.255 Y108.173 E0.01368
G1 X126.652 Y107.986 E0.01376
G1 X126.821 Y107.886 E0.00614
G1 X127.174 Y107.630 E0.01368
G1 X127.494 Y107.329 E0.01377
G1 X127.625 Y107.181 E0.00621
G1 X127.886 Y106.821 E0.01395
G1 X127.987 Y106.650 E0.00621
G1 X128.255 Y106.091 E0.01944
G1 X129.073 Y105.777 E0.02750
G1 X130.078 Y105.462 E0.03300
G1 X131.100 Y105.211 E0.03300
G1 X132.136 Y105.025 E0.03300
G1 X133.181 Y104.904 E0.03300
G1 X134.215 Y104.849 E0.03246
G1 X135.285 Y104.859 E0.03353
G1 X136.335 Y104.937 E0.03301
G1 X137.377 Y105.079 E0.03300
G1 X138.409 Y105.287 E0.03300
G1 X139.426 Y105.560 E0.03300
G1 X140.423 Y105.896 E0.03300
G1 X141.398 Y106.293 E0.03300
G1 X142.345 Y106.751 E0.03300
G1 X143.262 Y107.268 E0.03300
G1 X144.145 Y107.841 E0.03300
G1 X144.990 Y108.469 E0.03300
G1 X145.794 Y109.148 E0.03300
G1 X146.554 Y109.877 E0.03300
G1 X147.266 Y110.651 E0.03300
G1 X147.928 Y111.469 E0.03300
G1 X148.538 Y112.327 E0.03300
G1 X149.093 Y113.222 E0.03300
G1 X149.590 Y114.149 E0.03300
G1 X150.028 Y115.106 E0.03300
G1 X150.405 Y116.089 E0.03300
G1 X150.720 Y117.093 E0.03300
G1 X150.971 Y118.115 E0.03300
G1 X151.158 Y119.151 E0.03300
G1 X151.279 Y120.197 E0.03300
G1 X151.334 Y121.248 E0.03300
G1 X151.323 Y122.300 E0.03300
G1 X151.246 Y123.350 E0.03300
G1 X151.103 Y124.393 E0.03300
G1 X150.895 Y125.425 E0.03300
G1 X150.622 Y126.441 E0.03300
G1 X150.287 Y127.439 E0.03300
G1 X149.889 Y128.413 E0.03300
G1 X149.431 Y129.361 E0.03300
G1 X148.914 Y130.278 E0.03300
G1 X148.318 Y131.195 E0.03429
G1 X147.366 Y132.035 E0.03983
G1 X145.624 Y133.386 E0.06911
G1 X143.801 Y134.625 E0.06911
G1 X141.903 Y135.747 E0.06911
G1 X139.939 Y136.748 E0.06911
G1 X137.917 Y137.623 E0.06911
G1 X135.843 Y138.370 E0.06911
G1 X133.726 Y138.985 E0.06911
G1 X131.575 Y139.466 E0.06911
G1 X129.398 Y139.811 E0.06911
G1 X127.203 Y140.018 E0.06911
G1 X125.000 Y140.087 E0.06911
G1 X122.797 Y140.018 E0.06911
G1 X120.602 Y139.811 E0.06911
G1 X118.425 Y139.466 E0.06911
G1 X116.274 Y138.985 E0.06911
G1 X114.157 Y138.370 E0.06911
G1 X112.083 Y137.623 E0.06911
G1 X110.061 Y136.748 E0.06911
G1 X108.097 Y135.747 E0.06911
G1 X106.199 Y134.625 E0.06911
G1 X104.376 Y133.386 E0.06911
G1 X102.634 Y132.035 E0.06911
G1 X100.981 Y130.578 E0.06911
G1 X99.422 Y129.019 E0.06911
G1 X97.965 Y127.366 E0.06911
G1 X96.614 Y125.624 E0.06911
G1 X95.375 Y123.801 E0.06911
G1 X94.253 Y121.903 E0.06911
G1 X93.332 Y120.096 E0.06362
G1 X93.778 Y120.140 F10800.000
G1 F1200
G1 X94.097 Y119.876 E0.01301
G1 X94.691 Y120.336 E0.02356
G1 X95.676 Y121.006 E0.03734
G1 X96.701 Y121.612 E0.03734
G1 X97.762 Y122.152 E0.03734
G1 X98.855 Y122.625 E0.03734
G1 X99.975 Y123.029 E0.03734
G1 X101.119 Y123.361 E0.03734
G1 X102.281 Y123.621 E0.03734
G1 X103.457 Y123.807 E0.03734
G1 X104.643 Y123.919 E0.03734
G1 X105.833 Y123.957 E0.03734
G1 X107.024 Y123.919 E0.03734
G1 X108.209 Y123.807 E0.03734
G1 X109.385 Y123.621 E0.03734
G1 X110.548 Y123.361 E0.03734
G1 X111.691 Y123.029 E0.03734
G1 X112.812 Y122.625 E0.03734
G1 X113.905 Y122.152 E0.03734
G1 X114.966 Y121.612 E0.03734
G1 X115.991 Y121.006 E0.03734
G1 X116.976 Y120.336 E0.03734
G1 X117.917 Y119.606 E0.03734
G1 X118.810 Y118.819 E0.03734
G1 X119.652 Y117.977 E0.03734
G1 X120.440 Y117.083 E0.03734
G1 X121.170 Y116.142 E0.03734
G1 X121.839 Y115.157 E0.03734
G1 X122.445 Y114.132 E0.03734
G1 X122.986 Y113.071 E0.03734
G1 X123.459 Y111.978 E0.03734
G1 X123.862 Y110.858 E0.03734
G1 X124.194 Y109.714 E0.03734
G1 X124.409 Y108.756 E0.03080
G1 X125.003 Y108.790 E0.01866
G1 X125.235 Y108.783 E0.00728
G1 X125.713 Y108.722 E0.01513
G1 X125.940 Y108.671 E0.00727
G1 X126.394 Y108.524 E0.01498
G1 X126.829 Y108.319 E0.01506
G1 X127.028 Y108.202 E0.00726
G1 X127.414 Y107.921 E0.01498
G1 X127.765 Y107.592 E0.01507
G1 X127.919 Y107.417 E0.00732
G1 X128.202 Y107.028 E0.01506
G1 X128.320 Y106.828 E0.00728
G1 X128.530 Y106.389 E0.01525
G1 X129.198 Y106.133 E0.02242
G1 X130.179 Y105.825 E0.03226
G1 X131.178 Y105.580 E0.03226
G1 X132.191 Y105.398 E0.03226
G1 X133.213 Y105.279 E0.03226
G1 X134.223 Y105.227 E0.03172
G1 X135.269 Y105.236 E0.03279
G1 X136.295 Y105.312 E0.03226
G1 X137.314 Y105.451 E0.03226
G1 X138.323 Y105.655 E0.03226
G1 X139.317 Y105.921 E0.03226
G1 X140.292 Y106.249 E0.03226
G1 X141.244 Y106.638 E0.03226
G1 X142.171 Y107.086 E0.03226
G1 X143.067 Y107.591 E0.03226
G1 X143.930 Y108.151 E0.03226
G1 X144.756 Y108.764 E0.03226
G1 X145.541 Y109.429 E0.03226
G1 X146.284 Y110.141 E0.03226
G1 X146.980 Y110.898 E0.03226
G1 X147.628 Y111.697 E0.03226
G1 X148.224 Y112.536 E0.03226
G1 X148.766 Y113.410 E0.03226
G1 X149.252 Y114.317 E0.03226
G1 X149.680 Y115.253 E0.03226
G1 X150.049 Y116.213 E0.03226
G1 X150.357 Y117.195 E0.03226
G1 X150.602 Y118.194 E0.03226
G1 X150.784 Y119.206 E0.03226
G1 X150.903 Y120.228 E0.03226
G1 X150.957 Y121.256 E0.03226
G1 X150.946 Y122.285 E0.03226
G1 X150.870 Y123.311 E0.03226
G1 X150.731 Y124.330 E0.03226
G1 X150.527 Y125.338 E0.03226
G1 X150.261 Y126.332 E0.03226
G1 X149.933 Y127.307 E0.03226
G1 X149.544 Y128.260 E0.03226
G1 X149.096 Y129.186 E0.03226
G1 X148.591 Y130.082 E0.03226
G1 X148.030 Y130.947 E0.03230
G1 X147.125 Y131.745 E0.03784
G1 X145.402 Y133.081 E0.06837
G1 X143.599 Y134.307 E0.06837
G1 X141.722 Y135.417 E0.06837
G1 X139.779 Y136.407 E0.06837
G1 X137.778 Y137.273 E0.06837
G1 X135.726 Y138.011 E0.06837
G1 X133.632 Y138.620 E0.06837
G1 X131.504 Y139.095 E0.06837
G1 X129.350 Y139.436 E0.06837
G1 X127.179 Y139.642 E0.06837
G1 X125.000 Y139.710 E0.06837
G1 X122.821 Y139.642 E0.06837
G1 X120.650 Y139.436 E0.06837
G1 X118.496 Y139.095 E0.06837
G1 X116.368 Y138.620 E0.06837
G1 X114.274 Y138.011 E0.06837
G1 X112.222 Y137.273 E0.06837
G1 X110.221 Y136.407 E0.06837
G1 X108.278 Y135.417 E0.06837
G1 X106.401 Y134.307 E0.06837
G1 X104.598 Y133.081 E0.06837
G1 X102.875 Y131.745 E0.06837
G1 X101.239 Y130.303 E0.06837
G1 X99.697 Y128.761 E0.06837
G1 X98.255 Y127.125 E0.06837
G1 X96.919 Y125.402 E0.06837
G1 X95.693 Y123.599 E0.06837
G1 X94.583 Y121.722 E0.06837
G1 X93.805 Y120.194 E0.05377
G1 X93.542 Y119.817 F10800.000
G1 F8640
G1 X94.097 Y119.876 E-0.09977
G1 X94.691 Y120.336 E-0.17348
G1 X95.676 Y121.006 E-0.27498
G1 X96.465 Y121.472 E-0.21177
G1 E-0.04000 F2100.00000
G1 Z0.800 F10800.000
G1 X127.014 Y103.367
G1 Z0.200
G1 E0.80000 F2100.00000
G1 F1200
G1 X127.014 Y106.614 E0.10181
G1 X126.348 Y107.127 E0.02637
G1 X125.941 Y107.335 E0.01433
G1 X125.611 Y107.442 E0.01086
G1 X125.158 Y107.513 E0.01438
G1 X124.684 Y107.499 E0.01486
G1 X124.207 Y107.392 E0.01534
G1 X123.663 Y107.136 E0.01886
