; generated by PrusaSlicer 2.0.0+win64 on 2020-03-24 at 18:36:00

; 

; external perimeters extrusion width = 0.45mm
; perimeters extrusion width = 0.45mm
; infill extrusion width = 0.45mm
; solid infill extrusion width = 0.45mm
; top infill extrusion width = 0.40mm
; first layer extrusion width = 0.42mm

M73 P0 R54
M73 Q0 S55
M201 X1000 Y1000 Z1000 E8000 ; sets maximum accelerations, mm/sec^2
M203 X200 Y200 Z12 E120 ; sets maximum feedrates, mm/sec
M204 P1250 R1250 T1250 ; sets acceleration (P, T) and retract acceleration (R), mm/sec^2
M205 X8.00 Y8.00 Z0.40 E1.50 ; sets the jerk limits, mm/sec
M205 S0 T0 ; sets the minimum extruding and travel feed rate, mm/sec
M107
M115 U3.7.1 ; tell printer latest fw version
G90 ; use absolute coordinates
M83 ; extruder relative mode
M104 S230 ; set extruder temp
M140 S85 ; set bed temp
M190 S85 ; wait for bed temp
M109 S230 ; wait for extruder temp
G28 W ; home all without mesh bed level
G80 ; mesh bed leveling
G21 ; set units to millimeters

; Send the filament type to the MMU2.0 unit.
; E stands for extruder number, F stands for filament type (0: default; 1:flex; 2: PVA)
M403 E0 F0
M403 E1 F0
M403 E2 F0
M403 E3 F0
M403 E4 F0


;go outside print area
G1 Y-3.0 F1000.0
G1 Z0.4 F1000.0
; select extruder
T0
; initial load
G1 X55.0 E29.0 F1073.0
M73 Q0 S54
M73 P0 R54
G1 X5.0 E29.0 F1800.0
G1 X55.0 E8.0 F2000.0
G1 Z0.3 F1000.0
G92 E0.0
G1 X240.0 E25.0 F2200.0
G1 Y-2.0 F1000.0
G1 X55.0 E25 F1400.0
G1 Z0.20 F1000.0
G1 X5.0 E4.0 F1000.0
G92 E0.0


M221 S95
G92 E0.0
M900 K45 ; Filament gcode
G21 ; set units to millimeters
G90 ; use absolute coordinates
M83 ; use relative distances for extrusion
;BEFORE_LAYER_CHANGE
G92 E0.0
;0.2


G1 E-0.80000 F2100.00000
G1 Z0.600 F10800.000
;AFTER_LAYER_CHANGE
;0.2
G1 X93.649 Y79.064
G1 Z0.200
G1 E0.80000 F2100.00000
M204 S1000
G1 F1200
G1 X95.337 Y77.149 E0.08003
G1 X97.097 Y75.387 E0.07808
G1 X99.116 Y73.607 E0.08438
G1 X101.084 Y72.082 E0.07808
G1 X103.196 Y70.647 E0.08003
G1 X105.459 Y69.312 E0.08239
G1 X107.676 Y68.184 E0.07801
G1 X110.019 Y67.170 E0.08003
G1 X112.492 Y66.283 E0.08239
G1 X114.882 Y65.590 E0.07801
G1 X117.376 Y65.032 E0.08015
G1 X119.897 Y64.633 E0.08003
G1 X122.377 Y64.397 E0.07808
G1 X125.004 Y64.311 E0.08243
G1 X127.556 Y64.392 E0.08003
G1 X130.031 Y64.625 E0.07797
G1 X132.625 Y65.032 E0.08232
G1 X135.116 Y65.589 E0.08003
G1 X137.511 Y66.284 E0.07820
G1 X140.040 Y67.194 E0.08427
G1 X142.325 Y68.184 E0.07808
G1 X144.544 Y69.314 E0.07808
G1 X146.893 Y70.706 E0.08560
G1 X148.917 Y72.083 E0.07675
G1 X150.936 Y73.649 E0.08015
G1 X152.851 Y75.337 E0.08003
G1 X154.613 Y77.097 E0.07808
G1 X156.393 Y79.116 E0.08438
G1 X157.918 Y81.084 E0.07808
G1 X159.353 Y83.196 E0.08003
G1 X160.688 Y85.459 E0.08239
G1 X161.816 Y87.676 E0.07801
G1 X162.830 Y90.019 E0.08003
G1 X163.717 Y92.492 E0.08239
G1 X164.410 Y94.882 E0.07801
G1 X164.968 Y97.376 E0.08015
G1 X165.367 Y99.897 E0.08003
G1 X165.603 Y102.377 E0.07808
G1 X165.689 Y105.001 E0.08232
G1 X165.608 Y107.552 E0.08003
G1 X165.375 Y110.031 E0.07808
G1 X164.968 Y112.625 E0.08232
G1 X164.411 Y115.116 E0.08003
G1 X163.716 Y117.511 E0.07820
G1 X162.806 Y120.040 E0.08427
G1 X161.816 Y122.325 E0.07808
G1 X160.686 Y124.544 E0.07808
G1 X159.317 Y126.859 E0.08434
G1 X157.917 Y128.917 E0.07801
G1 X156.351 Y130.936 E0.08015
G1 X154.663 Y132.851 E0.08003
G1 X152.903 Y134.613 E0.07808
G1 X150.884 Y136.393 E0.08438
G1 X148.916 Y137.918 E0.07808
G1 X146.804 Y139.353 E0.08003
G1 X144.541 Y140.688 E0.08239
G1 X142.324 Y141.816 E0.07801
G1 X139.981 Y142.830 E0.08003
G1 X137.508 Y143.717 E0.08239
G1 X135.118 Y144.410 E0.07801
G1 X132.624 Y144.968 E0.08015
G1 X130.103 Y145.367 E0.08003
G1 X127.623 Y145.603 E0.07808
G1 X124.999 Y145.689 E0.08232
G1 X122.448 Y145.608 E0.08003
G1 X119.969 Y145.375 E0.07808
G1 X117.372 Y144.967 E0.08243
G1 X114.881 Y144.410 E0.08003
G1 X112.489 Y143.716 E0.07808
G1 X109.960 Y142.806 E0.08427
G1 X107.675 Y141.816 E0.07808
G1 X105.449 Y140.683 E0.07831
G1 X102.974 Y139.203 E0.09042
G1 X101.080 Y137.915 E0.07181
G1 X99.061 Y136.348 E0.08015
G1 X97.149 Y134.663 E0.07992
G1 X95.387 Y132.903 E0.07808
G1 X93.607 Y130.884 E0.08438
G1 X92.082 Y128.916 E0.07808
G1 X90.647 Y126.804 E0.08003
G1 X89.312 Y124.541 E0.08239
G1 X88.184 Y122.324 E0.07801
G1 X87.170 Y119.981 E0.08003
G1 X86.283 Y117.508 E0.08239
G1 X85.590 Y115.118 E0.07801
G1 X85.032 Y112.624 E0.08015
G1 X84.633 Y110.103 E0.08003
G1 X84.397 Y107.623 E0.07808
G1 X84.311 Y104.999 E0.08232
G1 X84.392 Y102.444 E0.08015
G1 X84.625 Y99.969 E0.07797
G1 X85.032 Y97.375 E0.08232
G1 X85.589 Y94.884 E0.08003
G1 X86.284 Y92.489 E0.07820
G1 X87.194 Y89.960 E0.08427
G1 X88.184 Y87.675 E0.07808
G1 X89.314 Y85.456 E0.07808
G1 X90.683 Y83.141 E0.08434
G1 X92.083 Y81.083 E0.07801
G1 X93.613 Y79.111 E0.07827
G1 F8640
G1 X95.337 Y77.149 E-0.60321
G1 X95.817 Y76.669 E-0.15679
G1 E-0.04000 F2100.00000
G1 Z0.800 F10800.000
G1 X128.418 Y138.732
G1 Z0.200
G1 E0.80000 F2100.00000
G1 F1200
G1 X128.178 Y140.350 E0.05127
G1 X125.002 Y140.465 E0.09965
G1 X122.773 Y140.395 E0.06993
G1 X120.555 Y140.185 E0.06986
G1 X118.355 Y139.836 E0.06986
G1 X116.180 Y139.350 E0.06986
G1 X114.041 Y138.729 E0.06986
G1 X111.945 Y137.974 E0.06985
G1 X109.900 Y137.089 E0.06986
G1 X107.915 Y136.078 E0.06985
G1 X105.997 Y134.944 E0.06986
G1 X104.154 Y133.692 E0.06986
G1 X102.394 Y132.326 E0.06986
G1 X100.723 Y130.853 E0.06986
G1 X99.147 Y129.277 E0.06985
G1 X97.674 Y127.606 E0.06986
G1 X96.308 Y125.846 E0.06986
G1 X95.056 Y124.003 E0.06986
G1 X93.922 Y122.085 E0.06986
G1 X92.911 Y120.100 E0.06985
G1 X92.026 Y118.055 E0.06986
G1 X91.271 Y115.959 E0.06985
G1 X90.650 Y113.820 E0.06986
G1 X90.164 Y111.645 E0.06986
G1 X89.815 Y109.445 E0.06986
G1 X89.605 Y107.227 E0.06986
G1 X89.535 Y105.000 E0.06986
G1 X89.605 Y102.773 E0.06986
G1 X89.815 Y100.555 E0.06986
G1 X90.164 Y98.355 E0.06986
G1 X90.290 Y97.789 E0.01816
G1 X90.821 Y96.747 E0.03668
G1 X91.369 Y95.821 E0.03374
G1 X91.974 Y94.930 E0.03374
G1 X92.633 Y94.080 E0.03374
G1 X93.345 Y93.273 E0.03374
G1 X94.106 Y92.512 E0.03375
G1 X94.913 Y91.800 E0.03374
G1 X95.764 Y91.141 E0.03374
G1 X96.654 Y90.536 E0.03374
G1 X97.580 Y89.988 E0.03375
G1 X98.539 Y89.499 E0.03374
G1 X99.527 Y89.072 E0.03374
G1 X100.539 Y88.707 E0.03374
G1 X101.573 Y88.407 E0.03374
G1 X102.623 Y88.172 E0.03375
G1 X103.686 Y88.004 E0.03374
G1 X104.758 Y87.902 E0.03374
G1 X105.816 Y87.869 E0.03320
G1 X106.908 Y87.902 E0.03427
G1 X107.981 Y88.004 E0.03376
G1 X109.043 Y88.172 E0.03374
G1 X110.094 Y88.407 E0.03374
G1 X111.127 Y88.707 E0.03374
G1 X112.140 Y89.072 E0.03374
G1 X113.128 Y89.499 E0.03374
G1 X114.086 Y89.988 E0.03374
G1 X115.013 Y90.536 E0.03375
G1 X115.903 Y91.141 E0.03374
G1 X116.753 Y91.800 E0.03374
G1 X117.561 Y92.512 E0.03374
G1 X118.322 Y93.273 E0.03375
G1 X119.033 Y94.080 E0.03374
G1 X119.693 Y94.931 E0.03376
G1 X120.307 Y95.836 E0.03427
G1 X120.846 Y96.747 E0.03320
G1 X121.334 Y97.706 E0.03374
G1 X121.762 Y98.694 E0.03374
G1 X122.126 Y99.706 E0.03374
G1 X122.426 Y100.740 E0.03374
G1 X122.661 Y101.790 E0.03374
G1 X122.822 Y102.804 E0.03218
G1 X122.339 Y103.544 E0.02772
G1 X122.118 Y104.048 E0.01724
G1 X121.991 Y104.605 E0.01791
G1 X121.966 Y105.000 E0.01242
G1 X121.991 Y105.395 E0.01241
G1 X122.118 Y105.952 E0.01792
G1 X122.341 Y106.461 E0.01743
G1 X123.015 Y107.521 E0.03937
G1 X121.848 Y108.594 E0.04969
G1 X121.057 Y109.419 E0.03585
G1 X120.319 Y110.293 E0.03585
G1 X119.637 Y111.211 E0.03585
G1 X119.014 Y112.170 E0.03585
G1 X118.453 Y113.166 E0.03585
G1 X117.955 Y114.195 E0.03585
G1 X117.523 Y115.254 E0.03585
G1 X117.158 Y116.338 E0.03585
G1 X116.862 Y117.442 E0.03585
G1 X116.636 Y118.563 E0.03585
G1 X116.481 Y119.696 E0.03585
G1 X116.397 Y120.837 E0.03585
G1 X116.385 Y121.980 E0.03585
G1 X116.445 Y123.122 E0.03585
G1 X116.577 Y124.258 E0.03585
G1 X116.779 Y125.383 E0.03585
G1 X117.052 Y126.494 E0.03585
G1 X117.394 Y127.585 E0.03585
G1 X117.804 Y128.652 E0.03585
G1 X118.280 Y129.692 E0.03585
G1 X118.820 Y130.700 E0.03585
G1 X119.422 Y131.672 E0.03585
G1 X120.085 Y132.604 E0.03585
G1 X120.804 Y133.492 E0.03585
G1 X121.578 Y134.334 E0.03585
G1 X122.404 Y135.126 E0.03585
G1 X123.277 Y135.864 E0.03585
G1 X124.195 Y136.545 E0.03585
G1 X125.154 Y137.168 E0.03585
G1 X126.150 Y137.730 E0.03585
G1 X127.180 Y138.227 E0.03585
G1 X128.362 Y138.710 E0.04003
G1 X128.001 Y138.970 F10800.000
G1 F1200
G1 X127.851 Y139.984 E0.03216
G1 X125.001 Y140.087 E0.08942
G1 X122.797 Y140.018 E0.06916
G1 X120.602 Y139.811 E0.06911
G1 X118.425 Y139.466 E0.06911
G1 X116.274 Y138.985 E0.06911
G1 X114.157 Y138.370 E0.06911
G1 X112.083 Y137.623 E0.06911
G1 X110.061 Y136.748 E0.06911
G1 X108.097 Y135.747 E0.06911
G1 X106.199 Y134.625 E0.06911
G1 X104.376 Y133.386 E0.06911
G1 X102.634 Y132.035 E0.06911
G1 X100.981 Y130.578 E0.06911
G1 X99.422 Y129.019 E0.06911
G1 X97.965 Y127.366 E0.06911
G1 X96.614 Y125.624 E0.06911
G1 X95.375 Y123.801 E0.06911
G1 X94.253 Y121.903 E0.06911
G1 X93.252 Y119.939 E0.06911
G1 X92.377 Y117.917 E0.06911
G1 X91.630 Y115.843 E0.06911
G1 X91.015 Y113.726 E0.06911
G1 X90.534 Y111.575 E0.06911
G1 X90.189 Y109.398 E0.06911
G1 X89.982 Y107.203 E0.06911
G1 X89.913 Y105.000 E0.06911
G1 X89.982 Y102.797 E0.06911
G1 X90.189 Y100.602 E0.06911
G1 X90.534 Y98.425 E0.06911
G1 X90.648 Y97.918 E0.01630
G1 X91.152 Y96.929 E0.03481
G1 X91.687 Y96.023 E0.03300
G1 X92.279 Y95.152 E0.03300
G1 X92.924 Y94.321 E0.03300
G1 X93.620 Y93.531 E0.03300
G1 X94.364 Y92.787 E0.03300
G1 X95.154 Y92.091 E0.03300
G1 X95.986 Y91.446 E0.03300
G1 X96.856 Y90.854 E0.03300
G1 X97.762 Y90.318 E0.03300
G1 X98.700 Y89.841 E0.03300
G1 X99.666 Y89.422 E0.03300
G1 X100.656 Y89.066 E0.03300
G1 X101.667 Y88.772 E0.03300
G1 X102.694 Y88.543 E0.03300
G1 X103.733 Y88.378 E0.03300
G1 X104.781 Y88.279 E0.03300
G1 X105.816 Y88.246 E0.03246
G1 X106.885 Y88.279 E0.03353
G1 X107.933 Y88.378 E0.03301
G1 X108.973 Y88.543 E0.03300
G1 X110.000 Y88.772 E0.03300
G1 X111.011 Y89.066 E0.03300
G1 X112.001 Y89.422 E0.03300
G1 X112.967 Y89.841 E0.03300
G1 X113.905 Y90.318 E0.03300
G1 X114.811 Y90.854 E0.03300
G1 X115.681 Y91.446 E0.03300
G1 X116.513 Y92.091 E0.03300
G1 X117.302 Y92.787 E0.03300
G1 X118.047 Y93.531 E0.03300
G1 X118.743 Y94.321 E0.03300
G1 X119.388 Y95.152 E0.03301
G1 X119.988 Y96.038 E0.03353
G1 X120.515 Y96.929 E0.03246
G1 X120.993 Y97.866 E0.03300
G1 X121.411 Y98.832 E0.03300
G1 X121.767 Y99.823 E0.03300
G1 X122.061 Y100.833 E0.03300
G1 X122.291 Y101.861 E0.03300
G1 X122.427 Y102.719 E0.02725
G1 X122.009 Y103.360 E0.02398
G1 X121.824 Y103.752 E0.01361
G1 X121.758 Y103.937 E0.00614
G1 X121.646 Y104.370 E0.01401
G1 X121.616 Y104.563 E0.00614
G1 X121.588 Y105.000 E0.01372
G1 X121.616 Y105.437 E0.01372
G1 X121.647 Y105.633 E0.00623
G1 X121.758 Y106.063 E0.01393
G1 X121.824 Y106.248 E0.00614
G1 X122.010 Y106.643 E0.01372
G1 X122.527 Y107.457 E0.03023
G1 X121.584 Y108.324 E0.04017
G1 X120.776 Y109.167 E0.03660
G1 X120.023 Y110.058 E0.03660
G1 X119.327 Y110.995 E0.03660
G1 X118.691 Y111.974 E0.03660
G1 X118.118 Y112.991 E0.03660
G1 X117.610 Y114.042 E0.03660
G1 X117.169 Y115.123 E0.03660
G1 X116.797 Y116.229 E0.03659
G1 X116.495 Y117.356 E0.03660
G1 X116.264 Y118.500 E0.03660
G1 X116.106 Y119.657 E0.03660
G1 X116.020 Y120.821 E0.03659
G1 X116.008 Y121.988 E0.03660
G1 X116.069 Y123.153 E0.03660
G1 X116.203 Y124.313 E0.03660
G1 X116.410 Y125.462 E0.03660
G1 X116.688 Y126.595 E0.03660
G1 X117.037 Y127.709 E0.03660
G1 X117.456 Y128.799 E0.03660
G1 X117.942 Y129.860 E0.03660
G1 X118.493 Y130.889 E0.03660
G1 X119.108 Y131.880 E0.03660
G1 X119.784 Y132.832 E0.03660
G1 X120.519 Y133.739 E0.03659
G1 X121.309 Y134.598 E0.03660
G1 X122.151 Y135.406 E0.03660
G1 X123.043 Y136.159 E0.03660
G1 X123.980 Y136.855 E0.03660
G1 X124.959 Y137.491 E0.03660
G1 X125.976 Y138.064 E0.03660
G1 X127.026 Y138.572 E0.03660
G1 X127.946 Y138.947 E0.03113
G1 X127.585 Y139.207 F10800.000
G1 F1200
G1 X127.524 Y139.619 E0.01305
G1 X125.000 Y139.710 E0.07918
G1 X122.821 Y139.642 E0.06838
G1 X120.650 Y139.436 E0.06837
G1 X118.496 Y139.095 E0.06837
G1 X116.368 Y138.620 E0.06837
G1 X114.274 Y138.011 E0.06837
G1 X112.222 Y137.273 E0.06837
G1 X110.221 Y136.407 E0.06837
G1 X108.278 Y135.417 E0.06837
G1 X106.401 Y134.307 E0.06837
G1 X104.598 Y133.081 E0.06837
G1 X102.875 Y131.745 E0.06837
G1 X101.239 Y130.303 E0.06837
G1 X99.697 Y128.761 E0.06837
G1 X98.255 Y127.125 E0.06837
G1 X96.919 Y125.402 E0.06837
G1 X95.693 Y123.599 E0.06837
G1 X94.583 Y121.722 E0.06837
G1 X93.593 Y119.779 E0.06837
G1 X92.727 Y117.778 E0.06837
G1 X91.989 Y115.726 E0.06837
G1 X91.380 Y113.632 E0.06837
G1 X90.905 Y111.504 E0.06837
G1 X90.564 Y109.350 E0.06837
G1 X90.358 Y107.179 E0.06837
G1 X90.290 Y105.000 E0.06837
G1 X90.358 Y102.821 E0.06837
G1 X90.564 Y100.650 E0.06837
G1 X90.905 Y98.496 E0.06837
G1 X91.005 Y98.047 E0.01443
G1 X91.482 Y97.110 E0.03295
G1 X92.006 Y96.225 E0.03226
G1 X92.584 Y95.374 E0.03226
G1 X93.215 Y94.561 E0.03226
G1 X93.895 Y93.789 E0.03226
G1 X94.623 Y93.062 E0.03226
G1 X95.394 Y92.382 E0.03226
G1 X96.207 Y91.751 E0.03226
G1 X97.058 Y91.173 E0.03226
G1 X97.944 Y90.649 E0.03226
G1 X98.860 Y90.182 E0.03226
G1 X99.805 Y89.773 E0.03226
G1 X100.773 Y89.425 E0.03226
G1 X101.761 Y89.138 E0.03226
G1 X102.765 Y88.913 E0.03226
G1 X103.781 Y88.752 E0.03226
G1 X104.805 Y88.656 E0.03226
G1 X105.816 Y88.624 E0.03172
G1 X106.861 Y88.656 E0.03279
G1 X107.886 Y88.752 E0.03226
G1 X108.902 Y88.913 E0.03226
G1 X109.906 Y89.138 E0.03226
G1 X110.894 Y89.425 E0.03226
G1 X111.862 Y89.773 E0.03226
G1 X112.806 Y90.182 E0.03226
G1 X113.723 Y90.649 E0.03226
G1 X114.608 Y91.173 E0.03226
G1 X115.459 Y91.751 E0.03226
G1 X116.272 Y92.382 E0.03226
G1 X117.044 Y93.062 E0.03226
G1 X117.771 Y93.789 E0.03226
G1 X118.452 Y94.561 E0.03226
G1 X119.082 Y95.374 E0.03226
G1 X119.669 Y96.240 E0.03279
G1 X120.184 Y97.110 E0.03172
G1 X120.651 Y98.027 E0.03226
G1 X121.060 Y98.971 E0.03226
G1 X121.409 Y99.939 E0.03226
G1 X121.696 Y100.927 E0.03226
G1 X121.920 Y101.931 E0.03226
G1 X122.031 Y102.635 E0.02233
G1 X121.679 Y103.176 E0.02025
G1 X121.475 Y103.608 E0.01498
G1 X121.397 Y103.826 E0.00726
G1 X121.277 Y104.293 E0.01513
G1 X121.241 Y104.522 E0.00726
G1 X121.210 Y105.000 E0.01503
G1 X121.240 Y105.478 E0.01502
G1 X121.277 Y105.710 E0.00734
G1 X121.397 Y106.174 E0.01504
G1 X121.475 Y106.392 E0.00726
G1 X121.679 Y106.826 E0.01502
G1 X122.040 Y107.393 E0.02108
G1 X121.320 Y108.055 E0.03065
G1 X120.496 Y108.914 E0.03734
G1 X119.727 Y109.824 E0.03734
G1 X119.017 Y110.780 E0.03734
G1 X118.369 Y111.779 E0.03734
G1 X117.784 Y112.816 E0.03734
G1 X117.266 Y113.888 E0.03734
G1 X116.816 Y114.991 E0.03734
G1 X116.436 Y116.120 E0.03734
G1 X116.128 Y117.270 E0.03734
G1 X115.892 Y118.437 E0.03734
G1 X115.731 Y119.617 E0.03734
G1 X115.643 Y120.805 E0.03734
G1 X115.631 Y121.996 E0.03734
G1 X115.693 Y123.185 E0.03734
G1 X115.830 Y124.368 E0.03734
G1 X116.041 Y125.540 E0.03734
G1 X116.325 Y126.697 E0.03734
G1 X116.681 Y127.833 E0.03734
G1 X117.108 Y128.945 E0.03734
G1 X117.604 Y130.028 E0.03734
G1 X118.166 Y131.077 E0.03734
G1 X118.794 Y132.089 E0.03734
G1 X119.484 Y133.060 E0.03734
G1 X120.233 Y133.985 E0.03734
G1 X121.039 Y134.862 E0.03734
G1 X121.899 Y135.686 E0.03734
G1 X122.809 Y136.455 E0.03734
G1 X123.765 Y137.165 E0.03734
G1 X124.763 Y137.814 E0.03734
G1 X125.801 Y138.398 E0.03734
G1 X126.873 Y138.916 E0.03734
G1 X127.529 Y139.184 E0.02223
G1 X127.974 Y139.302 F10800.000
G1 F8640
G1 X127.524 Y139.619 E-0.10032
G1 X125.000 Y139.710 E-0.58310
G1 X124.669 Y139.700 E-0.07658
G1 E-0.04000 F2100.00000
G1 Z0.800 F10800.000
G1 X127.014 Y106.614
G1 Z0.200
G1 E0.80000 F2100.00000
G1 F1200
G1 X126.348 Y107.127 E0.02637
G1 X125.941 Y107.335 E0.01433
G1 X125.611 Y107.442 E0.01086
G1 X125.158 Y107.513 E0.01438
G1 X124.684 Y107.499 E0.01486
G1 X124.207 Y107.392 E0.01534
G1 X123.663 Y107.136 E0.01886
G1 X123.276 Y106.836 E0.01534
G1 X122.963 Y106.480 E0.01486
G1 X122.721 Y106.072 E0.01486
G1 X122.561 Y105.626 E0.01486
G1 X122.487 Y105.158 E0.01486
G1 X122.501 Y104.684 E0.01486
G1 X122.608 Y104.207 E0.01534
G1 X122.864 Y103.663 E0.01886
G1 X123.164 Y103.276 E0.01534
G1 X123.520 Y102.963 E0.01486
