; generated by PrusaSlicer 2.0.0+win64 on 2019-09-06 at 09:52:27

; 

; external perimeters extrusion width = 0.45mm
; perimeters extrusion width = 0.45mm
; infill extrusion width = 0.45mm
; solid infill extrusion width = 0.45mm
; top infill extrusion width = 0.40mm
; first layer extrusion width = 0.42mm

M73 P0 R3
M73 Q0 S3
M201 X1000 Y1000 Z1000 E5000 ; sets maximum accelerations, mm/sec^2
M203 X200 Y200 Z12 E120 ; sets maximum feedrates, mm/sec
M204 P1250 R1250 T1250 ; sets acceleration (P, T) and retract acceleration (R), mm/sec^2
M205 X8.00 Y8.00 Z0.40 E1.50 ; sets the jerk limits, mm/sec
M205 S0 T0 ; sets the minimum extruding and travel feed rate, mm/sec
M107
M115 U3.7.2 ; tell printer latest fw version
G90 ; use absolute coordinates
M83 ; extruder relative mode
M104 S240 ; set extruder temp
M140 S85 ; set bed temp
Tx
M190 S85 ; wait for bed temp
M109 S240 ; wait for extruder temp
G28 W ; home all without mesh bed level
G80 ; mesh bed leveling

G21 ; set units to millimeters

;go outside print area
G1 Y-3.0 F1000.0
G1 Z0.4 F1000.0
; select extruder
Tc
; purge line
G1 X55.0 F2000.0
G1 Z0.3 F1000.0
G92 E0.0
G1 X240.0 E25.0 F2200.0
M73 Q3 S3
M73 P3 R3
G1 Y-2.0 F1000.0
G1 X55.0 E25 F1400.0
G1 Z0.20 F1000.0
G1 X5.0 E4.0 F1000.0

M221 S95
G92 E0.0
M900 K45 ; Filament gcode
G21 ; set units to millimeters
G90 ; use absolute coordinates
M83 ; use relative distances for extrusion
;BEFORE_LAYER_CHANGE
G92 E0.0
;0.2


G1 E-0.80000 F2100.00000
G1 Z0.600 F10800.000
;AFTER_LAYER_CHANGE
;0.2
G1 X119.846 Y99.664
G1 Z0.200
G1 E0.80000 F2100.00000
M204 S1000
G1 F918
G1 X121.001 Y98.750 E0.04617
G1 X122.247 Y98.110 E0.04393
G1 X123.604 Y97.713 E0.04435
G1 X125.004 Y97.580 E0.04407
G1 X126.412 Y97.716 E0.04435
G1 X127.806 Y98.132 E0.04561
G1 X129.058 Y98.789 E0.04434
G1 X130.336 Y99.846 E0.05200
G1 X131.250 Y101.001 E0.04617
G1 X131.890 Y102.247 E0.04393
G1 X132.287 Y103.604 E0.04435
G1 X132.420 Y104.999 E0.04393
G1 X132.288 Y106.394 E0.04393
G1 X131.891 Y107.752 E0.04435
G1 X131.248 Y109.002 E0.04407
G1 X130.336 Y110.154 E0.04608
G1 X129.059 Y111.210 E0.05195
G1 X127.807 Y111.868 E0.04435
G1 X126.409 Y112.285 E0.04575
G1 X125.001 Y112.420 E0.04435
G1 X123.606 Y112.288 E0.04393
G1 X122.248 Y111.891 E0.04435
G1 X120.998 Y111.248 E0.04407
G1 X119.846 Y110.336 E0.04608
G1 X118.790 Y109.059 E0.05195
G1 X118.132 Y107.807 E0.04435
G1 X117.715 Y106.409 E0.04575
G1 X117.580 Y105.001 E0.04435
G1 X117.715 Y103.593 E0.04435
G1 X118.132 Y102.194 E0.04575
G1 X118.789 Y100.942 E0.04434
G1 X119.808 Y99.710 E0.05012
G1 X120.097 Y99.949 F10800.000
G1 F918
G1 X121.206 Y99.067 E0.04442
G1 X122.392 Y98.458 E0.04183
G1 X123.677 Y98.083 E0.04196
G1 X125.005 Y97.957 E0.04183
G1 X126.337 Y98.085 E0.04196
G1 X127.660 Y98.480 E0.04328
G1 X128.849 Y99.103 E0.04209
G1 X130.070 Y100.113 E0.04967
G1 X130.933 Y101.206 E0.04367
G1 X131.541 Y102.388 E0.04169
G1 X131.917 Y103.677 E0.04209
G1 X132.043 Y105.001 E0.04169
G1 X131.915 Y106.337 E0.04209
G1 X131.520 Y107.660 E0.04328
G1 X130.897 Y108.849 E0.04209
G1 X129.887 Y110.070 E0.04967
G1 X128.794 Y110.933 E0.04367
G1 X127.612 Y111.541 E0.04169
G1 X126.323 Y111.917 E0.04209
G1 X124.999 Y112.043 E0.04169
G1 X123.663 Y111.915 E0.04209
G1 X122.340 Y111.520 E0.04328
G1 X121.151 Y110.897 E0.04209
G1 X119.930 Y109.887 E0.04967
G1 X119.067 Y108.794 E0.04367
G1 X118.459 Y107.612 E0.04170
G1 X118.083 Y106.323 E0.04209
G1 X117.957 Y104.999 E0.04170
G1 X118.085 Y103.663 E0.04209
G1 X118.480 Y102.340 E0.04328
G1 X119.103 Y101.151 E0.04209
G1 X120.059 Y99.996 E0.04702
G1 X120.348 Y100.235 F10800.000
G1 F918
G1 X121.410 Y99.384 E0.04269
G1 X122.530 Y98.809 E0.03946
G1 X123.750 Y98.453 E0.03983
G1 X125.003 Y98.334 E0.03946
G1 X126.263 Y98.455 E0.03971
G1 X127.515 Y98.827 E0.04094
G1 X128.637 Y99.415 E0.03970
G1 X129.803 Y100.379 E0.04745
G1 X130.616 Y101.410 E0.04119
G1 X131.191 Y102.530 E0.03946
G1 X131.547 Y103.746 E0.03971
G1 X131.666 Y104.999 E0.03946
G1 X131.547 Y106.251 E0.03946
G1 X131.192 Y107.467 E0.03971
G1 X130.618 Y108.587 E0.03946
G1 X129.803 Y109.621 E0.04128
G1 X128.636 Y110.586 E0.04749
G1 X127.514 Y111.173 E0.03970
G1 X126.262 Y111.545 E0.04094
G1 X125.001 Y111.666 E0.03971
G1 X123.749 Y111.547 E0.03946
G1 X122.533 Y111.192 E0.03971
G1 X121.413 Y110.618 E0.03946
G1 X120.379 Y109.803 E0.04128
G1 X119.414 Y108.636 E0.04749
G1 X118.827 Y107.514 E0.03970
G1 X118.455 Y106.262 E0.04094
G1 X118.334 Y105.001 E0.03971
G1 X118.455 Y103.737 E0.03983
G1 X118.827 Y102.485 E0.04094
G1 X119.415 Y101.363 E0.03970
G1 X120.310 Y100.281 E0.04404
G1 X120.599 Y100.520 F10800.000
G1 F918
G1 X120.646 Y100.464 E0.00230
G1 X121.619 Y99.698 E0.03882
G1 X122.676 Y99.157 E0.03723
G1 X123.822 Y98.823 E0.03745
G1 X125.004 Y98.711 E0.03723
G1 X126.190 Y98.825 E0.03734
G1 X127.370 Y99.176 E0.03859
G1 X128.425 Y99.727 E0.03734
G1 X129.536 Y100.646 E0.04521
G1 X130.302 Y101.619 E0.03882
G1 X130.843 Y102.675 E0.03723
G1 X131.177 Y103.819 E0.03734
G1 X131.289 Y105.001 E0.03723
G1 X131.175 Y106.190 E0.03745
G1 X130.826 Y107.366 E0.03848
G1 X130.273 Y108.425 E0.03745
G1 X129.354 Y109.536 E0.04521
G1 X128.381 Y110.302 E0.03882
G1 X127.328 Y110.842 E0.03711
G1 X126.181 Y111.177 E0.03745
G1 X124.999 Y111.289 E0.03723
G1 X123.810 Y111.175 E0.03745
G1 X122.634 Y110.826 E0.03848
G1 X121.575 Y110.273 E0.03745
G1 X120.464 Y109.354 E0.04521
G1 X119.698 Y108.381 E0.03882
G1 X119.157 Y107.324 E0.03723
G1 X118.823 Y106.181 E0.03734
G1 X118.711 Y104.999 E0.03723
G1 X118.825 Y103.810 E0.03745
G1 X119.174 Y102.634 E0.03848
G1 X119.727 Y101.575 E0.03745
G1 X120.561 Y100.566 E0.04103
G1 F8640
G1 X120.646 Y100.464 E-0.03079
G1 X121.619 Y99.698 E-0.28587
G1 X122.676 Y99.157 E-0.27415
G1 X123.379 Y98.952 E-0.16919
G1 E-0.04000 F2100.00000
G1 Z0.800 F10800.000
G1 X127.098 Y106.755
G1 Z0.200
G1 E0.80000 F2100.00000
G1 F918
G1 X126.743 Y107.107 E0.01566
G1 X126.331 Y107.389 E0.01566
G1 X125.845 Y107.601 E0.01661
G1 X125.695 Y107.645 E0.00491
G1 X125.187 Y107.729 E0.01614
G1 X124.819 Y107.729 E0.01154
G1 X124.629 Y107.708 E0.00599
G1 X124.322 Y107.649 E0.00980
G1 X123.994 Y107.542 E0.01082
G1 X123.547 Y107.317 E0.01566
G1 X123.245 Y107.098 E0.01172
G1 X122.893 Y106.743 E0.01566
G1 X122.611 Y106.331 E0.01566
G1 X122.399 Y105.845 E0.01661
G1 X122.355 Y105.695 E0.00491
G1 X122.271 Y105.187 E0.01614
G1 X122.271 Y104.819 E0.01154
G1 X122.351 Y104.322 E0.01578
G1 X122.525 Y103.835 E0.01620
G1 X122.596 Y103.696 E0.00491
G1 X122.883 Y103.268 E0.01614
G1 X123.245 Y102.902 E0.01614
G1 X123.669 Y102.611 E0.01614
G1 X123.994 Y102.458 E0.01124
G1 X124.335 Y102.347 E0.01124
G1 X124.830 Y102.271 E0.01572
G1 X125.333 Y102.286 E0.01577
G1 X125.680 Y102.352 E0.01107
G1 X126.165 Y102.525 E0.01614
G1 X126.304 Y102.596 E0.00491
G1 X126.732 Y102.883 E0.01614
G1 X127.098 Y103.245 E0.01614
G1 X127.389 Y103.669 E0.01614
G1 X127.542 Y103.994 E0.01124
G1 X127.649 Y104.322 E0.01082
G1 X127.729 Y104.819 E0.01578
G1 X127.729 Y105.181 E0.01137
G1 X127.649 Y105.678 E0.01578
G1 X127.542 Y106.006 E0.01082
G1 X127.389 Y106.331 E0.01124
G1 X127.133 Y106.706 E0.01426
G1 X127.392 Y106.991 F10800.000
G1 F918
G1 X126.984 Y107.398 E0.01808
G1 X126.507 Y107.723 E0.01808
G1 X125.962 Y107.960 E0.01866
G1 X125.783 Y108.012 E0.00584
G1 X125.205 Y108.106 E0.01837
G1 X124.799 Y108.106 E0.01273
G1 X124.573 Y108.082 E0.00713
G1 X124.227 Y108.014 E0.01103
G1 X123.854 Y107.893 E0.01229
G1 X123.340 Y107.633 E0.01808
G1 X123.009 Y107.392 E0.01283
G1 X122.602 Y106.984 E0.01808
G1 X122.277 Y106.507 E0.01808
G1 X122.040 Y105.962 E0.01866
G1 X121.988 Y105.783 E0.00584
G1 X121.894 Y105.205 E0.01837
G1 X121.894 Y104.799 E0.01273
G1 X121.986 Y104.227 E0.01815
G1 X122.184 Y103.675 E0.01840
G1 X122.268 Y103.509 E0.00584
G1 X122.596 Y103.023 E0.01837
G1 X123.009 Y102.608 E0.01837
G1 X123.493 Y102.277 E0.01837
G1 X123.854 Y102.107 E0.01254
G1 X124.235 Y101.983 E0.01254
G1 X124.806 Y101.894 E0.01811
G1 X125.384 Y101.912 E0.01815
G1 X125.774 Y101.986 E0.01244
G1 X126.325 Y102.184 E0.01837
G1 X126.491 Y102.268 E0.00584
G1 X126.977 Y102.596 E0.01837
G1 X127.392 Y103.009 E0.01837
G1 X127.723 Y103.493 E0.01837
G1 X127.893 Y103.854 E0.01254
G1 X128.014 Y104.227 E0.01229
G1 X128.106 Y104.799 E0.01815
G1 X128.106 Y105.201 E0.01262
G1 X128.014 Y105.773 E0.01815
G1 X127.893 Y106.146 E0.01229
G1 X127.723 Y106.507 E0.01254
G1 X127.427 Y106.942 E0.01649
G1 X127.687 Y107.227 F10800.000
G1 F918
G1 X127.546 Y107.387 E0.00667
G1 X127.224 Y107.689 E0.01384
G1 X126.867 Y107.948 E0.01384
G1 X126.684 Y108.057 E0.00667
G1 X126.282 Y108.246 E0.01395
G1 X126.078 Y108.319 E0.00677
G1 X125.871 Y108.379 E0.00677
G1 X125.434 Y108.463 E0.01395
G1 X125.222 Y108.483 E0.00667
G1 X124.779 Y108.483 E0.01391
G1 X124.517 Y108.455 E0.00827
G1 X124.133 Y108.380 E0.01227
G1 X123.715 Y108.245 E0.01375
G1 X123.316 Y108.057 E0.01384
G1 X123.133 Y107.948 E0.00667
G1 X122.773 Y107.687 E0.01395
G1 X122.613 Y107.546 E0.00667
G1 X122.311 Y107.224 E0.01384
G1 X122.052 Y106.867 E0.01384
G1 X121.943 Y106.684 E0.00667
G1 X121.754 Y106.282 E0.01395
G1 X121.681 Y106.078 E0.00677
G1 X121.621 Y105.871 E0.00677
G1 X121.537 Y105.434 E0.01395
G1 X121.517 Y105.222 E0.00667
G1 X121.517 Y104.779 E0.01391
G1 X121.545 Y104.517 E0.00827
G1 X121.620 Y104.133 E0.01227
G1 X121.756 Y103.712 E0.01386
G1 X121.842 Y103.514 E0.00677
G1 X121.940 Y103.322 E0.00677
G1 X122.179 Y102.946 E0.01395
G1 X122.309 Y102.778 E0.00667
G1 X122.613 Y102.454 E0.01395
G1 X122.773 Y102.313 E0.00667
G1 X123.133 Y102.052 E0.01395
G1 X123.316 Y101.943 E0.00667
G1 X123.715 Y101.755 E0.01384
G1 X124.135 Y101.619 E0.01384
G1 X124.343 Y101.573 E0.00667
G1 X124.781 Y101.517 E0.01386
G1 X125.173 Y101.516 E0.01227
G1 X125.435 Y101.538 E0.00827
G1 X125.868 Y101.620 E0.01381
G1 X126.288 Y101.756 E0.01384
G1 X126.486 Y101.842 E0.00677
G1 X126.678 Y101.940 E0.00677
G1 X127.054 Y102.179 E0.01395
G1 X127.222 Y102.309 E0.00667
G1 X127.546 Y102.613 E0.01395
G1 X127.687 Y102.773 E0.00667
G1 X127.948 Y103.133 E0.01395
G1 X128.057 Y103.316 E0.00667
G1 X128.245 Y103.715 E0.01384
G1 X128.380 Y104.133 E0.01375
G1 X128.455 Y104.517 E0.01227
G1 X128.483 Y104.779 E0.00827
G1 X128.483 Y105.221 E0.01387
G1 X128.455 Y105.483 E0.00827
G1 X128.380 Y105.867 E0.01227
G1 X128.245 Y106.285 E0.01375
G1 X128.057 Y106.684 E0.01384
G1 X127.948 Y106.867 E0.00667
G1 X127.722 Y107.178 E0.01207
G1 X127.477 Y107.194 F10800.000
G1 F8640
G1 X127.546 Y107.387 E-0.06290
G1 X127.224 Y107.689 E-0.10195
G1 X126.867 Y107.948 E-0.10195
G1 X126.684 Y108.057 E-0.04910
G1 X126.282 Y108.246 E-0.10272
G1 X126.078 Y108.319 E-0.04986
G1 X125.871 Y108.379 E-0.04986
G1 X125.434 Y108.463 E-0.10272
G1 X125.222 Y108.483 E-0.04910
G1 X124.833 Y108.483 E-0.08985
G1 E-0.04000 F2100.00000
G1 Z0.800 F10800.000
G1 X127.601 Y104.741
G1 Z0.200
G1 E0.80000 F2100.00000
G1 F918
G1 X125.458 Y102.598 E0.10196
G1 X125.302 Y102.568 E0.00535
G1 X124.844 Y102.555 E0.01543
G1 X127.446 Y105.157 E0.12379
G1 X127.362 Y105.645 E0.01667
G1 X124.355 Y102.638 E0.14308
G1 X124.098 Y102.722 E0.00908
G1 X123.940 Y102.796 E0.00587
G1 X127.204 Y106.060 E0.15530
G1 X127.143 Y106.190 E0.00482
G1 X126.988 Y106.416 E0.00923
G1 X123.584 Y103.012 E0.16192
G1 X123.427 Y103.120 E0.00641
G1 X123.275 Y103.275 E0.00731
G1 X126.725 Y106.726 E0.16418
G1 X126.562 Y106.888 E0.00776
G1 X126.416 Y106.988 E0.00596
G1 X123.012 Y103.584 E0.16195
G1 X122.843 Y103.836 E0.01019
G1 X122.794 Y103.939 E0.00384
G1 X126.060 Y107.204 E0.15537
G1 X125.888 Y107.285 E0.00637
G1 X125.647 Y107.363 E0.00855
G1 X122.638 Y104.355 E0.14315
G1 X122.554 Y104.843 E0.01667
G1 X125.157 Y107.446 E0.12383
G1 X124.834 Y107.446 E0.01088
G1 X124.542 Y107.403 E0.00990
G1 X122.398 Y105.259 E0.10203
G1 X122.592 Y106.025 F10800.000
G1 F918
G1 X123.975 Y107.408 E0.06581
G1 F8640
G1 X122.592 Y106.025 E-0.45170
G1 E-0.34830 F2100.00000
G1 Z0.800 F10800.000
G1 X127.408 Y103.975
G1 Z0.200
G1 E0.80000 F2100.00000
G1 F918
G1 X126.021 Y102.588 E0.06602
;BEFORE_LAYER_CHANGE
G92 E0.0
;0.4


G1 F8640
G1 X127.408 Y103.975 E-0.45313
G1 E-0.34687 F2100.00000
G1 Z0.800 F10800.000
;AFTER_LAYER_CHANGE
;0.4
M104 S250 ; set temperature
M140 S90 ; set bed temperature
G1 X131.890 Y102.247
G1 Z0.400
G1 E0.80000 F2100.00000
G1 F900
G1 X132.287 Y103.604 E0.04435
G1 X132.420 Y104.999 E0.04393
G1 X132.288 Y106.394 E0.04393
G1 X131.891 Y107.752 E0.04435
G1 X131.248 Y109.002 E0.04407
G1 X130.336 Y110.154 E0.04608
G1 X129.059 Y111.210 E0.05195
G1 X127.807 Y111.868 E0.04435
G1 X126.409 Y112.285 E0.04575
G1 X125.001 Y112.420 E0.04435
G1 X123.606 Y112.288 E0.04393
G1 X122.248 Y111.891 E0.04435
G1 X120.998 Y111.248 E0.04407
G1 X119.846 Y110.336 E0.04608
G1 X118.790 Y109.059 E0.05195
G1 X118.132 Y107.807 E0.04435
G1 X117.715 Y106.409 E0.04575
G1 X117.580 Y105.001 E0.04435
G1 X117.715 Y103.593 E0.04435
G1 X118.132 Y102.194 E0.04575
G1 X118.789 Y100.942 E0.04434
G1 X119.846 Y99.664 E0.05200
G1 X121.001 Y98.750 E0.04617
G1 X122.247 Y98.110 E0.04393
G1 X123.604 Y97.713 E0.04435
G1 X125.004 Y97.580 E0.04407
G1 X126.412 Y97.716 E0.04435
G1 X127.806 Y98.132 E0.04561
G1 X129.058 Y98.789 E0.04434
G1 X130.336 Y99.846 E0.05200
G1 X131.250 Y101.001 E0.04617
G1 X131.863 Y102.194 E0.04205
G1 F8640
G1 X132.287 Y103.604 E-0.34021
G1 X132.420 Y104.999 E-0.32350
G1 X132.380 Y105.414 E-0.09629
G1 E-0.04000 F2100.00000
G1 Z1.000 F10800.000
G1 X127.193 Y106.835
G1 Z0.400
G1 E0.80000 F2100.00000
M204 S800
G1 F900
G1 X126.810 Y107.214 E0.01822
G1 X126.363 Y107.514 E0.01822
G1 X126.068 Y107.653 E0.01105
G1 X125.711 Y107.769 E0.01271
G1 X125.358 Y107.836 E0.01215
G1 X124.837 Y107.855 E0.01767
G1 X124.305 Y107.774 E0.01822
G1 X123.948 Y107.658 E0.01271
G1 X123.608 Y107.498 E0.01271
G1 X123.165 Y107.193 E0.01822
G1 X122.786 Y106.810 E0.01822
G1 X122.486 Y106.363 E0.01822
G1 X122.347 Y106.068 E0.01105
G1 X122.231 Y105.711 E0.01271
G1 X122.164 Y105.358 E0.01215
G1 X122.141 Y105.000 E0.01215
G1 X122.164 Y104.642 E0.01215
G1 X122.231 Y104.289 E0.01215
G1 X122.412 Y103.782 E0.01822
G1 X122.486 Y103.637 E0.00553
G1 X122.786 Y103.190 E0.01822
G1 X123.165 Y102.807 E0.01822
G1 X123.608 Y102.502 E0.01822
G1 X123.948 Y102.342 E0.01271
G1 X124.305 Y102.226 E0.01271
G1 X124.828 Y102.146 E0.01792
G1 X125.355 Y102.163 E0.01784
G1 X125.711 Y102.231 E0.01228
G1 X126.218 Y102.412 E0.01822
G1 X126.363 Y102.486 E0.00553
G1 X126.810 Y102.786 E0.01822
G1 X127.193 Y103.165 E0.01822
G1 X127.498 Y103.608 E0.01822
G1 X127.658 Y103.948 E0.01271
G1 X127.774 Y104.305 E0.01271
G1 X127.855 Y104.837 E0.01822
G1 X127.855 Y105.163 E0.01105
G1 X127.774 Y105.695 E0.01822
G1 X127.658 Y106.052 E0.01271
G1 X127.498 Y106.392 E0.01271
G1 X127.228 Y106.787 E0.01619
M204 S1000
G1 X127.511 Y107.090 F10800.000
M204 S800
G1 F900
G1 X127.075 Y107.524 E0.02082
G1 X126.565 Y107.868 E0.02082
G1 X126.212 Y108.034 E0.01322
G1 X125.812 Y108.164 E0.01422
G1 X125.409 Y108.241 E0.01389
G1 X124.805 Y108.261 E0.02048
G1 X124.197 Y108.167 E0.02082
G1 X123.797 Y108.037 E0.01422
G1 X123.417 Y107.858 E0.01422
G1 X122.910 Y107.511 E0.02082
G1 X122.476 Y107.075 E0.02082
G1 X122.132 Y106.565 E0.02082
G1 X121.966 Y106.212 E0.01322
G1 X121.836 Y105.812 E0.01422
G1 X121.759 Y105.409 E0.01389
G1 X121.733 Y105.000 E0.01389
G1 X121.759 Y104.591 E0.01389
G1 X121.836 Y104.188 E0.01389
G1 X121.966 Y103.788 E0.01422
G1 X122.043 Y103.609 E0.00661
G1 X122.132 Y103.435 E0.00661
G1 X122.476 Y102.925 E0.02082
G1 X122.910 Y102.489 E0.02082
G1 X123.417 Y102.142 E0.02082
G1 X123.797 Y101.963 E0.01422
G1 X124.197 Y101.833 E0.01422
G1 X124.799 Y101.739 E0.02063
G1 X125.073 Y101.735 E0.00926
G1 X125.407 Y101.759 E0.01134
G1 X125.812 Y101.836 E0.01396
G1 X126.212 Y101.966 E0.01422
G1 X126.391 Y102.043 E0.00661
G1 X126.565 Y102.132 E0.00661
G1 X127.075 Y102.476 E0.02082
G1 X127.511 Y102.910 E0.02082
G1 X127.858 Y103.417 E0.02082
G1 X128.037 Y103.797 E0.01422
G1 X128.167 Y104.197 E0.01422
G1 X128.261 Y104.805 E0.02082
G1 X128.261 Y105.195 E0.01322
G1 X128.167 Y105.803 E0.02082
G1 X128.037 Y106.203 E0.01422
G1 X127.858 Y106.583 E0.01422
G1 X127.546 Y107.042 E0.01879
M204 S1000
G1 X127.840 Y107.330 F10800.000
M204 S800
G1 F900
G1 X127.681 Y107.513 E0.00822
G1 X127.340 Y107.834 E0.01586
