; generated by PrusaSlicer 2.0.0+win64 on 2019-08-20 at 11:21:59

; 

; external perimeters extrusion width = 0.45mm
; perimeters extrusion width = 0.45mm
; infill extrusion width = 0.45mm
; solid infill extrusion width = 0.45mm
; top infill extrusion width = 0.40mm
; first layer extrusion width = 0.42mm

M73 P0 R69
M73 Q0 S70
M201 X1000 Y1000 Z1000 E5000 ; sets maximum accelerations, mm/sec^2
M203 X200 Y200 Z12 E120 ; sets maximum feedrates, mm/sec
M204 P1250 R1250 T1250 ; sets acceleration (P, T) and retract acceleration (R), mm/sec^2
M205 X8.00 Y8.00 Z0.40 E1.50 ; sets the jerk limits, mm/sec
M205 S0 T0 ; sets the minimum extruding and travel feed rate, mm/sec
M107
M115 U3.7.2 ; tell printer latest fw version
G90 ; use absolute coordinates
M83 ; extruder relative mode
M104 S240 ; set extruder temp
M140 S85 ; set bed temp
Tx
M190 S85 ; wait for bed temp
M109 S240 ; wait for extruder temp
G28 W ; home all without mesh bed level
G80 ; mesh bed leveling

G21 ; set units to millimeters

;go outside print area
G1 Y-3.0 F1000.0
G1 Z0.4 F1000.0
; select extruder
Tc
; purge line
G1 X55.0 F2000.0
G1 Z0.3 F1000.0
G92 E0.0
G1 X240.0 E25.0 F2200.0
M73 Q0 S69
M73 P0 R69
G1 Y-2.0 F1000.0
G1 X55.0 E25 F1400.0
G1 Z0.20 F1000.0
G1 X5.0 E4.0 F1000.0

M221 S95
G92 E0.0
M900 K45 ; Filament gcode
G21 ; set units to millimeters
G90 ; use absolute coordinates
M83 ; use relative distances for extrusion
;BEFORE_LAYER_CHANGE
G92 E0.0
;0.2


G1 E-0.80000 F2100.00000
G1 Z0.600 F10800.000
;AFTER_LAYER_CHANGE
;0.2
G1 X76.871 Y72.904
G1 Z0.200
G1 E0.80000 F2100.00000
M204 S1000
G1 F1200
G1 X77.490 Y72.811 E0.01964
G1 X172.504 Y72.811 E2.97907
G1 X173.330 Y72.975 E0.02642
G1 X174.034 Y73.439 E0.02642
G1 X174.510 Y74.134 E0.02642
G1 X174.688 Y74.958 E0.02642
G1 X174.688 Y135.037 E1.88373
G1 X174.615 Y135.564 E0.01669
G1 X174.416 Y136.058 E0.01669
G1 X174.104 Y136.489 E0.01669
G1 X173.697 Y136.832 E0.01669
G1 X173.129 Y137.096 E0.01964
G1 X172.510 Y137.189 E0.01964
G1 X77.485 Y137.188 E2.97942
G1 X76.954 Y137.119 E0.01680
G1 X76.452 Y136.921 E0.01692
G1 X76.017 Y136.609 E0.01680
G1 X75.668 Y136.197 E0.01692
G1 X75.405 Y135.633 E0.01953
G1 X75.312 Y135.013 E0.01964
G1 X75.312 Y74.978 E1.88236
G1 X75.383 Y74.447 E0.01680
G1 X75.580 Y73.949 E0.01680
G1 X75.893 Y73.514 E0.01680
G1 X76.303 Y73.168 E0.01680
G1 X76.816 Y72.929 E0.01776
G1 F8640
G1 X77.490 Y72.811 E-0.15799
G1 X80.098 Y72.811 E-0.60201
G1 E-0.04000 F2100.00000
G1 Z0.800 F10800.000
G1 X168.814 Y118.708
G1 Z0.200
G1 E0.80000 F2100.00000
G1 F1200
G1 X168.426 Y118.495 E0.01388
G1 X168.159 Y118.259 E0.01115
G1 X167.947 Y117.986 E0.01086
G1 X167.790 Y117.677 E0.01085
G1 X167.693 Y117.345 E0.01086
G1 X167.660 Y117.000 E0.01086
G1 X167.693 Y116.655 E0.01086
G1 X167.790 Y116.323 E0.01086
G1 X167.947 Y116.014 E0.01085
G1 X168.159 Y115.741 E0.01086
G1 X168.419 Y115.512 E0.01086
G1 X168.717 Y115.335 E0.01085
G1 X169.051 Y115.215 E0.01114
G1 X169.487 Y115.160 E0.01379
G1 X169.844 Y115.193 E0.01124
G1 X170.177 Y115.290 E0.01087
G1 X170.486 Y115.447 E0.01085
G1 X170.767 Y115.665 E0.01115
G1 X171.049 Y116.006 E0.01389
G1 X171.210 Y116.323 E0.01115
G1 X171.307 Y116.655 E0.01086
G1 X171.340 Y117.000 E0.01086
G1 X171.307 Y117.345 E0.01086
G1 X171.210 Y117.677 E0.01086
G1 X171.049 Y117.994 E0.01115
G1 X170.767 Y118.335 E0.01389
G1 X170.486 Y118.553 E0.01115
G1 X170.177 Y118.710 E0.01085
G1 X169.845 Y118.807 E0.01086
G1 X169.500 Y118.840 E0.01086
G1 X169.155 Y118.807 E0.01086
G1 X168.871 Y118.725 E0.00927
G1 X168.959 Y118.357 F10800.000
G1 F1200
G1 X168.644 Y118.184 E0.01127
G1 X168.435 Y118.000 E0.00873
G1 X168.266 Y117.783 E0.00862
G1 X168.142 Y117.538 E0.00862
G1 X168.065 Y117.274 E0.00862
G1 X168.039 Y117.000 E0.00862
G1 X168.065 Y116.726 E0.00862
G1 X168.142 Y116.462 E0.00862
G1 X168.266 Y116.217 E0.00862
G1 X168.435 Y116.000 E0.00862
G1 X168.641 Y115.818 E0.00862
G1 X168.878 Y115.678 E0.00862
G1 X169.140 Y115.584 E0.00872
G1 X169.494 Y115.539 E0.01119
G1 X169.774 Y115.565 E0.00881
G1 X170.038 Y115.642 E0.00863
G1 X170.283 Y115.767 E0.00862
G1 X170.503 Y115.937 E0.00873
G1 X170.732 Y116.214 E0.01128
G1 X170.858 Y116.462 E0.00872
G1 X170.935 Y116.726 E0.00862
G1 X170.961 Y117.000 E0.00862
G1 X170.935 Y117.274 E0.00862
G1 X170.858 Y117.538 E0.00862
G1 X170.732 Y117.786 E0.00872
G1 X170.503 Y118.063 E0.01128
G1 X170.283 Y118.233 E0.00873
G1 X170.038 Y118.358 E0.00862
G1 X169.774 Y118.435 E0.00863
G1 X169.500 Y118.461 E0.00862
G1 X169.226 Y118.435 E0.00862
G1 X169.017 Y118.374 E0.00685
G1 X168.672 Y118.575 F10800.000
G1 F8640
G1 X168.644 Y118.184 E-0.09660
G1 X168.435 Y118.000 E-0.06427
G1 X168.266 Y117.783 E-0.06349
G1 X168.142 Y117.538 E-0.06348
G1 X168.065 Y117.274 E-0.06352
G1 X168.039 Y117.000 E-0.06348
G1 X168.065 Y116.726 E-0.06348
G1 X168.142 Y116.462 E-0.06352
G1 X168.266 Y116.217 E-0.06348
G1 X168.435 Y116.000 E-0.06349
G1 X168.641 Y115.818 E-0.06350
G1 X168.745 Y115.757 E-0.02768
G1 E-0.04000 F2100.00000
G1 Z0.800 F10800.000
G1 X169.500 Y94.840
G1 Z0.200
G1 E0.80000 F2100.00000
G1 F1200
G1 X169.155 Y94.807 E0.01086
G1 X168.814 Y94.708 E0.01115
G1 X168.426 Y94.495 E0.01388
G1 X168.159 Y94.259 E0.01115
G1 X167.947 Y93.986 E0.01086
G1 X167.790 Y93.677 E0.01085
G1 X167.693 Y93.345 E0.01086
G1 X167.660 Y93.000 E0.01086
G1 X167.693 Y92.655 E0.01086
G1 X167.790 Y92.323 E0.01086
G1 X167.947 Y92.014 E0.01085
G1 X168.159 Y91.741 E0.01086
G1 X168.419 Y91.512 E0.01086
G1 X168.717 Y91.335 E0.01085
G1 X169.051 Y91.215 E0.01114
G1 X169.487 Y91.160 E0.01379
G1 X169.844 Y91.193 E0.01124
G1 X170.177 Y91.290 E0.01087
G1 X170.486 Y91.447 E0.01085
G1 X170.767 Y91.665 E0.01115
G1 X171.049 Y92.006 E0.01389
G1 X171.210 Y92.323 E0.01115
G1 X171.307 Y92.655 E0.01086
G1 X171.340 Y93.000 E0.01086
G1 X171.307 Y93.345 E0.01086
G1 X171.210 Y93.677 E0.01086
G1 X171.053 Y93.986 E0.01087
G1 X170.833 Y94.269 E0.01124
G1 X170.494 Y94.549 E0.01379
G1 X170.177 Y94.710 E0.01114
G1 X169.845 Y94.807 E0.01086
G1 X169.560 Y94.834 E0.00897
G1 X169.500 Y94.461 F10800.000
G1 F1200
G1 X169.226 Y94.435 E0.00862
G1 X168.959 Y94.357 E0.00873
G1 X168.644 Y94.184 E0.01127
G1 X168.435 Y94.000 E0.00873
G1 X168.266 Y93.783 E0.00862
G1 X168.142 Y93.538 E0.00862
G1 X168.065 Y93.274 E0.00862
G1 X168.039 Y93.000 E0.00862
G1 X168.065 Y92.726 E0.00862
G1 X168.142 Y92.462 E0.00862
G1 X168.266 Y92.217 E0.00862
G1 X168.435 Y92.000 E0.00862
G1 X168.641 Y91.818 E0.00862
G1 X168.878 Y91.678 E0.00862
G1 X169.140 Y91.584 E0.00872
G1 X169.494 Y91.539 E0.01119
G1 X169.774 Y91.565 E0.00881
G1 X170.038 Y91.642 E0.00863
G1 X170.283 Y91.767 E0.00862
G1 X170.503 Y91.937 E0.00873
G1 X170.732 Y92.214 E0.01128
G1 X170.858 Y92.462 E0.00872
G1 X170.935 Y92.726 E0.00862
G1 X170.961 Y93.000 E0.00862
G1 X170.935 Y93.274 E0.00862
G1 X170.858 Y93.538 E0.00862
G1 X170.733 Y93.783 E0.00862
G1 X170.561 Y94.005 E0.00881
G1 X170.286 Y94.232 E0.01119
G1 X170.038 Y94.358 E0.00872
G1 X169.774 Y94.435 E0.00863
G1 X169.560 Y94.455 E0.00674
G1 X169.363 Y94.699 F10800.000
G1 F8640
G1 X169.226 Y94.435 E-0.07714
G1 X168.959 Y94.357 E-0.06429
G1 X168.644 Y94.184 E-0.08303
G1 X168.435 Y94.000 E-0.06427
G1 X168.266 Y93.783 E-0.06349
G1 X168.142 Y93.538 E-0.06348
G1 X168.065 Y93.274 E-0.06352
G1 X168.039 Y93.000 E-0.06348
G1 X168.065 Y92.726 E-0.06348
G1 X168.142 Y92.462 E-0.06352
G1 X168.266 Y92.217 E-0.06348
G1 X168.338 Y92.125 E-0.02682
G1 E-0.04000 F2100.00000
G1 Z0.800 F10800.000
G1 X130.028 Y127.126
G1 Z0.200
G1 E0.80000 F2100.00000
G1 F1200
G1 X130.429 Y127.641 E0.02047
G1 X130.718 Y128.210 E0.01999
G1 X130.862 Y128.653 E0.01460
G1 X130.959 Y129.267 E0.01951
G1 X130.959 Y129.733 E0.01460
G1 X130.859 Y130.363 E0.01999
G1 X130.644 Y130.962 E0.01999
G1 X130.419 Y131.371 E0.01460
G1 X130.028 Y131.874 E0.01999
G1 X129.539 Y132.306 E0.02047
G1 X128.977 Y132.638 E0.02047
G1 X128.363 Y132.860 E0.02047
G1 X127.733 Y132.959 E0.01999
G1 X127.278 Y132.959 E0.01426
G1 X126.984 Y132.920 E0.00929
G1 X126.500 Y132.969 E0.01527
G1 X126.000 Y132.918 E0.01576
G1 X125.500 Y132.969 E0.01576
G1 X125.000 Y132.918 E0.01576
G1 X124.500 Y132.969 E0.01576
G1 X124.000 Y132.918 E0.01576
G1 X123.500 Y132.969 E0.01576
G1 X123.016 Y132.920 E0.01527
G1 X122.707 Y132.961 E0.00977
G1 X122.081 Y132.942 E0.01964
G1 X121.638 Y132.857 E0.01413
G1 X121.224 Y132.723 E0.01365
G1 X120.830 Y132.537 E0.01365
G1 X120.463 Y132.304 E0.01365
G1 X120.127 Y132.027 E0.01364
G1 X119.829 Y131.709 E0.01365
G1 X119.573 Y131.357 E0.01365
G1 X119.356 Y130.962 E0.01413
G1 X119.141 Y130.363 E0.01999
G1 X119.041 Y129.733 E0.01999
G1 X119.041 Y129.282 E0.01413
G1 X119.097 Y128.835 E0.01413
G1 X119.275 Y128.223 E0.01999
G1 X119.571 Y127.641 E0.02047
G1 X119.972 Y127.126 E0.02047
G1 X120.461 Y126.694 E0.02047
G1 X121.023 Y126.362 E0.02047
G1 X121.637 Y126.140 E0.02047
G1 X122.267 Y126.041 E0.01999
G1 X122.722 Y126.041 E0.01426
G1 X123.016 Y126.080 E0.00929
G1 X123.500 Y126.031 E0.01527
G1 X124.000 Y126.082 E0.01576
G1 X124.500 Y126.031 E0.01576
G1 X125.000 Y126.082 E0.01576
G1 X125.500 Y126.031 E0.01576
G1 X126.000 Y126.082 E0.01576
G1 X126.500 Y126.031 E0.01576
G1 X127.000 Y126.082 E0.01575
G1 X127.475 Y126.033 E0.01497
G1 X127.949 Y126.062 E0.01490
G1 X128.557 Y126.198 E0.01953
G1 X128.990 Y126.369 E0.01460
G1 X129.539 Y126.694 E0.01999
G1 X129.983 Y127.086 E0.01858
G1 X129.752 Y127.385 F10800.000
G1 F1200
G1 X130.109 Y127.844 E0.01824
G1 X130.369 Y128.354 E0.01794
G1 X130.494 Y128.741 E0.01274
G1 X130.582 Y129.297 E0.01765
G1 X130.582 Y129.703 E0.01274
G1 X130.493 Y130.268 E0.01794
G1 X130.299 Y130.807 E0.01794
G1 X130.103 Y131.163 E0.01274
G1 X129.752 Y131.615 E0.01794
G1 X129.316 Y132.000 E0.01823
G1 X128.816 Y132.296 E0.01823
G1 X128.268 Y132.493 E0.01824
G1 X127.703 Y132.582 E0.01794
G1 X127.303 Y132.582 E0.01253
G1 X126.990 Y132.540 E0.00990
G1 X126.500 Y132.590 E0.01546
G1 X126.000 Y132.539 E0.01576
G1 X125.500 Y132.590 E0.01576
G1 X125.000 Y132.539 E0.01576
G1 X124.500 Y132.590 E0.01576
G1 X124.000 Y132.539 E0.01576
G1 X123.500 Y132.590 E0.01576
G1 X123.010 Y132.540 E0.01546
G1 X122.687 Y132.583 E0.01019
G1 X122.122 Y132.566 E0.01773
G1 X121.732 Y132.491 E0.01245
G1 X121.363 Y132.371 E0.01216
G1 X121.012 Y132.206 E0.01216
G1 X120.685 Y131.998 E0.01216
G1 X120.386 Y131.751 E0.01216
G1 X120.120 Y131.469 E0.01216
G1 X119.892 Y131.155 E0.01216
G1 X119.701 Y130.807 E0.01245
G1 X119.507 Y130.268 E0.01794
G1 X119.418 Y129.703 E0.01794
G1 X119.418 Y129.306 E0.01245
G1 X119.468 Y128.912 E0.01245
G1 X119.627 Y128.363 E0.01794
G1 X119.891 Y127.844 E0.01823
G1 X120.248 Y127.385 E0.01824
G1 X120.684 Y127.000 E0.01823
G1 X121.184 Y126.704 E0.01823
G1 X121.732 Y126.507 E0.01824
G1 X122.297 Y126.418 E0.01794
G1 X122.697 Y126.418 E0.01253
G1 X123.010 Y126.460 E0.00990
G1 X123.500 Y126.410 E0.01546
G1 X124.000 Y126.461 E0.01576
G1 X124.500 Y126.410 E0.01576
G1 X125.000 Y126.461 E0.01576
G1 X125.500 Y126.410 E0.01576
G1 X126.000 Y126.461 E0.01576
G1 X126.500 Y126.410 E0.01576
G1 X127.000 Y126.461 E0.01575
G1 X127.482 Y126.411 E0.01522
G1 X127.896 Y126.437 E0.01299
G1 X128.446 Y126.560 E0.01766
G1 X128.824 Y126.709 E0.01274
G1 X129.316 Y127.000 E0.01794
G1 X129.707 Y127.345 E0.01635
G1 X129.476 Y127.644 F10800.000
G1 F1200
G1 X129.789 Y128.047 E0.01600
G1 X130.019 Y128.499 E0.01590
G1 X130.126 Y128.829 E0.01088
G1 X130.205 Y129.326 E0.01579
G1 X130.205 Y129.674 E0.01088
G1 X130.126 Y130.174 E0.01589
G1 X129.954 Y130.651 E0.01589
G1 X129.787 Y130.955 E0.01088
G1 X129.476 Y131.356 E0.01589
G1 X129.093 Y131.693 E0.01600
G1 X128.654 Y131.953 E0.01600
G1 X128.174 Y132.126 E0.01600
G1 X127.674 Y132.205 E0.01589
G1 X127.329 Y132.205 E0.01081
G1 X126.997 Y132.160 E0.01051
G1 X126.500 Y132.211 E0.01565
G1 X126.000 Y132.160 E0.01576
G1 X125.500 Y132.211 E0.01576
G1 X125.000 Y132.160 E0.01576
G1 X124.500 Y132.211 E0.01576
G1 X124.000 Y132.160 E0.01576
G1 X123.500 Y132.211 E0.01576
G1 X123.003 Y132.160 E0.01565
G1 X122.668 Y132.206 E0.01062
G1 X122.164 Y132.190 E0.01582
G1 X121.826 Y132.125 E0.01078
G1 X121.502 Y132.020 E0.01067
G1 X121.194 Y131.875 E0.01067
G1 X120.907 Y131.693 E0.01067
G1 X120.645 Y131.476 E0.01067
G1 X120.412 Y131.228 E0.01067
G1 X120.212 Y130.952 E0.01067
G1 X120.046 Y130.651 E0.01078
G1 X119.874 Y130.174 E0.01589
G1 X119.795 Y129.674 E0.01589
G1 X119.795 Y129.330 E0.01078
G1 X119.838 Y128.989 E0.01078
G1 X119.979 Y128.502 E0.01589
G1 X120.211 Y128.047 E0.01600
G1 X120.524 Y127.644 E0.01600
G1 X120.907 Y127.307 E0.01600
G1 X121.346 Y127.047 E0.01600
G1 X121.826 Y126.874 E0.01600
G1 X122.326 Y126.795 E0.01589
G1 X122.671 Y126.795 E0.01081
G1 X123.003 Y126.840 E0.01051
G1 X123.500 Y126.789 E0.01565
G1 X124.000 Y126.840 E0.01576
G1 X124.500 Y126.789 E0.01576
G1 X125.000 Y126.840 E0.01576
G1 X125.500 Y126.789 E0.01576
G1 X126.000 Y126.840 E0.01576
G1 X126.500 Y126.789 E0.01576
G1 X127.000 Y126.840 E0.01576
G1 X127.490 Y126.790 E0.01546
G1 X127.843 Y126.811 E0.01107
G1 X128.334 Y126.921 E0.01579
G1 X128.657 Y127.049 E0.01088
G1 X129.093 Y127.307 E0.01590
G1 X129.431 Y127.605 E0.01412
G1 X129.866 Y127.553 F10800.000
G1 F8640
G1 X129.789 Y128.047 E-0.13145
G1 X130.019 Y128.499 E-0.11706
G1 X130.126 Y128.829 E-0.08013
G1 X130.205 Y129.326 E-0.11627
G1 X130.205 Y129.674 E-0.08014
G1 X130.126 Y130.174 E-0.11704
G1 X129.954 Y130.651 E-0.11704
G1 X129.952 Y130.654 E-0.00087
G1 E-0.04000 F2100.00000
G1 Z0.800 F10800.000
G1 X125.909 Y117.295
G1 Z0.200
G1 E0.80000 F2100.00000
G1 F1200
G1 X125.462 Y117.425 E0.01457
G1 X125.000 Y117.468 E0.01457
G1 X124.538 Y117.425 E0.01457
G1 X124.091 Y117.295 E0.01457
G1 X123.677 Y117.084 E0.01457
G1 X123.310 Y116.799 E0.01457
G1 X123.003 Y116.451 E0.01457
G1 X122.759 Y116.038 E0.01505
G1 X122.577 Y115.478 E0.01846
G1 X122.532 Y115.000 E0.01505
G1 X122.575 Y114.537 E0.01457
G1 X122.705 Y114.091 E0.01457
G1 X122.916 Y113.677 E0.01457
G1 X123.201 Y113.310 E0.01457
G1 X123.549 Y113.003 E0.01457
G1 X123.949 Y112.766 E0.01457
G1 X124.400 Y112.604 E0.01503
G1 X124.981 Y112.530 E0.01835
G1 X125.462 Y112.575 E0.01516
G1 X125.909 Y112.705 E0.01459
G1 X126.323 Y112.916 E0.01457
G1 X126.690 Y113.201 E0.01457
G1 X126.997 Y113.549 E0.01457
G1 X127.241 Y113.962 E0.01505
G1 X127.423 Y114.522 E0.01846
G1 X127.468 Y115.000 E0.01505
G1 X127.423 Y115.478 E0.01505
G1 X127.241 Y116.038 E0.01846
G1 X126.997 Y116.451 E0.01505
G1 X126.690 Y116.799 E0.01457
G1 X126.323 Y117.084 E0.01457
G1 X125.962 Y117.268 E0.01269
G1 X125.769 Y116.943 F10800.000
G1 F1200
G1 X125.392 Y117.053 E0.01233
G1 X125.000 Y117.090 E0.01233
G1 X124.608 Y117.053 E0.01233
G1 X124.231 Y116.943 E0.01233
G1 X123.880 Y116.764 E0.01233
G1 X123.570 Y116.523 E0.01233
G1 X123.309 Y116.228 E0.01233
G1 X123.104 Y115.882 E0.01262
G1 X122.948 Y115.401 E0.01585
G1 X122.910 Y115.000 E0.01263
G1 X122.947 Y114.608 E0.01233
G1 X123.057 Y114.231 E0.01233
G1 X123.236 Y113.880 E0.01233
G1 X123.477 Y113.570 E0.01233
G1 X123.772 Y113.309 E0.01233
G1 X124.110 Y113.109 E0.01233
G1 X124.489 Y112.973 E0.01262
G1 X124.987 Y112.910 E0.01574
G1 X125.391 Y112.947 E0.01273
G1 X125.769 Y113.057 E0.01234
G1 X126.120 Y113.236 E0.01233
G1 X126.430 Y113.477 E0.01233
G1 X126.691 Y113.772 E0.01233
G1 X126.896 Y114.118 E0.01262
G1 X127.052 Y114.599 E0.01585
G1 X127.090 Y115.000 E0.01262
G1 X127.052 Y115.401 E0.01263
G1 X126.896 Y115.882 E0.01585
G1 X126.691 Y116.228 E0.01262
G1 X126.430 Y116.523 E0.01233
G1 X126.120 Y116.764 E0.01233
G1 X125.823 Y116.916 E0.01045
G1 X125.630 Y116.591 F10800.000
G1 F1200
G1 X125.321 Y116.681 E0.01010
G1 X125.000 Y116.711 E0.01010
G1 X124.679 Y116.681 E0.01010
G1 X124.370 Y116.591 E0.01010
G1 X124.083 Y116.445 E0.01010
G1 X123.829 Y116.247 E0.01010
G1 X123.616 Y116.006 E0.01010
G1 X123.450 Y115.726 E0.01020
G1 X123.320 Y115.324 E0.01324
G1 X123.289 Y115.000 E0.01020
G1 X123.319 Y114.679 E0.01010
G1 X123.409 Y114.370 E0.01010
G1 X123.555 Y114.083 E0.01010
G1 X123.753 Y113.829 E0.01010
G1 X123.994 Y113.616 E0.01010
G1 X124.272 Y113.452 E0.01010
G1 X124.578 Y113.342 E0.01020
G1 X124.993 Y113.289 E0.01314
G1 X125.320 Y113.319 E0.01030
G1 X125.630 Y113.409 E0.01010
G1 X125.917 Y113.555 E0.01010
G1 X126.171 Y113.753 E0.01010
G1 X126.384 Y113.994 E0.01010
