; generated by PrusaSlicer 2.0.0+win64 on 2019-08-20 at 11:23:24

; 

; external perimeters extrusion width = 0.45mm
; perimeters extrusion width = 0.45mm
; infill extrusion width = 0.45mm
; solid infill extrusion width = 0.45mm
; top infill extrusion width = 0.40mm
; first layer extrusion width = 0.42mm

M73 P0 R11
M73 Q0 S11
M201 X1000 Y1000 Z1000 E5000 ; sets maximum accelerations, mm/sec^2
M203 X200 Y200 Z12 E120 ; sets maximum feedrates, mm/sec
M204 P1250 R1250 T1250 ; sets acceleration (P, T) and retract acceleration (R), mm/sec^2
M205 X8.00 Y8.00 Z0.40 E1.50 ; sets the jerk limits, mm/sec
M205 S0 T0 ; sets the minimum extruding and travel feed rate, mm/sec
M107
M115 U3.7.2 ; tell printer latest fw version
G90 ; use absolute coordinates
M83 ; extruder relative mode
M104 S240 ; set extruder temp
M140 S85 ; set bed temp
Tx
M190 S85 ; wait for bed temp
M109 S240 ; wait for extruder temp
G28 W ; home all without mesh bed level
G80 ; mesh bed leveling

G21 ; set units to millimeters

;go outside print area
G1 Y-3.0 F1000.0
G1 Z0.4 F1000.0
; select extruder
Tc
; purge line
G1 X55.0 F2000.0
G1 Z0.3 F1000.0
G92 E0.0
G1 X240.0 E25.0 F2200.0
M73 Q1 S11
M73 P1 R11
G1 Y-2.0 F1000.0
G1 X55.0 E25 F1400.0
G1 Z0.20 F1000.0
G1 X5.0 E4.0 F1000.0

M221 S95
G92 E0.0
M900 K45 ; Filament gcode
G21 ; set units to millimeters
G90 ; use absolute coordinates
M83 ; use relative distances for extrusion
;BEFORE_LAYER_CHANGE
G92 E0.0
;0.2


G1 E-0.80000 F2100.00000
G1 Z0.600 F10800.000
;AFTER_LAYER_CHANGE
;0.2
G1 X109.249 Y97.029
G1 Z0.200
G1 E0.80000 F2100.00000
M204 S1000
G1 F1200
G1 X109.504 Y96.539 E0.01733
G1 X109.846 Y96.118 E0.01701
G1 X121.380 Y84.584 E0.51144
G1 X122.178 Y84.042 E0.03024
G1 X122.702 Y83.871 E0.01728
G1 X123.236 Y83.812 E0.01685
G1 X138.754 Y83.811 E0.48653
G1 X139.567 Y83.970 E0.02597
G1 X140.260 Y84.416 E0.02586
G1 X140.741 Y85.091 E0.02597
G1 X140.936 Y85.892 E0.02586
G1 X140.939 Y124.007 E1.19508
G1 X140.789 Y124.796 E0.02518
G1 X140.484 Y125.335 E0.01942
G1 X140.043 Y125.765 E0.01930
G1 X139.497 Y126.057 E0.01942
G1 X138.891 Y126.184 E0.01942
G1 X123.240 Y126.188 E0.49072
G1 X122.277 Y126.000 E0.03078
G1 X121.789 Y125.746 E0.01725
G1 X121.368 Y125.404 E0.01702
G1 X109.834 Y113.870 E0.51144
G1 X109.291 Y113.072 E0.03025
G1 X109.119 Y112.537 E0.01761
G1 X109.061 Y111.988 E0.01730
G1 X109.062 Y97.987 E0.43902
G1 X109.238 Y97.088 E0.02871
G1 F8640
G1 X109.504 Y96.539 E-0.14094
G1 X109.846 Y96.118 E-0.12529
G1 X111.358 Y94.605 E-0.49377
G1 E-0.04000 F2100.00000
G1 Z0.800 F10800.000
G1 X122.245 Y118.074
G1 Z0.200
G1 E0.80000 F2100.00000
G1 F1200
G1 X122.009 Y118.341 E0.01115
G1 X121.736 Y118.553 E0.01086
G1 X121.427 Y118.710 E0.01085
G1 X121.095 Y118.807 E0.01086
G1 X120.750 Y118.840 E0.01086
G1 X120.405 Y118.807 E0.01086
G1 X120.064 Y118.708 E0.01115
G1 X119.678 Y118.496 E0.01379
G1 X119.409 Y118.260 E0.01124
G1 X119.197 Y117.986 E0.01087
G1 X119.040 Y117.677 E0.01085
G1 X118.943 Y117.345 E0.01086
G1 X118.910 Y117.000 E0.01086
G1 X118.943 Y116.655 E0.01086
G1 X119.040 Y116.323 E0.01086
G1 X119.197 Y116.014 E0.01085
G1 X119.409 Y115.741 E0.01086
G1 X119.669 Y115.512 E0.01086
G1 X119.967 Y115.335 E0.01085
G1 X120.301 Y115.215 E0.01114
G1 X120.737 Y115.160 E0.01380
G1 X121.094 Y115.193 E0.01124
G1 X121.427 Y115.290 E0.01087
G1 X121.736 Y115.447 E0.01085
G1 X122.010 Y115.659 E0.01087
G1 X122.246 Y115.928 E0.01124
G1 X122.458 Y116.314 E0.01379
G1 X122.557 Y116.655 E0.01115
G1 X122.590 Y117.000 E0.01086
G1 X122.557 Y117.345 E0.01086
G1 X122.458 Y117.686 E0.01115
G1 X122.273 Y118.022 E0.01200
G1 X121.934 Y117.856 F10800.000
G1 F1200
G1 X121.750 Y118.065 E0.00873
G1 X121.533 Y118.233 E0.00862
G1 X121.288 Y118.358 E0.00862
G1 X121.024 Y118.435 E0.00862
G1 X120.750 Y118.461 E0.00862
G1 X120.476 Y118.435 E0.00862
G1 X120.209 Y118.357 E0.00873
G1 X119.896 Y118.186 E0.01119
G1 X119.685 Y118.000 E0.00881
G1 X119.517 Y117.783 E0.00863
G1 X119.392 Y117.538 E0.00862
G1 X119.315 Y117.274 E0.00862
G1 X119.289 Y117.000 E0.00862
G1 X119.315 Y116.726 E0.00862
G1 X119.392 Y116.462 E0.00862
G1 X119.517 Y116.217 E0.00862
G1 X119.685 Y116.000 E0.00862
G1 X119.891 Y115.818 E0.00862
G1 X120.128 Y115.678 E0.00862
G1 X120.390 Y115.584 E0.00872
G1 X120.744 Y115.539 E0.01119
G1 X121.024 Y115.565 E0.00881
G1 X121.288 Y115.642 E0.00863
G1 X121.533 Y115.767 E0.00862
G1 X121.750 Y115.935 E0.00863
G1 X121.936 Y116.146 E0.00881
G1 X122.107 Y116.459 E0.01119
G1 X122.185 Y116.726 E0.00873
G1 X122.211 Y117.000 E0.00862
G1 X122.185 Y117.274 E0.00862
G1 X122.107 Y117.541 E0.00873
G1 X121.963 Y117.804 E0.00939
G1 X122.050 Y118.109 F10800.000
G1 F8640
G1 X121.750 Y118.065 E-0.07785
G1 X121.533 Y118.233 E-0.06349
G1 X121.288 Y118.358 E-0.06348
G1 X121.024 Y118.435 E-0.06352
G1 X120.750 Y118.461 E-0.06348
G1 X120.476 Y118.435 E-0.06348
G1 X120.209 Y118.357 E-0.06427
G1 X119.896 Y118.186 E-0.08240
G1 X119.685 Y118.000 E-0.06489
G1 X119.517 Y117.783 E-0.06353
G1 X119.392 Y117.538 E-0.06348
G1 X119.360 Y117.429 E-0.02614
G1 E-0.04000 F2100.00000
G1 Z0.800 F10800.000
G1 X115.236 Y106.553
G1 Z0.200
G1 E0.80000 F2100.00000
G1 F1200
G1 X114.927 Y106.711 E0.01086
G1 X114.595 Y106.807 E0.01086
G1 X114.250 Y106.840 E0.01086
G1 X113.905 Y106.807 E0.01086
G1 X113.573 Y106.711 E0.01086
G1 X113.264 Y106.553 E0.01086
G1 X112.991 Y106.341 E0.01086
G1 X112.755 Y106.074 E0.01115
G1 X112.542 Y105.686 E0.01389
G1 X112.443 Y105.345 E0.01115
G1 X112.410 Y105.000 E0.01086
G1 X112.443 Y104.655 E0.01086
G1 X112.540 Y104.323 E0.01086
G1 X112.697 Y104.014 E0.01085
G1 X112.909 Y103.741 E0.01086
G1 X113.169 Y103.512 E0.01086
G1 X113.467 Y103.335 E0.01085
G1 X113.801 Y103.215 E0.01114
G1 X114.237 Y103.160 E0.01380
G1 X114.594 Y103.193 E0.01124
G1 X114.927 Y103.289 E0.01087
G1 X115.236 Y103.447 E0.01086
G1 X115.509 Y103.659 E0.01086
G1 X115.745 Y103.926 E0.01115
G1 X115.958 Y104.314 E0.01389
G1 X116.057 Y104.655 E0.01115
G1 X116.090 Y105.000 E0.01086
G1 X116.057 Y105.345 E0.01086
G1 X115.958 Y105.686 E0.01115
G1 X115.745 Y106.074 E0.01389
G1 X115.509 Y106.341 E0.01115
G1 X115.283 Y106.517 E0.00897
G1 X115.033 Y106.234 F10800.000
G1 F1200
G1 X114.788 Y106.358 E0.00862
G1 X114.524 Y106.435 E0.00862
G1 X114.250 Y106.461 E0.00862
G1 X113.976 Y106.435 E0.00862
G1 X113.712 Y106.358 E0.00862
G1 X113.467 Y106.234 E0.00862
G1 X113.250 Y106.065 E0.00862
G1 X113.066 Y105.856 E0.00873
G1 X112.893 Y105.541 E0.01128
G1 X112.815 Y105.274 E0.00873
G1 X112.789 Y105.000 E0.00862
G1 X112.815 Y104.726 E0.00862
G1 X112.892 Y104.462 E0.00862
G1 X113.016 Y104.217 E0.00862
G1 X113.185 Y104.000 E0.00862
G1 X113.391 Y103.818 E0.00862
G1 X113.628 Y103.678 E0.00862
G1 X113.890 Y103.584 E0.00872
G1 X114.244 Y103.539 E0.01119
G1 X114.524 Y103.565 E0.00881
G1 X114.788 Y103.642 E0.00863
G1 X115.033 Y103.766 E0.00862
G1 X115.250 Y103.935 E0.00862
G1 X115.434 Y104.144 E0.00873
G1 X115.607 Y104.459 E0.01128
G1 X115.685 Y104.726 E0.00873
G1 X115.711 Y105.000 E0.00862
G1 X115.685 Y105.274 E0.00862
G1 X115.607 Y105.541 E0.00873
G1 X115.434 Y105.856 E0.01128
G1 X115.250 Y106.065 E0.00873
G1 X115.080 Y106.197 E0.00674
G1 X115.044 Y106.508 F10800.000
G1 F8640
G1 X114.788 Y106.358 E-0.07714
G1 X114.524 Y106.435 E-0.06351
G1 X114.250 Y106.461 E-0.06348
G1 X113.976 Y106.435 E-0.06348
G1 X113.712 Y106.358 E-0.06351
G1 X113.467 Y106.234 E-0.06349
G1 X113.250 Y106.065 E-0.06349
G1 X113.066 Y105.856 E-0.06427
G1 X112.893 Y105.541 E-0.08305
G1 X112.815 Y105.274 E-0.06427
G1 X112.789 Y105.000 E-0.06349
G1 X112.800 Y104.884 E-0.02683
G1 E-0.04000 F2100.00000
G1 Z0.800 F10800.000
G1 X120.064 Y94.708
G1 Z0.200
G1 E0.80000 F2100.00000
G1 F1200
G1 X119.678 Y94.496 E0.01379
G1 X119.409 Y94.260 E0.01124
G1 X119.197 Y93.986 E0.01087
G1 X119.040 Y93.677 E0.01085
G1 X118.943 Y93.345 E0.01086
G1 X118.910 Y93.000 E0.01086
G1 X118.943 Y92.655 E0.01086
G1 X119.040 Y92.323 E0.01086
G1 X119.197 Y92.014 E0.01085
G1 X119.409 Y91.741 E0.01086
G1 X119.669 Y91.512 E0.01086
G1 X119.967 Y91.335 E0.01085
G1 X120.301 Y91.215 E0.01114
G1 X120.737 Y91.160 E0.01380
G1 X121.094 Y91.193 E0.01124
G1 X121.427 Y91.290 E0.01087
G1 X121.736 Y91.447 E0.01085
G1 X122.010 Y91.659 E0.01087
G1 X122.246 Y91.928 E0.01124
G1 X122.458 Y92.314 E0.01379
G1 X122.557 Y92.655 E0.01115
G1 X122.590 Y93.000 E0.01086
G1 X122.557 Y93.345 E0.01086
G1 X122.458 Y93.686 E0.01115
G1 X122.245 Y94.074 E0.01388
G1 X122.009 Y94.341 E0.01115
G1 X121.736 Y94.553 E0.01086
G1 X121.427 Y94.710 E0.01085
G1 X121.095 Y94.807 E0.01086
G1 X120.750 Y94.840 E0.01086
G1 X120.405 Y94.807 E0.01086
G1 X120.122 Y94.725 E0.00926
G1 X120.209 Y94.357 F10800.000
G1 F1200
G1 X119.896 Y94.186 E0.01119
G1 X119.685 Y94.000 E0.00881
G1 X119.517 Y93.783 E0.00863
G1 X119.392 Y93.538 E0.00862
G1 X119.315 Y93.274 E0.00862
G1 X119.289 Y93.000 E0.00862
G1 X119.315 Y92.726 E0.00862
G1 X119.392 Y92.462 E0.00862
G1 X119.517 Y92.217 E0.00862
G1 X119.685 Y92.000 E0.00862
G1 X119.891 Y91.818 E0.00862
G1 X120.128 Y91.678 E0.00862
G1 X120.390 Y91.584 E0.00872
G1 X120.744 Y91.539 E0.01119
G1 X121.024 Y91.565 E0.00881
G1 X121.288 Y91.642 E0.00863
G1 X121.533 Y91.767 E0.00862
G1 X121.750 Y91.935 E0.00863
G1 X121.936 Y92.146 E0.00881
G1 X122.107 Y92.459 E0.01119
G1 X122.185 Y92.726 E0.00873
G1 X122.211 Y93.000 E0.00862
G1 X122.185 Y93.274 E0.00862
G1 X122.107 Y93.541 E0.00873
G1 X121.934 Y93.856 E0.01127
G1 X121.750 Y94.065 E0.00873
G1 X121.533 Y94.233 E0.00862
G1 X121.288 Y94.358 E0.00862
G1 X121.024 Y94.435 E0.00862
G1 X120.750 Y94.461 E0.00862
G1 X120.476 Y94.435 E0.00862
G1 X120.267 Y94.374 E0.00685
G1 X119.925 Y94.573 F10800.000
G1 F8640
G1 X119.896 Y94.186 E-0.09597
G1 X119.685 Y94.000 E-0.06489
G1 X119.517 Y93.783 E-0.06353
G1 X119.392 Y93.538 E-0.06348
G1 X119.315 Y93.274 E-0.06352
G1 X119.289 Y93.000 E-0.06348
G1 X119.315 Y92.726 E-0.06348
G1 X119.392 Y92.462 E-0.06352
G1 X119.517 Y92.217 E-0.06348
G1 X119.685 Y92.000 E-0.06349
G1 X119.891 Y91.818 E-0.06350
G1 X119.994 Y91.757 E-0.02766
G1 E-0.04000 F2100.00000
G1 Z0.800 F10800.000
G1 X118.639 Y92.349
G1 Z0.200
G1 E0.80000 F2100.00000
G1 F1200
G1 X118.571 Y92.584 E0.00770
G1 X118.532 Y93.000 E0.01309
G1 X118.571 Y93.416 E0.01309
G1 X118.687 Y93.817 E0.01310
G1 X118.877 Y94.189 E0.01309
G1 X119.133 Y94.519 E0.01311
G1 X119.461 Y94.807 E0.01367
G1 X119.919 Y95.058 E0.01639
G1 X120.334 Y95.179 E0.01356
G1 X120.750 Y95.218 E0.01309
G1 X121.166 Y95.179 E0.01309
G1 X121.567 Y95.063 E0.01310
G1 X121.939 Y94.873 E0.01309
G1 X122.269 Y94.617 E0.01309
G1 X122.555 Y94.292 E0.01357
G1 X122.808 Y93.831 E0.01649
G1 X122.929 Y93.416 E0.01358
G1 X122.968 Y93.000 E0.01309
G1 X122.929 Y92.584 E0.01309
G1 X122.808 Y92.169 E0.01356
G1 X122.557 Y91.711 E0.01639
G1 X122.269 Y91.383 E0.01367
G1 X121.939 Y91.127 E0.01311
G1 X121.567 Y90.937 E0.01309
G1 X121.165 Y90.821 E0.01312
G1 X120.731 Y90.780 E0.01367
G1 X120.212 Y90.846 E0.01640
G1 X120.102 Y90.886 E0.00367
G1 X123.624 Y87.364 E0.15616
G1 X124.604 Y87.391 E0.03075
G1 X125.457 Y87.472 E0.02686
G1 X126.303 Y87.606 E0.02686
G1 X127.139 Y87.793 E0.02686
G1 X127.962 Y88.032 E0.02686
G1 X128.768 Y88.322 E0.02687
G1 X129.555 Y88.662 E0.02686
G1 X130.318 Y89.051 E0.02686
G1 X131.056 Y89.487 E0.02687
G1 X131.764 Y89.969 E0.02686
G1 X132.441 Y90.494 E0.02686
G1 X133.084 Y91.060 E0.02686
G1 X133.690 Y91.666 E0.02686
G1 X134.256 Y92.309 E0.02687
G1 X134.781 Y92.986 E0.02686
G1 X135.263 Y93.694 E0.02686
G1 X135.699 Y94.432 E0.02687
G1 X136.088 Y95.195 E0.02686
G1 X136.428 Y95.982 E0.02686
G1 X136.717 Y96.783 E0.02670
G1 X136.997 Y97.790 E0.03276
G1 X137.144 Y98.447 E0.02112
G1 X137.278 Y99.293 E0.02686
G1 X137.359 Y100.146 E0.02686
G1 X137.386 Y101.018 E0.02734
G1 X137.386 Y108.982 E0.24973
G1 X137.359 Y109.854 E0.02734
G1 X137.278 Y110.707 E0.02686
G1 X137.144 Y111.553 E0.02686
G1 X136.997 Y112.210 E0.02111
G1 X136.717 Y113.217 E0.03276
G1 X136.428 Y114.018 E0.02670
G1 X136.088 Y114.805 E0.02686
G1 X135.699 Y115.568 E0.02686
G1 X135.263 Y116.306 E0.02687
G1 X134.781 Y117.014 E0.02686
G1 X134.256 Y117.691 E0.02686
G1 X133.811 Y118.197 E0.02112
G1 X133.080 Y118.943 E0.03276
G1 X132.441 Y119.506 E0.02670
G1 X131.764 Y120.031 E0.02686
G1 X131.056 Y120.513 E0.02686
G1 X130.318 Y120.949 E0.02687
G1 X129.718 Y121.255 E0.02111
G1 X128.764 Y121.680 E0.03276
G1 X127.962 Y121.968 E0.02670
G1 X127.139 Y122.207 E0.02686
G1 X126.303 Y122.394 E0.02686
G1 X125.457 Y122.528 E0.02686
G1 X124.609 Y122.608 E0.02670
G1 X123.617 Y122.628 E0.03113
G1 X120.102 Y119.112 E0.15589
G1 X120.334 Y119.179 E0.00758
G1 X120.750 Y119.218 E0.01309
G1 X121.166 Y119.179 E0.01309
G1 X121.567 Y119.063 E0.01310
G1 X121.939 Y118.873 E0.01309
G1 X122.269 Y118.617 E0.01309
G1 X122.555 Y118.292 E0.01357
G1 X122.808 Y117.831 E0.01649
G1 X122.929 Y117.416 E0.01358
G1 X122.968 Y117.000 E0.01309
G1 X122.929 Y116.584 E0.01309
G1 X122.808 Y116.169 E0.01356
G1 X122.557 Y115.711 E0.01639
G1 X122.269 Y115.383 E0.01367
G1 X121.939 Y115.127 E0.01311
G1 X121.567 Y114.937 E0.01309
G1 X121.165 Y114.821 E0.01312
G1 X120.731 Y114.780 E0.01367
G1 X120.212 Y114.846 E0.01640
G1 X119.806 Y114.993 E0.01355
G1 X119.446 Y115.205 E0.01309
G1 X119.133 Y115.481 E0.01310
G1 X118.877 Y115.811 E0.01309
G1 X118.687 Y116.183 E0.01309
G1 X118.571 Y116.584 E0.01310
G1 X118.532 Y117.000 E0.01309
G1 X118.571 Y117.416 E0.01309
G1 X118.638 Y117.647 E0.00754
G1 X112.624 Y111.629 E0.26675
G1 X112.620 Y106.491 E0.16109
G1 X112.731 Y106.617 E0.00526
G1 X113.061 Y106.873 E0.01309
G1 X113.433 Y107.063 E0.01309
G1 X113.834 Y107.179 E0.01309
G1 X114.250 Y107.218 E0.01309
G1 X114.666 Y107.179 E0.01309
G1 X115.067 Y107.063 E0.01309
G1 X115.439 Y106.873 E0.01309
G1 X115.769 Y106.617 E0.01309
G1 X116.055 Y106.292 E0.01357
G1 X116.308 Y105.831 E0.01650
G1 X116.429 Y105.416 E0.01357
G1 X116.468 Y105.000 E0.01309
G1 X116.429 Y104.584 E0.01309
G1 X116.308 Y104.169 E0.01357
G1 X116.055 Y103.708 E0.01650
G1 X115.769 Y103.383 E0.01357
G1 X115.439 Y103.127 E0.01309
G1 X115.067 Y102.937 E0.01309
G1 X114.665 Y102.821 E0.01312
G1 X114.231 Y102.780 E0.01366
G1 X113.712 Y102.846 E0.01640
G1 X113.305 Y102.993 E0.01356
G1 X112.946 Y103.205 E0.01309
G1 X112.618 Y103.500 E0.01383
G1 X112.614 Y98.373 E0.16075
G1 X118.597 Y92.391 E0.26527
G1 F8640
G1 X118.571 Y92.584 E-0.04505
G1 X118.532 Y93.000 E-0.09641
G1 X118.571 Y93.416 E-0.09641
G1 X118.687 Y93.817 E-0.09645
G1 X118.877 Y94.189 E-0.09639
G1 X119.133 Y94.519 E-0.09657
G1 X119.461 Y94.807 E-0.10064
G1 X119.919 Y95.058 E-0.12071
G1 X119.966 Y95.072 E-0.01138
G1 E-0.04000 F2100.00000
G1 Z0.800 F10800.000
G1 X123.467 Y86.987
G1 Z0.200
G1 E0.80000 F2100.00000
G1 F1200
G1 X124.628 Y87.015 E0.03639
G1 X125.504 Y87.098 E0.02761
G1 X126.374 Y87.235 E0.02761
G1 X127.233 Y87.427 E0.02761
G1 X128.079 Y87.673 E0.02761
G1 X128.907 Y87.971 E0.02761
G1 X129.715 Y88.321 E0.02761
G1 X130.500 Y88.720 E0.02761
G1 X131.258 Y89.168 E0.02761
G1 X131.986 Y89.663 E0.02761
G1 X132.682 Y90.203 E0.02761
G1 X133.342 Y90.785 E0.02761
G1 X133.965 Y91.408 E0.02760
G1 X134.547 Y92.068 E0.02761
G1 X135.087 Y92.764 E0.02761
G1 X135.582 Y93.492 E0.02761
G1 X136.030 Y94.250 E0.02761
G1 X136.429 Y95.035 E0.02761
G1 X136.779 Y95.843 E0.02761
G1 X137.076 Y96.668 E0.02751
G1 X137.363 Y97.698 E0.03351
G1 X137.515 Y98.376 E0.02180
G1 X137.652 Y99.246 E0.02761
G1 X137.735 Y100.122 E0.02761
G1 X137.763 Y101.012 E0.02790
G1 X137.763 Y108.988 E0.25010
G1 X137.735 Y109.878 E0.02790
G1 X137.652 Y110.754 E0.02761
G1 X137.515 Y111.624 E0.02761
G1 X137.363 Y112.302 E0.02180
G1 X137.076 Y113.332 E0.03351
G1 X136.779 Y114.157 E0.02751
G1 X136.429 Y114.965 E0.02761
G1 X136.030 Y115.750 E0.02761
G1 X135.582 Y116.508 E0.02761
G1 X135.087 Y117.236 E0.02761
G1 X134.547 Y117.932 E0.02761
G1 X134.087 Y118.453 E0.02180
G1 X133.340 Y119.217 E0.03351
G1 X132.682 Y119.797 E0.02751
G1 X131.986 Y120.337 E0.02761
G1 X131.258 Y120.832 E0.02761
G1 X130.500 Y121.280 E0.02761
G1 X129.880 Y121.595 E0.02179
G1 X128.904 Y122.030 E0.03351
G1 X128.079 Y122.327 E0.02751
G1 X127.233 Y122.573 E0.02761
G1 X126.374 Y122.765 E0.02761
G1 X125.504 Y122.902 E0.02761
G1 X124.631 Y122.985 E0.02751
G1 X123.463 Y123.009 E0.03661
G1 X112.247 Y111.785 E0.49751
