; generated by PrusaSlicer 2.0.0+win64 on 2019-10-13 at 15:31:56

; 

; external perimeters extrusion width = 0.45mm
; perimeters extrusion width = 0.45mm
; infill extrusion width = 0.45mm
; solid infill extrusion width = 0.45mm
; top infill extrusion width = 0.40mm
; first layer extrusion width = 0.42mm

M73 P0 R20
M73 Q0 S20
M201 X1000 Y1000 Z1000 E5000 ; sets maximum accelerations, mm/sec^2
M203 X200 Y200 Z12 E120 ; sets maximum feedrates, mm/sec
M204 P1250 R1250 T1250 ; sets acceleration (P, T) and retract acceleration (R), mm/sec^2
M205 X8.00 Y8.00 Z0.40 E1.50 ; sets the jerk limits, mm/sec
M205 S0 T0 ; sets the minimum extruding and travel feed rate, mm/sec
M107
M115 U3.8.0 ; tell printer latest fw version
G90 ; use absolute coordinates
M83 ; extruder relative mode
M104 S240 ; set extruder temp
M140 S85 ; set bed temp
Tx
M190 S85 ; wait for bed temp
M109 S240 ; wait for extruder temp
G28 W ; home all without mesh bed level
G80 ; mesh bed leveling

G21 ; set units to millimeters

;go outside print area
G1 Y-3.0 F1000.0
G1 Z0.4 F1000.0
; select extruder
Tc
; purge line
G1 X55.0 F2000.0
G1 Z0.3 F1000.0
G92 E0.0
G1 X240.0 E25.0 F2200.0
M73 Q0 S20
M73 P0 R20
G1 Y-2.0 F1000.0
G1 X55.0 E25 F1400.0
G1 Z0.20 F1000.0
G1 X5.0 E4.0 F1000.0

M221 S95
G92 E0.0
M900 K45 ; Filament gcode
G21 ; set units to millimeters
G90 ; use absolute coordinates
M83 ; use relative distances for extrusion
;BEFORE_LAYER_CHANGE
G92 E0.0
;0.2


G1 E-0.80000 F2100.00000
G1 Z0.600 F10800.000
;AFTER_LAYER_CHANGE
;0.2
G1 X96.778 Y96.958
G1 Z0.200
G1 E0.80000 F2100.00000
M204 S1000
G1 F1200
G1 X97.341 Y96.123 E0.03158
G1 X108.875 Y84.589 E0.51144
G1 X109.473 Y84.143 E0.02339
G1 X110.085 Y83.899 E0.02066
G1 X110.747 Y83.812 E0.02094
G1 X151.254 Y83.811 E1.27005
G1 X152.077 Y83.974 E0.02631
G1 X152.779 Y84.434 E0.02631
G1 X153.257 Y85.127 E0.02642
G1 X153.438 Y85.947 E0.02631
G1 X153.438 Y124.062 E1.19508
G1 X153.347 Y124.627 E0.01794
G1 X153.115 Y125.146 E0.01783
G1 X152.754 Y125.590 E0.01794
G1 X152.293 Y125.924 E0.01783
G1 X151.791 Y126.121 E0.01692
G1 X151.260 Y126.189 E0.01680
G1 X110.762 Y126.189 E1.26976
G1 X110.181 Y126.124 E0.01832
G1 X109.477 Y125.859 E0.02361
G1 X108.891 Y125.427 E0.02282
G1 X97.339 Y113.875 E0.51224
G1 X96.893 Y113.277 E0.02340
G1 X96.649 Y112.665 E0.02066
G1 X96.562 Y111.999 E0.02104
G1 X96.562 Y97.983 E0.43948
G1 X96.618 Y97.467 E0.01628
G1 X96.760 Y97.015 E0.01484
G1 F8640
G1 X97.341 Y96.123 E-0.24585
G1 X98.915 Y94.548 E-0.51415
G1 E-0.04000 F2100.00000
G1 Z0.800 F10800.000
G1 X109.745 Y118.074
G1 Z0.200
G1 E0.80000 F2100.00000
G1 F1200
G1 X109.509 Y118.341 E0.01115
G1 X109.236 Y118.553 E0.01086
G1 X108.927 Y118.710 E0.01085
G1 X108.595 Y118.807 E0.01086
G1 X108.250 Y118.840 E0.01086
G1 X107.905 Y118.807 E0.01086
G1 X107.564 Y118.708 E0.01115
G1 X107.178 Y118.496 E0.01379
G1 X106.909 Y118.260 E0.01124
G1 X106.697 Y117.986 E0.01087
G1 X106.540 Y117.677 E0.01085
G1 X106.443 Y117.345 E0.01086
G1 X106.410 Y117.000 E0.01086
G1 X106.443 Y116.655 E0.01086
G1 X106.540 Y116.323 E0.01086
G1 X106.697 Y116.014 E0.01085
G1 X106.909 Y115.741 E0.01086
G1 X107.169 Y115.512 E0.01086
G1 X107.467 Y115.335 E0.01085
G1 X107.801 Y115.215 E0.01114
G1 X108.237 Y115.160 E0.01380
G1 X108.594 Y115.193 E0.01124
G1 X108.927 Y115.290 E0.01087
G1 X109.236 Y115.447 E0.01085
G1 X109.510 Y115.659 E0.01087
G1 X109.746 Y115.928 E0.01124
G1 X109.958 Y116.314 E0.01379
G1 X110.057 Y116.655 E0.01115
G1 X110.090 Y117.000 E0.01086
G1 X110.057 Y117.345 E0.01086
G1 X109.958 Y117.686 E0.01115
G1 X109.773 Y118.022 E0.01200
G1 X109.434 Y117.856 F10800.000
G1 F1200
G1 X109.250 Y118.065 E0.00873
G1 X109.033 Y118.233 E0.00862
G1 X108.788 Y118.358 E0.00862
G1 X108.524 Y118.435 E0.00862
G1 X108.250 Y118.461 E0.00862
G1 X107.976 Y118.435 E0.00862
G1 X107.709 Y118.357 E0.00873
G1 X107.396 Y118.186 E0.01119
G1 X107.185 Y118.000 E0.00881
G1 X107.017 Y117.783 E0.00863
G1 X106.892 Y117.538 E0.00862
G1 X106.815 Y117.274 E0.00862
G1 X106.789 Y117.000 E0.00862
G1 X106.815 Y116.726 E0.00862
G1 X106.892 Y116.462 E0.00862
G1 X107.017 Y116.217 E0.00862
G1 X107.185 Y116.000 E0.00862
G1 X107.391 Y115.818 E0.00862
G1 X107.628 Y115.678 E0.00862
G1 X107.890 Y115.584 E0.00872
G1 X108.244 Y115.539 E0.01119
G1 X108.524 Y115.565 E0.00881
G1 X108.788 Y115.642 E0.00863
G1 X109.033 Y115.767 E0.00862
G1 X109.250 Y115.935 E0.00863
G1 X109.436 Y116.146 E0.00881
G1 X109.607 Y116.459 E0.01119
G1 X109.685 Y116.726 E0.00873
G1 X109.711 Y117.000 E0.00862
G1 X109.685 Y117.274 E0.00862
G1 X109.607 Y117.541 E0.00873
G1 X109.463 Y117.804 E0.00939
G1 X109.550 Y118.109 F10800.000
G1 F8640
G1 X109.250 Y118.065 E-0.07785
G1 X109.033 Y118.233 E-0.06349
G1 X108.788 Y118.358 E-0.06348
G1 X108.524 Y118.435 E-0.06352
G1 X108.250 Y118.461 E-0.06348
G1 X107.976 Y118.435 E-0.06348
G1 X107.709 Y118.357 E-0.06427
G1 X107.396 Y118.186 E-0.08240
G1 X107.185 Y118.000 E-0.06489
G1 X107.017 Y117.783 E-0.06353
G1 X106.892 Y117.538 E-0.06348
G1 X106.860 Y117.429 E-0.02614
G1 E-0.04000 F2100.00000
G1 Z0.800 F10800.000
G1 X102.736 Y106.553
G1 Z0.200
G1 E0.80000 F2100.00000
G1 F1200
G1 X102.427 Y106.711 E0.01086
G1 X102.095 Y106.807 E0.01086
G1 X101.750 Y106.840 E0.01086
G1 X101.405 Y106.807 E0.01086
G1 X101.073 Y106.711 E0.01086
G1 X100.764 Y106.553 E0.01086
G1 X100.491 Y106.341 E0.01086
G1 X100.255 Y106.074 E0.01115
G1 X100.042 Y105.686 E0.01389
G1 X99.943 Y105.345 E0.01115
G1 X99.910 Y105.000 E0.01086
G1 X99.943 Y104.655 E0.01086
G1 X100.040 Y104.323 E0.01086
G1 X100.197 Y104.014 E0.01085
G1 X100.409 Y103.741 E0.01086
G1 X100.669 Y103.512 E0.01086
G1 X100.967 Y103.335 E0.01085
G1 X101.301 Y103.215 E0.01114
G1 X101.737 Y103.160 E0.01380
G1 X102.094 Y103.193 E0.01124
G1 X102.427 Y103.289 E0.01087
G1 X102.736 Y103.447 E0.01086
G1 X103.009 Y103.659 E0.01086
G1 X103.245 Y103.926 E0.01115
G1 X103.458 Y104.314 E0.01389
G1 X103.557 Y104.655 E0.01115
G1 X103.590 Y105.000 E0.01086
G1 X103.557 Y105.345 E0.01086
G1 X103.458 Y105.686 E0.01115
G1 X103.245 Y106.074 E0.01389
G1 X103.009 Y106.341 E0.01115
G1 X102.783 Y106.517 E0.00897
G1 X102.533 Y106.234 F10800.000
G1 F1200
G1 X102.288 Y106.358 E0.00862
G1 X102.024 Y106.435 E0.00862
G1 X101.750 Y106.461 E0.00862
G1 X101.476 Y106.435 E0.00862
G1 X101.212 Y106.358 E0.00862
G1 X100.967 Y106.234 E0.00862
G1 X100.750 Y106.065 E0.00862
G1 X100.566 Y105.856 E0.00873
G1 X100.393 Y105.541 E0.01128
G1 X100.315 Y105.274 E0.00873
G1 X100.289 Y105.000 E0.00862
G1 X100.315 Y104.726 E0.00862
G1 X100.392 Y104.462 E0.00862
G1 X100.516 Y104.217 E0.00862
G1 X100.685 Y104.000 E0.00862
G1 X100.891 Y103.818 E0.00862
G1 X101.128 Y103.678 E0.00862
G1 X101.390 Y103.584 E0.00872
G1 X101.744 Y103.539 E0.01119
G1 X102.024 Y103.565 E0.00881
G1 X102.288 Y103.642 E0.00863
G1 X102.533 Y103.766 E0.00862
G1 X102.750 Y103.935 E0.00862
G1 X102.934 Y104.144 E0.00873
G1 X103.107 Y104.459 E0.01128
G1 X103.185 Y104.726 E0.00873
G1 X103.211 Y105.000 E0.00862
G1 X103.185 Y105.274 E0.00862
G1 X103.107 Y105.541 E0.00873
G1 X102.934 Y105.856 E0.01128
G1 X102.750 Y106.065 E0.00873
G1 X102.580 Y106.197 E0.00674
G1 X102.544 Y106.508 F10800.000
G1 F8640
G1 X102.288 Y106.358 E-0.07714
G1 X102.024 Y106.435 E-0.06351
G1 X101.750 Y106.461 E-0.06348
G1 X101.476 Y106.435 E-0.06348
G1 X101.212 Y106.358 E-0.06351
G1 X100.967 Y106.234 E-0.06349
G1 X100.750 Y106.065 E-0.06349
G1 X100.566 Y105.856 E-0.06427
G1 X100.393 Y105.541 E-0.08305
G1 X100.315 Y105.274 E-0.06427
G1 X100.289 Y105.000 E-0.06349
G1 X100.300 Y104.884 E-0.02683
G1 E-0.04000 F2100.00000
G1 Z0.800 F10800.000
G1 X107.564 Y94.708
G1 Z0.200
G1 E0.80000 F2100.00000
G1 F1200
G1 X107.178 Y94.496 E0.01379
G1 X106.909 Y94.260 E0.01124
G1 X106.697 Y93.986 E0.01087
G1 X106.540 Y93.677 E0.01085
G1 X106.443 Y93.345 E0.01086
G1 X106.410 Y93.000 E0.01086
G1 X106.443 Y92.655 E0.01086
G1 X106.540 Y92.323 E0.01086
G1 X106.697 Y92.014 E0.01085
G1 X106.909 Y91.741 E0.01086
G1 X107.169 Y91.512 E0.01086
G1 X107.467 Y91.335 E0.01085
G1 X107.801 Y91.215 E0.01114
G1 X108.237 Y91.160 E0.01380
G1 X108.594 Y91.193 E0.01124
G1 X108.927 Y91.290 E0.01087
G1 X109.236 Y91.447 E0.01085
G1 X109.510 Y91.659 E0.01087
G1 X109.746 Y91.928 E0.01124
G1 X109.958 Y92.314 E0.01379
G1 X110.057 Y92.655 E0.01115
G1 X110.090 Y93.000 E0.01086
G1 X110.057 Y93.345 E0.01086
G1 X109.958 Y93.686 E0.01115
G1 X109.745 Y94.074 E0.01388
G1 X109.509 Y94.341 E0.01115
G1 X109.236 Y94.553 E0.01086
G1 X108.927 Y94.710 E0.01085
G1 X108.595 Y94.807 E0.01086
G1 X108.250 Y94.840 E0.01086
G1 X107.905 Y94.807 E0.01086
G1 X107.622 Y94.725 E0.00926
G1 X107.709 Y94.357 F10800.000
G1 F1200
G1 X107.396 Y94.186 E0.01119
G1 X107.185 Y94.000 E0.00881
G1 X107.017 Y93.783 E0.00863
G1 X106.892 Y93.538 E0.00862
G1 X106.815 Y93.274 E0.00862
G1 X106.789 Y93.000 E0.00862
G1 X106.815 Y92.726 E0.00862
G1 X106.892 Y92.462 E0.00862
G1 X107.017 Y92.217 E0.00862
G1 X107.185 Y92.000 E0.00862
G1 X107.391 Y91.818 E0.00862
G1 X107.628 Y91.678 E0.00862
G1 X107.890 Y91.584 E0.00872
G1 X108.244 Y91.539 E0.01119
G1 X108.524 Y91.565 E0.00881
G1 X108.788 Y91.642 E0.00863
G1 X109.033 Y91.767 E0.00862
G1 X109.250 Y91.935 E0.00863
G1 X109.436 Y92.146 E0.00881
G1 X109.607 Y92.459 E0.01119
G1 X109.685 Y92.726 E0.00873
G1 X109.711 Y93.000 E0.00862
G1 X109.685 Y93.274 E0.00862
G1 X109.607 Y93.541 E0.00873
G1 X109.434 Y93.856 E0.01127
G1 X109.250 Y94.065 E0.00873
G1 X109.033 Y94.233 E0.00862
G1 X108.788 Y94.358 E0.00862
G1 X108.524 Y94.435 E0.00862
G1 X108.250 Y94.461 E0.00862
G1 X107.976 Y94.435 E0.00862
G1 X107.767 Y94.374 E0.00685
G1 X107.425 Y94.573 F10800.000
G1 F8640
G1 X107.396 Y94.186 E-0.09597
G1 X107.185 Y94.000 E-0.06489
G1 X107.017 Y93.783 E-0.06353
G1 X106.892 Y93.538 E-0.06348
G1 X106.815 Y93.274 E-0.06352
G1 X106.789 Y93.000 E-0.06348
G1 X106.815 Y92.726 E-0.06348
G1 X106.892 Y92.462 E-0.06352
G1 X107.017 Y92.217 E-0.06348
G1 X107.185 Y92.000 E-0.06349
G1 X107.391 Y91.818 E-0.06350
G1 X107.494 Y91.757 E-0.02766
G1 E-0.04000 F2100.00000
G1 Z0.800 F10800.000
G1 X106.137 Y92.358
G1 Z0.200
G1 E0.80000 F2100.00000
G1 F1200
G1 X106.071 Y92.584 E0.00740
G1 X106.032 Y93.000 E0.01309
G1 X106.071 Y93.416 E0.01309
G1 X106.187 Y93.817 E0.01310
G1 X106.377 Y94.189 E0.01309
G1 X106.633 Y94.519 E0.01311
G1 X106.961 Y94.807 E0.01367
G1 X107.419 Y95.058 E0.01639
G1 X107.834 Y95.179 E0.01356
G1 X108.250 Y95.218 E0.01309
G1 X108.666 Y95.179 E0.01309
G1 X109.067 Y95.063 E0.01310
G1 X109.439 Y94.873 E0.01309
G1 X109.769 Y94.617 E0.01309
G1 X110.055 Y94.292 E0.01357
G1 X110.308 Y93.831 E0.01649
G1 X110.429 Y93.416 E0.01358
G1 X110.468 Y93.000 E0.01309
G1 X110.429 Y92.584 E0.01309
G1 X110.308 Y92.169 E0.01356
G1 X110.057 Y91.711 E0.01639
G1 X109.769 Y91.383 E0.01367
G1 X109.439 Y91.127 E0.01311
G1 X109.067 Y90.937 E0.01309
G1 X108.665 Y90.821 E0.01312
G1 X108.231 Y90.780 E0.01367
G1 X107.712 Y90.846 E0.01640
G1 X107.610 Y90.883 E0.00340
G1 X111.127 Y87.364 E0.15597
G1 X136.421 Y87.370 E0.79308
G1 X137.104 Y87.391 E0.02143
G1 X137.957 Y87.472 E0.02686
G1 X138.803 Y87.606 E0.02686
G1 X139.639 Y87.793 E0.02686
G1 X140.462 Y88.032 E0.02686
G1 X141.268 Y88.322 E0.02687
G1 X142.055 Y88.662 E0.02686
G1 X142.818 Y89.051 E0.02686
G1 X143.556 Y89.487 E0.02687
G1 X144.264 Y89.969 E0.02686
G1 X144.941 Y90.494 E0.02686
G1 X145.580 Y91.057 E0.02670
G1 X146.311 Y91.803 E0.03276
G1 X146.756 Y92.309 E0.02112
G1 X147.282 Y92.986 E0.02686
G1 X147.763 Y93.694 E0.02686
G1 X148.197 Y94.427 E0.02670
G1 X148.661 Y95.364 E0.03276
G1 X148.928 Y95.982 E0.02112
G1 X149.218 Y96.788 E0.02687
G1 X149.457 Y97.611 E0.02686
G1 X149.644 Y98.447 E0.02686
G1 X149.778 Y99.293 E0.02686
G1 X149.859 Y100.146 E0.02686
G1 X149.886 Y101.018 E0.02734
G1 X149.886 Y108.982 E0.24973
G1 X149.859 Y109.849 E0.02718
G1 X149.749 Y110.888 E0.03276
G1 X149.644 Y111.553 E0.02112
G1 X149.457 Y112.389 E0.02686
G1 X149.218 Y113.212 E0.02686
G1 X148.928 Y114.018 E0.02687
G1 X148.588 Y114.805 E0.02686
G1 X148.199 Y115.568 E0.02686
G1 X147.763 Y116.306 E0.02687
G1 X147.282 Y117.014 E0.02686
G1 X146.756 Y117.691 E0.02686
G1 X146.190 Y118.334 E0.02686
G1 X145.714 Y118.810 E0.02111
G1 X144.937 Y119.510 E0.03277
G1 X144.264 Y120.031 E0.02670
G1 X143.556 Y120.513 E0.02686
G1 X142.818 Y120.949 E0.02687
G1 X142.218 Y121.255 E0.02111
G1 X141.264 Y121.680 E0.03276
G1 X140.462 Y121.968 E0.02670
G1 X139.639 Y122.207 E0.02686
G1 X138.803 Y122.394 E0.02686
G1 X137.957 Y122.528 E0.02686
G1 X137.104 Y122.609 E0.02686
G1 X136.232 Y122.636 E0.02734
G1 X111.122 Y122.634 E0.78732
G1 X107.600 Y119.111 E0.15619
G1 X107.834 Y119.179 E0.00766
G1 X108.250 Y119.218 E0.01309
G1 X108.666 Y119.179 E0.01309
G1 X109.067 Y119.063 E0.01310
G1 X109.439 Y118.873 E0.01309
G1 X109.769 Y118.617 E0.01309
G1 X110.055 Y118.292 E0.01357
G1 X110.308 Y117.831 E0.01649
G1 X110.429 Y117.416 E0.01358
G1 X110.468 Y117.000 E0.01309
G1 X110.429 Y116.584 E0.01309
G1 X110.308 Y116.169 E0.01356
G1 X110.057 Y115.711 E0.01639
G1 X109.769 Y115.383 E0.01367
G1 X109.439 Y115.127 E0.01311
G1 X109.067 Y114.937 E0.01309
G1 X108.665 Y114.821 E0.01312
G1 X108.231 Y114.780 E0.01367
G1 X107.712 Y114.846 E0.01640
G1 X107.306 Y114.993 E0.01355
G1 X106.946 Y115.205 E0.01309
G1 X106.633 Y115.481 E0.01310
G1 X106.377 Y115.811 E0.01309
G1 X106.187 Y116.183 E0.01309
G1 X106.071 Y116.584 E0.01310
G1 X106.032 Y117.000 E0.01309
G1 X106.071 Y117.416 E0.01309
G1 X106.139 Y117.650 E0.00764
G1 X100.114 Y111.624 E0.26717
G1 X100.117 Y106.488 E0.16104
G1 X100.231 Y106.617 E0.00541
G1 X100.561 Y106.873 E0.01309
G1 X100.933 Y107.063 E0.01309
G1 X101.334 Y107.179 E0.01309
G1 X101.750 Y107.218 E0.01309
G1 X102.166 Y107.179 E0.01309
G1 X102.567 Y107.063 E0.01309
G1 X102.939 Y106.873 E0.01309
G1 X103.269 Y106.617 E0.01309
G1 X103.555 Y106.292 E0.01357
G1 X103.808 Y105.831 E0.01650
G1 X103.929 Y105.416 E0.01357
G1 X103.968 Y105.000 E0.01309
G1 X103.929 Y104.584 E0.01309
G1 X103.808 Y104.169 E0.01357
G1 X103.555 Y103.708 E0.01650
G1 X103.269 Y103.383 E0.01357
G1 X102.939 Y103.127 E0.01309
G1 X102.567 Y102.937 E0.01309
G1 X102.165 Y102.821 E0.01312
G1 X101.731 Y102.780 E0.01366
G1 X101.212 Y102.846 E0.01640
G1 X100.805 Y102.993 E0.01356
G1 X100.446 Y103.205 E0.01309
G1 X100.119 Y103.499 E0.01380
G1 X100.122 Y98.377 E0.16062
G1 X106.094 Y92.400 E0.26493
G1 F8640
G1 X106.071 Y92.584 E-0.04291
G1 X106.032 Y93.000 E-0.09641
G1 X106.071 Y93.416 E-0.09641
G1 X106.187 Y93.817 E-0.09645
G1 X106.377 Y94.189 E-0.09639
G1 X106.633 Y94.519 E-0.09657
G1 X106.961 Y94.807 E-0.10064
G1 X107.419 Y95.058 E-0.12071
G1 X107.475 Y95.075 E-0.01352
G1 E-0.04000 F2100.00000
G1 Z0.800 F10800.000
G1 X110.970 Y86.987
G1 Z0.200
G1 E0.80000 F2100.00000
G1 F1200
G1 X136.427 Y86.993 E0.79817
G1 X137.128 Y87.015 E0.02199
G1 X138.004 Y87.098 E0.02761
G1 X138.874 Y87.235 E0.02761
G1 X139.733 Y87.427 E0.02761
G1 X140.579 Y87.673 E0.02761
G1 X141.407 Y87.971 E0.02761
G1 X142.215 Y88.321 E0.02761
G1 X143.000 Y88.720 E0.02761
G1 X143.758 Y89.168 E0.02761
G1 X144.486 Y89.663 E0.02761
G1 X145.182 Y90.203 E0.02761
G1 X145.840 Y90.783 E0.02751
G1 X146.587 Y91.547 E0.03351
G1 X147.047 Y92.068 E0.02180
G1 X147.587 Y92.764 E0.02761
G1 X148.082 Y93.492 E0.02761
G1 X148.528 Y94.247 E0.02751
G1 X149.003 Y95.205 E0.03351
G1 X149.279 Y95.843 E0.02179
G1 X149.577 Y96.671 E0.02761
G1 X149.823 Y97.517 E0.02761
G1 X150.015 Y98.376 E0.02761
G1 X150.152 Y99.246 E0.02761
G1 X150.235 Y100.122 E0.02761
G1 X150.263 Y101.012 E0.02790
G1 X150.263 Y108.988 E0.25010
G1 X150.235 Y109.874 E0.02780
G1 X150.123 Y110.937 E0.03351
G1 X150.015 Y111.624 E0.02180
G1 X149.823 Y112.483 E0.02761
G1 X149.577 Y113.329 E0.02761
G1 X149.279 Y114.157 E0.02761
G1 X148.929 Y114.965 E0.02761
G1 X148.530 Y115.750 E0.02761
G1 X148.082 Y116.508 E0.02761
G1 X147.587 Y117.236 E0.02761
G1 X147.047 Y117.932 E0.02761
G1 X146.465 Y118.592 E0.02761
G1 X145.973 Y119.084 E0.02179
G1 X145.179 Y119.799 E0.03351
G1 X144.486 Y120.337 E0.02751
G1 X143.758 Y120.832 E0.02761
G1 X143.000 Y121.280 E0.02761
G1 X142.380 Y121.595 E0.02179
G1 X141.404 Y122.030 E0.03351
G1 X140.579 Y122.327 E0.02751
G1 X139.733 Y122.573 E0.02761
G1 X138.874 Y122.765 E0.02761
G1 X138.004 Y122.902 E0.02761
G1 X137.128 Y122.985 E0.02761
