; generated by PrusaSlicer 2.0.0+win64 on 2019-09-06 at 09:56:14

; 

; external perimeters extrusion width = 0.45mm
; perimeters extrusion width = 0.45mm
; infill extrusion width = 0.45mm
; solid infill extrusion width = 0.45mm
; top infill extrusion width = 0.40mm
; first layer extrusion width = 0.42mm

M73 P0 R13
M73 Q0 S13
M201 X1000 Y1000 Z1000 E5000 ; sets maximum accelerations, mm/sec^2
M203 X200 Y200 Z12 E120 ; sets maximum feedrates, mm/sec
M204 P1250 R1250 T1250 ; sets acceleration (P, T) and retract acceleration (R), mm/sec^2
M205 X8.00 Y8.00 Z0.40 E1.50 ; sets the jerk limits, mm/sec
M205 S0 T0 ; sets the minimum extruding and travel feed rate, mm/sec
M107
M115 U3.7.2 ; tell printer latest fw version
G90 ; use absolute coordinates
M83 ; extruder relative mode
M104 S240 ; set extruder temp
M140 S85 ; set bed temp
Tx
M190 S85 ; wait for bed temp
M109 S240 ; wait for extruder temp
G28 W ; home all without mesh bed level
G80 ; mesh bed leveling

G21 ; set units to millimeters

;go outside print area
G1 Y-3.0 F1000.0
G1 Z0.4 F1000.0
; select extruder
Tc
; purge line
G1 X55.0 F2000.0
G1 Z0.3 F1000.0
G92 E0.0
G1 X240.0 E25.0 F2200.0
M73 Q0 S13
M73 P0 R13
G1 Y-2.0 F1000.0
G1 X55.0 E25 F1400.0
G1 Z0.20 F1000.0
G1 X5.0 E4.0 F1000.0

M221 S95
G92 E0.0
M900 K45 ; Filament gcode
G21 ; set units to millimeters
G90 ; use absolute coordinates
M83 ; use relative distances for extrusion
;BEFORE_LAYER_CHANGE
G92 E0.0
;0.2


G1 E-0.80000 F2100.00000
G1 Z0.600 F10800.000
;AFTER_LAYER_CHANGE
;0.2
G1 X134.261 Y131.224
G1 Z0.200
G1 E0.80000 F2100.00000
M204 S1000
G1 F1200
G1 X132.554 Y131.079 E0.05372
G1 X131.034 Y130.790 E0.04850
G1 X128.385 Y130.017 E0.08653
G1 X126.988 Y129.463 E0.04713
G1 X125.596 Y128.797 E0.04838
G1 X123.253 Y127.391 E0.08566
G1 X122.030 Y126.492 E0.04763
G1 X120.876 Y125.516 E0.04738
G1 X118.957 Y123.554 E0.08603
G1 X117.999 Y122.371 E0.04774
G1 X117.124 Y121.124 E0.04775
G1 X115.770 Y118.751 E0.08567
G1 X115.145 Y117.367 E0.04762
G1 X114.614 Y115.938 E0.04781
G1 X113.906 Y113.301 E0.08560
G1 X113.643 Y111.737 E0.04974
G1 X113.449 Y109.003 E0.08591
G1 X113.485 Y107.477 E0.04787
G1 X113.822 Y104.694 E0.08790
G1 X114.161 Y103.153 E0.04948
G1 X115.019 Y100.509 E0.08715
G1 X121.603 Y83.211 E0.58031
G1 X122.091 Y82.321 E0.03184
G1 X122.706 Y81.489 E0.03244
G1 X123.633 Y80.566 E0.04102
G1 X124.465 Y79.957 E0.03232
G1 X125.331 Y79.483 E0.03096
G1 X126.295 Y79.111 E0.03241
G1 X127.566 Y78.830 E0.04081
G1 X128.599 Y78.761 E0.03244
G1 X130.042 Y78.900 E0.04547
G1 X131.423 Y79.303 E0.04510
G1 X132.716 Y79.961 E0.04547
G1 X133.818 Y80.810 E0.04362
G1 X134.780 Y81.884 E0.04522
G1 X135.380 Y82.832 E0.03517
G1 X135.925 Y84.116 E0.04374
G1 X136.238 Y85.556 E0.04621
G1 X136.552 Y121.094 E1.11430
G1 X136.550 Y128.784 E0.24111
G1 X136.350 Y129.671 E0.02851
G1 X135.856 Y130.430 E0.02839
G1 X135.130 Y130.970 E0.02839
G1 X134.318 Y131.207 E0.02651
G1 X134.222 Y130.849 F10800.000
G1 F1200
G1 X132.599 Y130.705 E0.05111
G1 X131.118 Y130.422 E0.04726
G1 X128.502 Y129.659 E0.08544
G1 X127.132 Y129.115 E0.04623
G1 X125.779 Y128.467 E0.04704
G1 X123.458 Y127.075 E0.08486
G1 X122.261 Y126.194 E0.04658
G1 X121.133 Y125.239 E0.04635
G1 X119.235 Y123.300 E0.08509
G1 X118.301 Y122.145 E0.04657
G1 X117.444 Y120.925 E0.04673
G1 X116.104 Y118.575 E0.08483
G1 X115.494 Y117.225 E0.04646
G1 X114.974 Y115.828 E0.04673
G1 X114.273 Y113.215 E0.08482
G1 X114.017 Y111.696 E0.04830
G1 X113.826 Y108.989 E0.08509
G1 X113.862 Y107.497 E0.04680
G1 X114.194 Y104.752 E0.08670
G1 X114.525 Y103.252 E0.04817
G1 X115.371 Y100.642 E0.08601
G1 X121.943 Y83.375 E0.57930
G1 X122.408 Y82.526 E0.03035
G1 X122.989 Y81.738 E0.03068
G1 X123.878 Y80.852 E0.03936
G1 X124.665 Y80.276 E0.03057
G1 X125.488 Y79.826 E0.02943
G1 X126.400 Y79.473 E0.03064
G1 X127.624 Y79.202 E0.03929
G1 X128.600 Y79.138 E0.03068
G1 X129.970 Y79.270 E0.04313
G1 X131.287 Y79.654 E0.04302
G1 X132.516 Y80.281 E0.04325
G1 X133.565 Y81.090 E0.04153
G1 X134.284 Y81.859 E0.03304
G1 X135.044 Y83.003 E0.04306
G1 X135.565 Y84.229 E0.04176
G1 X135.863 Y85.594 E0.04382
G1 X136.175 Y121.097 E1.11319
G1 X136.174 Y128.753 E0.24007
G1 X136.009 Y129.510 E0.02428
G1 X135.588 Y130.165 E0.02439
G1 X134.969 Y130.629 E0.02428
G1 X134.280 Y130.832 E0.02251
G1 F8640
G1 X132.599 Y130.705 E-0.38931
G1 X131.118 Y130.422 E-0.34807
G1 X131.024 Y130.395 E-0.02262
G1 E-0.04000 F2100.00000
G1 Z0.800 F10800.000
G1 X129.788 Y88.152
G1 Z0.200
G1 E0.80000 F2100.00000
G1 F1200
G1 X129.363 Y88.386 E0.01523
G1 X128.971 Y88.499 E0.01277
G1 X128.583 Y88.535 E0.01223
G1 X128.196 Y88.498 E0.01221
G1 X127.822 Y88.389 E0.01221
G1 X127.475 Y88.211 E0.01221
G1 X127.168 Y87.972 E0.01221
G1 X126.911 Y87.680 E0.01221
G1 X126.714 Y87.344 E0.01221
G1 X126.577 Y86.963 E0.01269
G1 X126.517 Y86.479 E0.01532
G1 X126.556 Y86.076 E0.01269
G1 X126.665 Y85.702 E0.01221
G1 X126.842 Y85.356 E0.01221
G1 X127.081 Y85.048 E0.01221
G1 X127.374 Y84.791 E0.01221
G1 X127.709 Y84.594 E0.01221
G1 X128.090 Y84.458 E0.01267
G1 X128.572 Y84.397 E0.01523
G1 X128.977 Y84.436 E0.01277
G1 X129.351 Y84.545 E0.01223
G1 X129.698 Y84.722 E0.01221
G1 X130.005 Y84.962 E0.01221
G1 X130.263 Y85.255 E0.01223
G1 X130.469 Y85.606 E0.01277
G1 X130.618 Y86.068 E0.01523
G1 X130.655 Y86.471 E0.01267
G1 X130.618 Y86.858 E0.01221
G1 X130.509 Y87.232 E0.01221
G1 X130.331 Y87.578 E0.01221
G1 X130.092 Y87.886 E0.01221
G1 X129.833 Y88.113 E0.01079
G1 X129.571 Y87.842 F10800.000
G1 F1200
G1 X129.218 Y88.035 E0.01263
G1 X128.901 Y88.127 E0.01034
G1 X128.584 Y88.157 E0.00998
G1 X128.267 Y88.126 E0.00997
G1 X127.962 Y88.037 E0.00997
G1 X127.679 Y87.892 E0.00997
G1 X127.428 Y87.697 E0.00997
G1 X127.218 Y87.458 E0.00997
G1 X127.057 Y87.184 E0.00997
G1 X126.946 Y86.876 E0.01026
G1 X126.896 Y86.473 E0.01271
G1 X126.927 Y86.147 E0.01026
G1 X127.017 Y85.842 E0.00997
G1 X127.162 Y85.559 E0.00997
G1 X127.357 Y85.308 E0.00997
G1 X127.596 Y85.098 E0.00997
G1 X127.870 Y84.937 E0.00997
G1 X128.178 Y84.827 E0.01026
G1 X128.577 Y84.776 E0.01263
G1 X128.906 Y84.808 E0.01034
G1 X129.211 Y84.897 E0.00998
G1 X129.495 Y85.042 E0.00997
G1 X129.745 Y85.237 E0.00997
G1 X129.956 Y85.476 E0.00998
G1 X130.123 Y85.761 E0.01034
G1 X130.246 Y86.144 E0.01263
G1 X130.276 Y86.470 E0.01026
G1 X130.246 Y86.786 E0.00997
G1 X130.157 Y87.092 E0.00997
G1 X130.012 Y87.375 E0.00997
G1 X129.816 Y87.626 E0.00997
G1 X129.616 Y87.802 E0.00838
G1 X129.353 Y87.531 F10800.000
G1 F1200
G1 X129.073 Y87.685 E0.01002
G1 X128.830 Y87.755 E0.00792
G1 X128.584 Y87.778 E0.00774
G1 X128.339 Y87.754 E0.00774
G1 X128.102 Y87.685 E0.00774
G1 X127.882 Y87.573 E0.00774
G1 X127.688 Y87.421 E0.00774
G1 X127.525 Y87.236 E0.00774
G1 X127.400 Y87.023 E0.00774
G1 X127.315 Y86.788 E0.00784
G1 X127.275 Y86.468 E0.01010
G1 X127.299 Y86.219 E0.00784
G1 X127.369 Y85.982 E0.00774
G1 X127.481 Y85.763 E0.00774
G1 X127.633 Y85.568 E0.00774
G1 X127.818 Y85.405 E0.00774
G1 X128.031 Y85.280 E0.00774
G1 X128.266 Y85.196 E0.00784
G1 X128.583 Y85.156 E0.01002
G1 X128.834 Y85.180 E0.00791
G1 X129.071 Y85.249 E0.00774
G1 X129.291 Y85.361 E0.00774
G1 X129.486 Y85.513 E0.00774
G1 X129.649 Y85.698 E0.00774
G1 X129.776 Y85.916 E0.00792
G1 X129.874 Y86.220 E0.01002
G1 X129.898 Y86.469 E0.00784
G1 X129.874 Y86.715 E0.00774
G1 X129.805 Y86.952 E0.00774
G1 X129.692 Y87.171 E0.00774
G1 X129.541 Y87.366 E0.00774
G1 X129.398 Y87.491 E0.00596
G1 X129.379 Y87.850 F10800.000
G1 F8640
G1 X129.073 Y87.685 E-0.08739
G1 X128.830 Y87.755 E-0.05829
G1 X128.584 Y87.778 E-0.05701
G1 X128.339 Y87.754 E-0.05697
G1 X128.102 Y87.685 E-0.05697
G1 X127.882 Y87.573 E-0.05697
G1 X127.688 Y87.421 E-0.05697
G1 X127.525 Y87.236 E-0.05697
G1 X127.400 Y87.023 E-0.05697
G1 X127.315 Y86.788 E-0.05774
G1 X127.275 Y86.468 E-0.07437
G1 X127.299 Y86.219 E-0.05774
G1 X127.331 Y86.113 E-0.02562
G1 E-0.04000 F2100.00000
G1 Z0.800 F10800.000
G1 X130.679 Y89.682
G1 Z0.200
G1 E0.80000 F2100.00000
G1 F1200
G1 X130.716 Y89.891 E0.00665
G1 X123.904 Y101.956 E0.43444
G1 X123.472 Y102.870 E0.03168
G1 X123.125 Y103.669 E0.02733
G1 X122.824 Y104.504 E0.02782
G1 X122.578 Y105.356 E0.02781
G1 X122.386 Y106.223 E0.02781
G1 X122.251 Y107.099 E0.02782
G1 X122.171 Y107.983 E0.02781
G1 X122.149 Y108.870 E0.02782
G1 X122.183 Y109.756 E0.02781
G1 X122.273 Y110.639 E0.02781
G1 X122.420 Y111.513 E0.02782
G1 X122.623 Y112.377 E0.02782
G1 X122.880 Y113.226 E0.02781
G1 X123.193 Y114.062 E0.02797
G1 X123.632 Y115.012 E0.03282
G1 X123.970 Y115.650 E0.02264
G1 X124.434 Y116.406 E0.02782
G1 X124.945 Y117.131 E0.02782
G1 X125.502 Y117.822 E0.02781
G1 X126.101 Y118.476 E0.02782
G1 X126.742 Y119.090 E0.02781
G1 X127.420 Y119.662 E0.02782
G1 X128.133 Y120.189 E0.02781
G1 X128.879 Y120.669 E0.02781
G1 X129.654 Y121.101 E0.02782
G1 X130.455 Y121.483 E0.02782
G1 X131.279 Y121.812 E0.02782
G1 X132.122 Y122.088 E0.02781
G1 X132.622 Y122.217 E0.01622
G1 X132.622 Y127.096 E0.15296
G1 X131.937 Y126.965 E0.02188
G1 X130.783 Y126.667 E0.03739
G1 X129.649 Y126.296 E0.03739
G1 X128.542 Y125.853 E0.03739
G1 X127.466 Y125.341 E0.03739
G1 X126.424 Y124.760 E0.03739
G1 X125.422 Y124.114 E0.03739
G1 X124.463 Y123.405 E0.03739
G1 X123.551 Y122.637 E0.03739
G1 X122.691 Y121.812 E0.03739
G1 X121.885 Y120.933 E0.03739
G1 X121.137 Y120.005 E0.03738
G1 X120.449 Y119.030 E0.03739
G1 X119.826 Y118.014 E0.03739
G1 X119.268 Y116.960 E0.03739
G1 X118.780 Y115.872 E0.03738
G1 X118.361 Y114.756 E0.03739
G1 X118.015 Y113.615 E0.03739
G1 X117.743 Y112.454 E0.03738
G1 X117.546 Y111.278 E0.03739
G1 X117.424 Y110.092 E0.03739
G1 X117.378 Y108.900 E0.03738
G1 X117.408 Y107.708 E0.03739
G1 X117.515 Y106.521 E0.03739
G1 X117.746 Y105.123 E0.04443
G1 X117.955 Y104.178 E0.03033
G1 X118.286 Y103.033 E0.03739
G1 X118.690 Y101.911 E0.03739
G1 X119.171 Y100.803 E0.03787
G1 X119.590 Y99.917 E0.03071
G1 X124.589 Y86.995 E0.43445
G1 X124.774 Y86.891 E0.00665
G1 X124.842 Y85.993 E0.02823
G1 X124.936 Y85.507 E0.01551
G1 X124.994 Y85.309 E0.00649
G1 X125.175 Y84.854 E0.01534
G1 X125.411 Y84.426 E0.01534
G1 X125.528 Y84.255 E0.00649
G1 X125.840 Y83.879 E0.01534
G1 X126.186 Y83.555 E0.01486
G1 X126.582 Y83.268 E0.01534
G1 X126.761 Y83.163 E0.00649
G1 X127.203 Y82.956 E0.01534
G1 X127.654 Y82.810 E0.01486
G1 X128.135 Y82.719 E0.01534
G1 X128.343 Y82.700 E0.00654
G1 X128.788 Y82.699 E0.01396
G1 X129.057 Y82.722 E0.00845
G1 X129.546 Y82.816 E0.01564
G1 X129.745 Y82.874 E0.00649
G1 X130.199 Y83.055 E0.01534
G1 X130.628 Y83.291 E0.01534
G1 X130.799 Y83.408 E0.00649
G1 X131.175 Y83.720 E0.01534
G1 X131.505 Y84.074 E0.01517
G1 X131.668 Y84.289 E0.00845
G1 X131.896 Y84.653 E0.01348
G1 X132.098 Y85.084 E0.01492
G1 X132.244 Y85.537 E0.01492
G1 X132.326 Y85.959 E0.01348
G1 X132.354 Y86.227 E0.00845
G1 X132.353 Y86.710 E0.01517
G1 X132.293 Y87.181 E0.01486
G1 X132.174 Y87.639 E0.01486
G1 X131.993 Y88.094 E0.01534
G1 X131.746 Y88.530 E0.01571
G1 X131.483 Y88.889 E0.01396
G1 X131.341 Y89.049 E0.00671
G1 X130.722 Y89.641 E0.02684
G1 F8640
G1 X130.716 Y89.891 E-0.05782
G1 X129.221 Y92.539 E-0.70218
G1 E-0.04000 F2100.00000
G1 Z0.800 F10800.000
G1 X133.000 Y121.925
G1 Z0.200
G1 E0.80000 F2100.00000
G1 F1200
G1 X133.000 Y127.552 E0.17641
G1 X131.855 Y127.333 E0.03655
G1 X130.677 Y127.029 E0.03814
G1 X129.521 Y126.651 E0.03814
G1 X128.391 Y126.199 E0.03814
G1 X127.293 Y125.676 E0.03814
G1 X126.230 Y125.084 E0.03814
G1 X125.208 Y124.425 E0.03814
G1 X124.229 Y123.702 E0.03814
G1 X123.299 Y122.917 E0.03814
G1 X122.421 Y122.075 E0.03814
G1 X121.599 Y121.179 E0.03814
G1 X120.835 Y120.232 E0.03814
G1 X120.134 Y119.238 E0.03814
G1 X119.498 Y118.201 E0.03814
G1 X118.929 Y117.125 E0.03814
G1 X118.832 Y116.909 E0.00744
G1 X118.431 Y116.016 E0.03071
G1 X118.004 Y114.877 E0.03814
G1 X117.651 Y113.712 E0.03814
G1 X117.373 Y112.528 E0.03814
G1 X117.172 Y111.328 E0.03814
G1 X117.047 Y110.118 E0.03814
G1 X117.001 Y108.903 E0.03814
G1 X117.032 Y107.686 E0.03814
G1 X117.141 Y106.475 E0.03814
G1 X117.327 Y105.273 E0.03814
G1 X117.589 Y104.085 E0.03814
G1 X117.927 Y102.916 E0.03814
G1 X118.339 Y101.772 E0.03814
G1 X118.828 Y100.647 E0.03844
G1 X119.243 Y99.768 E0.03047
G1 X124.287 Y86.732 E0.43826
G1 X124.413 Y86.661 E0.00456
G1 X124.468 Y85.943 E0.02259
G1 X124.569 Y85.418 E0.01674
G1 X124.637 Y85.186 E0.00760
G1 X124.833 Y84.693 E0.01664
G1 X125.090 Y84.228 E0.01664
G1 X125.226 Y84.028 E0.00760
G1 X125.565 Y83.620 E0.01664
G1 X125.946 Y83.263 E0.01635
G1 X126.376 Y82.952 E0.01664
G1 X126.585 Y82.829 E0.00760
G1 X127.065 Y82.604 E0.01664
G1 X127.561 Y82.444 E0.01635
G1 X128.083 Y82.345 E0.01664
G1 X128.325 Y82.323 E0.00764
G1 X128.804 Y82.322 E0.01501
G1 X129.108 Y82.348 E0.00959
G1 X129.635 Y82.449 E0.01682
G1 X129.868 Y82.517 E0.00760
G1 X130.361 Y82.713 E0.01664
G1 X130.825 Y82.970 E0.01664
G1 X131.026 Y83.106 E0.00760
G1 X131.434 Y83.445 E0.01664
G1 X131.794 Y83.830 E0.01653
G1 X131.979 Y84.074 E0.00959
G1 X132.228 Y84.472 E0.01472
G1 X132.450 Y84.945 E0.01638
G1 X132.610 Y85.443 E0.01638
G1 X132.699 Y85.903 E0.01472
G1 X132.731 Y86.208 E0.00959
G1 X132.730 Y86.735 E0.01653
G1 X132.664 Y87.252 E0.01635
G1 X132.533 Y87.757 E0.01635
G1 X132.337 Y88.250 E0.01664
G1 X132.224 Y88.471 E0.00779
G1 X132.060 Y88.740 E0.00988
G1 X131.776 Y89.126 E0.01501
G1 X131.613 Y89.310 E0.00774
G1 X131.085 Y89.815 E0.02288
G1 X131.111 Y89.958 E0.00457
G1 X124.239 Y102.130 E0.43826
G1 X123.815 Y103.026 E0.03106
G1 X123.476 Y103.809 E0.02676
G1 X123.183 Y104.621 E0.02706
G1 X122.943 Y105.450 E0.02706
G1 X122.757 Y106.292 E0.02706
G1 X122.625 Y107.145 E0.02706
G1 X122.548 Y108.004 E0.02706
G1 X122.526 Y108.867 E0.02706
G1 X122.559 Y109.730 E0.02706
G1 X122.647 Y110.588 E0.02706
G1 X122.790 Y111.439 E0.02706
G1 X122.987 Y112.279 E0.02706
G1 X123.238 Y113.105 E0.02706
G1 X123.541 Y113.916 E0.02716
G1 X123.970 Y114.845 E0.03207
G1 X124.297 Y115.463 E0.02195
G1 X124.749 Y116.199 E0.02706
G1 X125.246 Y116.904 E0.02706
G1 X125.788 Y117.576 E0.02706
G1 X126.371 Y118.212 E0.02706
G1 X126.994 Y118.809 E0.02706
G1 X127.654 Y119.366 E0.02706
G1 X128.348 Y119.878 E0.02706
G1 X129.073 Y120.346 E0.02706
G1 X129.827 Y120.766 E0.02706
G1 X130.606 Y121.137 E0.02706
G1 X131.407 Y121.458 E0.02706
G1 X132.227 Y121.726 E0.02706
G1 X132.941 Y121.910 E0.02312
G1 X133.377 Y121.618 F10800.000
G1 F1200
G1 X133.377 Y127.982 E0.19955
G1 X132.991 Y127.934 E0.01219
G1 X131.772 Y127.701 E0.03890
G1 X130.571 Y127.391 E0.03890
G1 X129.392 Y127.005 E0.03890
G1 X128.240 Y126.545 E0.03890
G1 X127.120 Y126.011 E0.03890
G1 X126.036 Y125.407 E0.03890
G1 X124.993 Y124.735 E0.03890
G1 X123.995 Y123.998 E0.03890
G1 X123.047 Y123.198 E0.03890
G1 X122.151 Y122.339 E0.03890
G1 X121.313 Y121.425 E0.03890
G1 X120.534 Y120.459 E0.03890
G1 X119.819 Y119.445 E0.03890
G1 X119.170 Y118.388 E0.03890
G1 X118.590 Y117.291 E0.03890
G1 X118.082 Y116.159 E0.03890
G1 X117.647 Y114.998 E0.03890
G1 X117.287 Y113.810 E0.03890
G1 X117.003 Y112.602 E0.03890
G1 X116.798 Y111.379 E0.03890
G1 X116.671 Y110.145 E0.03890
G1 X116.623 Y108.905 E0.03890
G1 X116.655 Y107.665 E0.03890
G1 X116.766 Y106.429 E0.03890
G1 X116.956 Y105.203 E0.03890
G1 X117.224 Y103.992 E0.03890
G1 X117.569 Y102.800 E0.03890
G1 X117.989 Y101.633 E0.03890
G1 X118.484 Y100.491 E0.03900
G1 X118.896 Y99.620 E0.03023
G1 X123.984 Y86.470 E0.44208
G1 X124.053 Y86.431 E0.00248
G1 X124.094 Y85.893 E0.01694
G1 X124.202 Y85.330 E0.01798
G1 X124.280 Y85.063 E0.00872
G1 X124.492 Y84.531 E0.01794
G1 X124.768 Y84.030 E0.01794
G1 X124.925 Y83.801 E0.00872
G1 X125.290 Y83.360 E0.01794
G1 X125.705 Y82.972 E0.01784
G1 X126.169 Y82.636 E0.01794
G1 X126.408 Y82.495 E0.00872
G1 X126.927 Y82.253 E0.01794
G1 X127.468 Y82.078 E0.01784
G1 X128.030 Y81.971 E0.01794
G1 X128.307 Y81.946 E0.00873
G1 X128.819 Y81.945 E0.01606
G1 X129.160 Y81.974 E0.01072
G1 X129.724 Y82.082 E0.01801
G1 X129.991 Y82.160 E0.00872
G1 X130.522 Y82.372 E0.01794
G1 X131.023 Y82.648 E0.01794
G1 X131.253 Y82.805 E0.00872
G1 X131.693 Y83.170 E0.01794
G1 X132.083 Y83.587 E0.01790
G1 X132.289 Y83.860 E0.01072
G1 X132.560 Y84.291 E0.01595
G1 X132.801 Y84.807 E0.01785
G1 X132.976 Y85.349 E0.01785
G1 X133.072 Y85.848 E0.01595
G1 X133.108 Y86.188 E0.01072
G1 X133.107 Y86.759 E0.01790
