; generated by PrusaSlicer 2.0.0+win64 on 2019-09-07 at 19:59:14

; 

; external perimeters extrusion width = 0.45mm
; perimeters extrusion width = 0.45mm
; infill extrusion width = 0.45mm
; solid infill extrusion width = 0.45mm
; top infill extrusion width = 0.40mm
; first layer extrusion width = 0.42mm

M73 P0 R16
M73 Q0 S16
M201 X1000 Y1000 Z1000 E5000 ; sets maximum accelerations, mm/sec^2
M203 X200 Y200 Z12 E120 ; sets maximum feedrates, mm/sec
M204 P1250 R1250 T1250 ; sets acceleration (P, T) and retract acceleration (R), mm/sec^2
M205 X8.00 Y8.00 Z0.40 E1.50 ; sets the jerk limits, mm/sec
M205 S0 T0 ; sets the minimum extruding and travel feed rate, mm/sec
M107
M115 U3.7.2 ; tell printer latest fw version
G90 ; use absolute coordinates
M83 ; extruder relative mode
M104 S240 ; set extruder temp
M140 S85 ; set bed temp
Tx
M190 S85 ; wait for bed temp
M109 S240 ; wait for extruder temp
G28 W ; home all without mesh bed level
G80 ; mesh bed leveling

G21 ; set units to millimeters

;go outside print area
G1 Y-3.0 F1000.0
G1 Z0.4 F1000.0
; select extruder
Tc
; purge line
G1 X55.0 F2000.0
G1 Z0.3 F1000.0
G92 E0.0
G1 X240.0 E25.0 F2200.0
M73 Q0 S16
M73 P0 R16
G1 Y-2.0 F1000.0
G1 X55.0 E25 F1400.0
G1 Z0.20 F1000.0
G1 X5.0 E4.0 F1000.0

M221 S95
G92 E0.0
M900 K45 ; Filament gcode
G21 ; set units to millimeters
G90 ; use absolute coordinates
M83 ; use relative distances for extrusion
;BEFORE_LAYER_CHANGE
G92 E0.0
;0.2


G1 E-0.80000 F2100.00000
G1 Z0.600 F10800.000
;AFTER_LAYER_CHANGE
;0.2
G1 X103.295 Y96.478
G1 Z0.200
G1 E0.80000 F2100.00000
M204 S1000
G1 F1200
G1 X115.138 Y84.576 E0.52646
G1 X115.647 Y84.186 E0.02010
G1 X116.219 Y83.932 E0.01964
G1 X117.008 Y83.811 E0.02502
G1 X145.004 Y83.811 E0.87777
G1 X145.817 Y83.970 E0.02597
G1 X146.515 Y84.421 E0.02608
G1 X146.995 Y85.101 E0.02608
G1 X147.187 Y85.906 E0.02597
G1 X147.188 Y124.022 E1.19508
G1 X147.083 Y124.672 E0.02066
G1 X146.788 Y125.262 E0.02066
G1 X146.444 Y125.644 E0.01612
G1 X146.021 Y125.936 E0.01612
G1 X145.541 Y126.121 E0.01612
G1 X145.031 Y126.188 E0.01612
G1 X116.979 Y126.188 E0.87955
G1 X116.185 Y126.057 E0.02526
G1 X115.478 Y125.705 E0.02474
G1 X103.586 Y113.872 E0.52601
G1 X103.018 Y113.018 E0.03216
G1 X102.812 Y112.014 E0.03214
G1 X102.812 Y97.979 E0.44005
G1 X102.943 Y97.185 E0.02525
G1 X103.268 Y96.532 E0.02287
G1 F8640
G1 X105.587 Y94.196 E-0.76000
G1 E-0.04000 F2100.00000
G1 Z0.800 F10800.000
G1 X116.054 Y117.985
G1 Z0.200
G1 E0.80000 F2100.00000
G1 F1200
G1 X115.841 Y118.259 E0.01087
G1 X115.581 Y118.488 E0.01086
G1 X115.283 Y118.665 E0.01085
G1 X114.958 Y118.782 E0.01085
G1 X114.606 Y118.837 E0.01115
G1 X114.164 Y118.810 E0.01389
G1 X113.823 Y118.710 E0.01115
G1 X113.514 Y118.553 E0.01085
G1 X113.241 Y118.341 E0.01086
G1 X113.012 Y118.081 E0.01086
G1 X112.835 Y117.783 E0.01085
G1 X112.718 Y117.458 E0.01085
G1 X112.663 Y117.107 E0.01114
G1 X112.690 Y116.668 E0.01379
G1 X112.788 Y116.326 E0.01115
G1 X112.946 Y116.015 E0.01096
G1 X113.159 Y115.741 E0.01087
G1 X113.419 Y115.512 E0.01086
G1 X113.717 Y115.335 E0.01085
G1 X114.043 Y115.218 E0.01087
G1 X114.397 Y115.162 E0.01124
G1 X114.836 Y115.190 E0.01379
G1 X115.177 Y115.290 E0.01115
G1 X115.486 Y115.447 E0.01085
G1 X115.759 Y115.659 E0.01086
G1 X115.988 Y115.919 E0.01086
G1 X116.165 Y116.217 E0.01085
G1 X116.282 Y116.542 E0.01085
G1 X116.337 Y116.893 E0.01114
G1 X116.310 Y117.332 E0.01379
G1 X116.212 Y117.674 E0.01115
G1 X116.081 Y117.932 E0.00907
G1 X115.734 Y117.783 F10800.000
G1 F1200
G1 X115.565 Y118.000 E0.00863
G1 X115.359 Y118.182 E0.00862
G1 X115.122 Y118.322 E0.00862
G1 X114.863 Y118.415 E0.00862
G1 X114.588 Y118.459 E0.00873
G1 X114.229 Y118.436 E0.01128
G1 X113.962 Y118.358 E0.00873
G1 X113.717 Y118.233 E0.00862
G1 X113.500 Y118.065 E0.00862
G1 X113.318 Y117.859 E0.00862
G1 X113.178 Y117.622 E0.00862
G1 X113.085 Y117.363 E0.00862
G1 X113.041 Y117.089 E0.00872
G1 X113.064 Y116.732 E0.01119
G1 X113.141 Y116.465 E0.00873
G1 X113.266 Y116.217 E0.00871
G1 X113.435 Y116.000 E0.00863
G1 X113.641 Y115.818 E0.00862
G1 X113.878 Y115.678 E0.00862
G1 X114.137 Y115.585 E0.00862
G1 X114.414 Y115.541 E0.00881
G1 X114.771 Y115.564 E0.01119
G1 X115.038 Y115.642 E0.00873
G1 X115.283 Y115.767 E0.00862
G1 X115.500 Y115.935 E0.00862
G1 X115.682 Y116.141 E0.00862
G1 X115.822 Y116.378 E0.00862
G1 X115.915 Y116.637 E0.00862
G1 X115.959 Y116.911 E0.00872
G1 X115.936 Y117.268 E0.01119
G1 X115.859 Y117.535 E0.00873
G1 X115.761 Y117.729 E0.00683
G1 X115.861 Y118.026 F10800.000
G1 F8640
G1 X115.565 Y118.000 E-0.07718
G1 X115.359 Y118.182 E-0.06350
G1 X115.122 Y118.322 E-0.06348
G1 X114.863 Y118.415 E-0.06347
G1 X114.588 Y118.459 E-0.06427
G1 X114.229 Y118.436 E-0.08305
G1 X113.962 Y118.358 E-0.06429
G1 X113.717 Y118.233 E-0.06348
G1 X113.500 Y118.065 E-0.06349
G1 X113.318 Y117.859 E-0.06350
G1 X113.178 Y117.622 E-0.06348
G1 X113.139 Y117.513 E-0.02681
G1 E-0.04000 F2100.00000
G1 Z0.800 F10800.000
G1 X109.348 Y106.253
G1 Z0.200
G1 E0.80000 F2100.00000
G1 F1200
G1 X109.081 Y106.488 E0.01115
G1 X108.783 Y106.665 E0.01085
G1 X108.458 Y106.782 E0.01086
G1 X108.116 Y106.836 E0.01086
G1 X107.769 Y106.825 E0.01086
G1 X107.431 Y106.750 E0.01086
G1 X107.114 Y106.612 E0.01086
G1 X106.827 Y106.417 E0.01086
G1 X106.583 Y106.173 E0.01085
G1 X106.388 Y105.886 E0.01086
G1 X106.247 Y105.560 E0.01115
G1 X106.164 Y105.125 E0.01389
G1 X106.175 Y104.769 E0.01115
G1 X106.250 Y104.432 E0.01085
G1 X106.392 Y104.105 E0.01115
G1 X106.652 Y103.747 E0.01389
G1 X106.919 Y103.512 E0.01115
G1 X107.217 Y103.335 E0.01085
G1 X107.543 Y103.218 E0.01087
G1 X107.897 Y103.162 E0.01124
G1 X108.336 Y103.190 E0.01379
G1 X108.677 Y103.289 E0.01114
G1 X108.986 Y103.447 E0.01086
G1 X109.259 Y103.659 E0.01086
G1 X109.488 Y103.919 E0.01086
G1 X109.665 Y104.217 E0.01086
G1 X109.782 Y104.542 E0.01085
G1 X109.836 Y104.885 E0.01086
G1 X109.825 Y105.231 E0.01086
G1 X109.750 Y105.568 E0.01085
G1 X109.608 Y105.895 E0.01115
G1 X109.383 Y106.205 E0.01201
G1 X109.067 Y105.998 F10800.000
G1 F1200
G1 X108.859 Y106.182 E0.00873
G1 X108.622 Y106.322 E0.00862
G1 X108.363 Y106.415 E0.00862
G1 X108.092 Y106.458 E0.00862
G1 X107.817 Y106.449 E0.00862
G1 X107.549 Y106.389 E0.00862
G1 X107.296 Y106.280 E0.00862
G1 X107.069 Y106.126 E0.00862
G1 X106.874 Y105.931 E0.00862
G1 X106.720 Y105.704 E0.00862
G1 X106.609 Y105.448 E0.00873
G1 X106.542 Y105.095 E0.01128
G1 X106.551 Y104.817 E0.00873
G1 X106.611 Y104.549 E0.00862
G1 X106.721 Y104.293 E0.00873
G1 X106.933 Y104.002 E0.01128
G1 X107.141 Y103.818 E0.00873
G1 X107.378 Y103.678 E0.00862
G1 X107.637 Y103.585 E0.00862
G1 X107.914 Y103.541 E0.00881
G1 X108.271 Y103.564 E0.01119
G1 X108.538 Y103.642 E0.00873
G1 X108.783 Y103.766 E0.00862
G1 X109.000 Y103.935 E0.00862
G1 X109.182 Y104.141 E0.00862
G1 X109.322 Y104.378 E0.00862
G1 X109.415 Y104.637 E0.00862
G1 X109.458 Y104.908 E0.00862
G1 X109.449 Y105.183 E0.00862
G1 X109.389 Y105.451 E0.00862
G1 X109.279 Y105.707 E0.00873
G1 X109.103 Y105.949 E0.00940
G1 X109.151 Y106.263 F10800.000
G1 F8640
G1 X108.859 Y106.182 E-0.07784
G1 X108.622 Y106.322 E-0.06349
G1 X108.363 Y106.415 E-0.06348
G1 X108.092 Y106.458 E-0.06350
G1 X107.817 Y106.449 E-0.06350
G1 X107.549 Y106.389 E-0.06349
G1 X107.296 Y106.280 E-0.06349
G1 X107.069 Y106.126 E-0.06350
G1 X106.874 Y105.931 E-0.06348
G1 X106.720 Y105.704 E-0.06350
G1 X106.609 Y105.448 E-0.06426
G1 X106.572 Y105.251 E-0.04647
G1 E-0.04000 F2100.00000
G1 Z0.800 F10800.000
G1 X114.164 Y94.810
G1 Z0.200
G1 E0.80000 F2100.00000
G1 F1200
G1 X113.823 Y94.710 E0.01115
G1 X113.514 Y94.553 E0.01085
G1 X113.241 Y94.341 E0.01086
G1 X113.012 Y94.081 E0.01086
G1 X112.835 Y93.783 E0.01085
G1 X112.718 Y93.458 E0.01085
G1 X112.663 Y93.107 E0.01114
G1 X112.690 Y92.668 E0.01379
G1 X112.788 Y92.326 E0.01115
G1 X112.946 Y92.015 E0.01096
G1 X113.159 Y91.741 E0.01087
G1 X113.419 Y91.512 E0.01086
G1 X113.717 Y91.335 E0.01085
G1 X114.043 Y91.218 E0.01087
G1 X114.397 Y91.162 E0.01124
G1 X114.836 Y91.190 E0.01379
G1 X115.177 Y91.290 E0.01115
G1 X115.486 Y91.447 E0.01085
G1 X115.759 Y91.659 E0.01086
G1 X115.988 Y91.919 E0.01086
G1 X116.165 Y92.217 E0.01085
G1 X116.282 Y92.542 E0.01085
G1 X116.337 Y92.894 E0.01115
G1 X116.310 Y93.336 E0.01389
G1 X116.210 Y93.677 E0.01115
G1 X116.053 Y93.986 E0.01085
G1 X115.841 Y94.259 E0.01086
G1 X115.581 Y94.488 E0.01086
G1 X115.283 Y94.665 E0.01085
G1 X114.958 Y94.782 E0.01085
G1 X114.606 Y94.837 E0.01115
G1 X114.224 Y94.814 E0.01201
G1 X114.229 Y94.436 F10800.000
G1 F1200
G1 X113.962 Y94.358 E0.00873
G1 X113.717 Y94.233 E0.00862
G1 X113.500 Y94.065 E0.00862
G1 X113.318 Y93.859 E0.00862
G1 X113.178 Y93.622 E0.00862
G1 X113.085 Y93.363 E0.00862
G1 X113.041 Y93.089 E0.00872
G1 X113.064 Y92.732 E0.01119
G1 X113.141 Y92.465 E0.00873
G1 X113.266 Y92.217 E0.00871
G1 X113.435 Y92.000 E0.00863
G1 X113.641 Y91.818 E0.00862
G1 X113.878 Y91.678 E0.00862
G1 X114.137 Y91.585 E0.00862
G1 X114.414 Y91.541 E0.00881
G1 X114.771 Y91.564 E0.01119
G1 X115.038 Y91.642 E0.00873
G1 X115.283 Y91.767 E0.00862
G1 X115.500 Y91.935 E0.00862
G1 X115.682 Y92.141 E0.00862
G1 X115.822 Y92.378 E0.00862
G1 X115.915 Y92.637 E0.00862
G1 X115.959 Y92.912 E0.00873
G1 X115.936 Y93.271 E0.01128
G1 X115.858 Y93.538 E0.00873
G1 X115.733 Y93.783 E0.00862
G1 X115.565 Y94.000 E0.00862
G1 X115.359 Y94.182 E0.00862
G1 X115.122 Y94.322 E0.00862
G1 X114.863 Y94.415 E0.00862
G1 X114.588 Y94.459 E0.00873
G1 X114.289 Y94.440 E0.00940
G1 X114.050 Y94.649 F10800.000
G1 F8640
G1 X113.962 Y94.358 E-0.07787
G1 X113.717 Y94.233 E-0.06348
G1 X113.500 Y94.065 E-0.06349
G1 X113.318 Y93.859 E-0.06350
G1 X113.178 Y93.622 E-0.06348
G1 X113.085 Y93.363 E-0.06347
G1 X113.041 Y93.089 E-0.06424
G1 X113.064 Y92.732 E-0.08240
G1 X113.141 Y92.465 E-0.06427
G1 X113.266 Y92.217 E-0.06413
G1 X113.435 Y92.000 E-0.06353
G1 X113.520 Y91.925 E-0.02613
G1 E-0.04000 F2100.00000
G1 Z0.800 F10800.000
G1 X127.636 Y95.136
G1 Z0.200
G1 E0.80000 F2100.00000
G1 F1200
G1 X141.364 Y95.136 E0.43044
G1 X141.364 Y116.864 E0.68128
G1 X127.636 Y116.864 E0.43044
G1 X127.636 Y95.196 E0.67939
G1 X128.013 Y95.513 F10800.000
G1 F1200
G1 X140.987 Y95.513 E0.40680
G1 X140.987 Y116.487 E0.65763
G1 X128.013 Y116.487 E0.40680
G1 X128.013 Y95.573 E0.65575
G1 X128.390 Y95.890 F10800.000
G1 F1200
G1 X140.610 Y95.890 E0.38315
G1 X140.610 Y116.110 E0.63398
G1 X128.390 Y116.110 E0.38315
G1 X128.390 Y95.950 E0.63210
G1 X128.318 Y95.497 F10800.000
G1 F8640
G1 X131.681 Y95.934 E-0.76000
G1 E-0.04000 F2100.00000
G1 Z0.800 F10800.000
G1 X117.383 Y87.369
G1 Z0.200
G1 E0.80000 F2100.00000
G1 F1200
G1 X140.030 Y87.366 E0.71009
G1 X140.468 Y87.395 E0.01377
G1 X140.889 Y87.475 E0.01343
G1 X141.347 Y87.624 E0.01510
G1 X141.583 Y87.730 E0.00812
G1 X142.124 Y88.050 E0.01972
G1 X142.499 Y88.361 E0.01526
G1 X142.639 Y88.501 E0.00621
G1 X142.946 Y88.872 E0.01509
G1 X143.089 Y89.087 E0.00812
G1 X143.288 Y89.451 E0.01299
G1 X143.462 Y89.892 E0.01485
G1 X143.517 Y90.082 E0.00621
G1 X143.605 Y90.545 E0.01479
G1 X143.636 Y91.031 E0.01527
G1 X143.636 Y118.969 E0.87597
G1 X143.605 Y119.455 E0.01527
G1 X143.517 Y119.918 E0.01479
G1 X143.462 Y120.108 E0.00621
G1 X143.288 Y120.547 E0.01479
G1 X143.061 Y120.960 E0.01479
G1 X142.950 Y121.124 E0.00621
G1 X142.649 Y121.488 E0.01479
G1 X142.316 Y121.800 E0.01431
G1 X141.947 Y122.068 E0.01431
G1 X141.547 Y122.288 E0.01431
G1 X141.123 Y122.456 E0.01431
G1 X140.680 Y122.570 E0.01431
G1 X140.227 Y122.627 E0.01432
G1 X117.379 Y122.636 E0.71641
G1 X113.858 Y119.113 E0.15614
G1 X114.099 Y119.183 E0.00787
G1 X114.624 Y119.216 E0.01650
G1 X115.052 Y119.149 E0.01357
G1 X115.444 Y119.007 E0.01309
G1 X115.804 Y118.795 E0.01309
G1 X116.117 Y118.519 E0.01310
G1 X116.374 Y118.188 E0.01311
G1 X116.564 Y117.813 E0.01320
G1 X116.684 Y117.397 E0.01357
G1 X116.716 Y116.875 E0.01639
G1 X116.649 Y116.448 E0.01356
G1 X116.507 Y116.056 E0.01309
G1 X116.295 Y115.696 E0.01309
G1 X116.019 Y115.383 E0.01310
G1 X115.689 Y115.127 E0.01309
G1 X115.317 Y114.937 E0.01309
G1 X114.901 Y114.817 E0.01357
G1 X114.379 Y114.783 E0.01640
G1 X113.949 Y114.851 E0.01366
G1 X113.556 Y114.993 E0.01311
G1 X113.196 Y115.205 E0.01309
G1 X112.883 Y115.481 E0.01310
G1 X112.626 Y115.812 E0.01311
G1 X112.436 Y116.187 E0.01320
G1 X112.316 Y116.603 E0.01357
G1 X112.284 Y117.125 E0.01639
G1 X112.351 Y117.552 E0.01356
G1 X112.382 Y117.636 E0.00282
G1 X106.372 Y111.623 E0.26657
G1 X106.369 Y106.492 E0.16088
G1 X106.586 Y106.709 E0.00963
G1 X106.931 Y106.944 E0.01309
G1 X107.314 Y107.110 E0.01309
G1 X107.722 Y107.201 E0.01309
G1 X108.139 Y107.214 E0.01309
G1 X108.552 Y107.149 E0.01309
G1 X108.945 Y107.007 E0.01309
G1 X109.304 Y106.795 E0.01309
G1 X109.629 Y106.509 E0.01357
G1 X109.938 Y106.083 E0.01650
G1 X110.110 Y105.685 E0.01357
G1 X110.201 Y105.278 E0.01309
G1 X110.214 Y104.861 E0.01309
G1 X110.149 Y104.448 E0.01309
G1 X110.007 Y104.056 E0.01309
G1 X109.795 Y103.696 E0.01309
G1 X109.519 Y103.383 E0.01310
G1 X109.189 Y103.127 E0.01309
G1 X108.817 Y102.937 E0.01309
G1 X108.401 Y102.817 E0.01356
G1 X107.879 Y102.783 E0.01639
G1 X107.449 Y102.851 E0.01367
G1 X107.055 Y102.993 E0.01311
G1 X106.696 Y103.205 E0.01309
G1 X106.367 Y103.497 E0.01379
G1 X106.364 Y98.379 E0.16049
G1 X112.385 Y92.363 E0.26686
G1 X112.316 Y92.603 E0.00784
G1 X112.284 Y93.125 E0.01639
G1 X112.351 Y93.552 E0.01356
G1 X112.493 Y93.944 E0.01309
G1 X112.705 Y94.304 E0.01309
G1 X112.981 Y94.617 E0.01310
G1 X113.311 Y94.873 E0.01309
G1 X113.683 Y95.063 E0.01309
G1 X114.099 Y95.183 E0.01358
G1 X114.624 Y95.216 E0.01650
G1 X115.052 Y95.149 E0.01357
G1 X115.444 Y95.007 E0.01309
G1 X115.804 Y94.795 E0.01309
G1 X116.117 Y94.519 E0.01310
G1 X116.373 Y94.189 E0.01309
G1 X116.563 Y93.817 E0.01309
G1 X116.683 Y93.401 E0.01358
G1 X116.716 Y92.876 E0.01650
G1 X116.649 Y92.448 E0.01357
G1 X116.507 Y92.056 E0.01309
G1 X116.295 Y91.696 E0.01309
G1 X116.019 Y91.383 E0.01310
G1 X115.689 Y91.127 E0.01309
G1 X115.317 Y90.937 E0.01309
G1 X114.901 Y90.817 E0.01357
G1 X114.379 Y90.783 E0.01640
G1 X113.949 Y90.851 E0.01366
G1 X113.870 Y90.880 E0.00264
G1 X117.340 Y87.412 E0.15383
G1 X117.227 Y86.992 F10800.000
G1 F1200
G1 X140.042 Y86.989 E0.71537
G1 X140.510 Y87.020 E0.01470
G1 X140.988 Y87.111 E0.01526
G1 X141.482 Y87.272 E0.01628
G1 X141.752 Y87.392 E0.00926
G1 X142.157 Y87.616 E0.01451
G1 X142.351 Y87.748 E0.00736
G1 X142.753 Y88.081 E0.01638
G1 X142.919 Y88.247 E0.00733
G1 X143.249 Y88.647 E0.01627
G1 X143.413 Y88.893 E0.00926
G1 X143.630 Y89.291 E0.01422
G1 X143.819 Y89.769 E0.01613
G1 X143.884 Y89.994 E0.00733
G1 X143.980 Y90.498 E0.01609
G1 X144.013 Y91.019 E0.01638
G1 X144.013 Y118.981 E0.87672
G1 X143.980 Y119.502 E0.01638
G1 X143.884 Y120.006 E0.01609
G1 X143.819 Y120.231 E0.00733
G1 X143.630 Y120.708 E0.01609
G1 X143.383 Y121.158 E0.01609
G1 X143.252 Y121.351 E0.00733
G1 X142.925 Y121.746 E0.01609
G1 X142.557 Y122.091 E0.01580
G1 X142.149 Y122.387 E0.01580
G1 X141.708 Y122.630 E0.01580
G1 X141.239 Y122.816 E0.01580
G1 X140.751 Y122.941 E0.01580
G1 X140.251 Y123.004 E0.01581
G1 X117.222 Y123.013 E0.72205
G1 X105.995 Y111.779 E0.49799
G1 X105.987 Y98.222 E0.42507
G1 X117.184 Y87.035 E0.49629
G1 X117.071 Y86.615 F10800.000
G1 F1200
G1 X140.055 Y86.612 E0.72066
G1 X140.552 Y86.645 E0.01563
G1 X141.088 Y86.747 E0.01710
G1 X141.618 Y86.919 E0.01746
G1 X141.920 Y87.054 E0.01040
G1 X142.354 Y87.295 E0.01556
G1 X142.577 Y87.447 E0.00845
G1 X143.007 Y87.802 E0.01749
G1 X143.198 Y87.993 E0.00844
G1 X143.553 Y88.422 E0.01746
G1 X143.736 Y88.698 E0.01040
G1 X143.972 Y89.131 E0.01546
G1 X144.176 Y89.647 E0.01740
G1 X144.251 Y89.906 E0.00844
G1 X144.355 Y90.451 E0.01739
G1 X144.390 Y91.007 E0.01750
G1 X144.390 Y118.993 E0.87746
G1 X144.355 Y119.549 E0.01750
G1 X144.251 Y120.094 E0.01739
G1 X144.176 Y120.353 E0.00844
G1 X143.972 Y120.869 E0.01739
G1 X143.705 Y121.355 E0.01739
G1 X143.553 Y121.577 E0.00844
G1 X143.200 Y122.005 E0.01739
G1 X142.798 Y122.382 E0.01729
G1 X142.352 Y122.706 E0.01729
G1 X141.869 Y122.972 E0.01729
G1 X141.356 Y123.175 E0.01729
G1 X140.822 Y123.312 E0.01729
G1 X140.275 Y123.381 E0.01729
G1 X117.066 Y123.390 E0.72769
G1 X105.618 Y111.935 E0.50778
G1 X105.610 Y98.066 E0.43486
