; generated by PrusaSlicer 2.0.0+win64 on 2019-08-20 at 11:27:00

; 

; external perimeters extrusion width = 0.45mm
; perimeters extrusion width = 0.45mm
; infill extrusion width = 0.45mm
; solid infill extrusion width = 0.45mm
; top infill extrusion width = 0.40mm
; first layer extrusion width = 0.42mm

M73 P0 R16
M73 Q0 S16
M201 X1000 Y1000 Z1000 E5000 ; sets maximum accelerations, mm/sec^2
M203 X200 Y200 Z12 E120 ; sets maximum feedrates, mm/sec
M204 P1250 R1250 T1250 ; sets acceleration (P, T) and retract acceleration (R), mm/sec^2
M205 X8.00 Y8.00 Z0.40 E1.50 ; sets the jerk limits, mm/sec
M205 S0 T0 ; sets the minimum extruding and travel feed rate, mm/sec
M107
M115 U3.7.2 ; tell printer latest fw version
G90 ; use absolute coordinates
M83 ; extruder relative mode
M104 S240 ; set extruder temp
M140 S85 ; set bed temp
Tx
M190 S85 ; wait for bed temp
M109 S240 ; wait for extruder temp
G28 W ; home all without mesh bed level
G80 ; mesh bed leveling

G21 ; set units to millimeters

;go outside print area
G1 Y-3.0 F1000.0
G1 Z0.4 F1000.0
; select extruder
Tc
; purge line
G1 X55.0 F2000.0
G1 Z0.3 F1000.0
G92 E0.0
G1 X240.0 E25.0 F2200.0
M73 Q0 S16
M73 P0 R16
G1 Y-2.0 F1000.0
G1 X55.0 E25 F1400.0
G1 Z0.20 F1000.0
G1 X5.0 E4.0 F1000.0

M221 S95
G92 E0.0
M900 K45 ; Filament gcode
G21 ; set units to millimeters
G90 ; use absolute coordinates
M83 ; use relative distances for extrusion
;BEFORE_LAYER_CHANGE
G92 E0.0
;0.2


G1 E-0.80000 F2100.00000
G1 Z0.600 F10800.000
;AFTER_LAYER_CHANGE
;0.2
G1 X103.295 Y96.478
G1 Z0.200
G1 E0.80000 F2100.00000
M204 S1000
G1 F1200
G1 X115.138 Y84.576 E0.52646
G1 X115.647 Y84.186 E0.02010
G1 X116.219 Y83.932 E0.01964
G1 X117.008 Y83.811 E0.02502
G1 X145.004 Y83.811 E0.87777
G1 X145.817 Y83.970 E0.02597
G1 X146.515 Y84.421 E0.02608
G1 X146.995 Y85.101 E0.02608
G1 X147.187 Y85.906 E0.02597
G1 X147.188 Y124.022 E1.19508
G1 X147.083 Y124.672 E0.02066
G1 X146.788 Y125.262 E0.02066
G1 X146.444 Y125.644 E0.01612
G1 X146.021 Y125.936 E0.01612
G1 X145.541 Y126.121 E0.01612
G1 X145.031 Y126.188 E0.01612
G1 X116.979 Y126.188 E0.87955
G1 X116.185 Y126.057 E0.02526
G1 X115.478 Y125.705 E0.02474
G1 X103.586 Y113.872 E0.52600
G1 X103.018 Y113.018 E0.03217
G1 X102.812 Y112.014 E0.03214
G1 X102.812 Y97.979 E0.44005
G1 X102.943 Y97.185 E0.02525
G1 X103.268 Y96.532 E0.02287
G1 F8640
G1 X105.587 Y94.196 E-0.76000
G1 E-0.04000 F2100.00000
G1 Z0.800 F10800.000
G1 X115.995 Y118.074
G1 Z0.200
G1 E0.80000 F2100.00000
G1 F1200
G1 X115.759 Y118.341 E0.01115
G1 X115.486 Y118.553 E0.01086
G1 X115.177 Y118.710 E0.01085
G1 X114.845 Y118.807 E0.01086
G1 X114.500 Y118.840 E0.01086
G1 X114.155 Y118.807 E0.01086
G1 X113.814 Y118.708 E0.01115
G1 X113.428 Y118.496 E0.01379
G1 X113.159 Y118.260 E0.01124
G1 X112.947 Y117.986 E0.01087
G1 X112.790 Y117.677 E0.01085
G1 X112.693 Y117.345 E0.01086
G1 X112.660 Y117.000 E0.01086
G1 X112.693 Y116.655 E0.01086
G1 X112.790 Y116.323 E0.01086
G1 X112.947 Y116.014 E0.01085
G1 X113.159 Y115.741 E0.01086
G1 X113.419 Y115.512 E0.01086
G1 X113.717 Y115.335 E0.01085
G1 X114.051 Y115.215 E0.01114
G1 X114.487 Y115.160 E0.01380
G1 X114.844 Y115.193 E0.01124
G1 X115.177 Y115.290 E0.01087
G1 X115.486 Y115.447 E0.01085
G1 X115.760 Y115.659 E0.01087
G1 X115.996 Y115.928 E0.01124
G1 X116.208 Y116.314 E0.01379
G1 X116.307 Y116.655 E0.01115
G1 X116.340 Y117.000 E0.01086
G1 X116.307 Y117.345 E0.01086
G1 X116.208 Y117.686 E0.01115
G1 X116.023 Y118.022 E0.01200
G1 X115.684 Y117.856 F10800.000
G1 F1200
G1 X115.500 Y118.065 E0.00873
G1 X115.283 Y118.233 E0.00862
G1 X115.038 Y118.358 E0.00862
G1 X114.774 Y118.435 E0.00862
G1 X114.500 Y118.461 E0.00862
G1 X114.226 Y118.435 E0.00862
G1 X113.959 Y118.357 E0.00873
G1 X113.646 Y118.186 E0.01119
G1 X113.435 Y118.000 E0.00881
G1 X113.267 Y117.783 E0.00863
G1 X113.142 Y117.538 E0.00862
G1 X113.065 Y117.274 E0.00862
G1 X113.039 Y117.000 E0.00862
G1 X113.065 Y116.726 E0.00862
G1 X113.142 Y116.462 E0.00862
G1 X113.267 Y116.217 E0.00862
G1 X113.435 Y116.000 E0.00862
G1 X113.641 Y115.818 E0.00862
G1 X113.878 Y115.678 E0.00862
G1 X114.140 Y115.584 E0.00872
G1 X114.494 Y115.539 E0.01119
G1 X114.774 Y115.565 E0.00881
G1 X115.038 Y115.642 E0.00863
G1 X115.283 Y115.767 E0.00862
G1 X115.500 Y115.935 E0.00863
G1 X115.686 Y116.146 E0.00881
G1 X115.857 Y116.459 E0.01119
G1 X115.935 Y116.726 E0.00873
G1 X115.961 Y117.000 E0.00862
G1 X115.935 Y117.274 E0.00862
G1 X115.857 Y117.541 E0.00873
G1 X115.713 Y117.804 E0.00939
G1 X115.800 Y118.109 F10800.000
G1 F8640
G1 X115.500 Y118.065 E-0.07785
G1 X115.283 Y118.233 E-0.06349
G1 X115.038 Y118.358 E-0.06348
G1 X114.774 Y118.435 E-0.06352
G1 X114.500 Y118.461 E-0.06348
G1 X114.226 Y118.435 E-0.06348
G1 X113.959 Y118.357 E-0.06427
G1 X113.646 Y118.186 E-0.08240
G1 X113.435 Y118.000 E-0.06489
G1 X113.267 Y117.783 E-0.06353
G1 X113.142 Y117.538 E-0.06348
G1 X113.110 Y117.429 E-0.02614
G1 E-0.04000 F2100.00000
G1 Z0.800 F10800.000
G1 X108.986 Y106.553
G1 Z0.200
G1 E0.80000 F2100.00000
G1 F1200
G1 X108.677 Y106.711 E0.01086
G1 X108.345 Y106.807 E0.01086
G1 X108.000 Y106.840 E0.01086
G1 X107.655 Y106.807 E0.01086
G1 X107.323 Y106.711 E0.01086
G1 X107.014 Y106.553 E0.01086
G1 X106.741 Y106.341 E0.01086
G1 X106.505 Y106.074 E0.01115
G1 X106.292 Y105.686 E0.01389
G1 X106.193 Y105.345 E0.01115
G1 X106.160 Y105.000 E0.01086
G1 X106.193 Y104.655 E0.01086
G1 X106.290 Y104.323 E0.01086
G1 X106.447 Y104.014 E0.01085
G1 X106.659 Y103.741 E0.01086
G1 X106.919 Y103.512 E0.01086
G1 X107.217 Y103.335 E0.01085
G1 X107.551 Y103.215 E0.01114
G1 X107.987 Y103.160 E0.01380
G1 X108.344 Y103.193 E0.01124
G1 X108.677 Y103.289 E0.01087
G1 X108.986 Y103.447 E0.01086
G1 X109.259 Y103.659 E0.01086
G1 X109.495 Y103.926 E0.01115
G1 X109.708 Y104.314 E0.01389
G1 X109.807 Y104.655 E0.01115
G1 X109.840 Y105.000 E0.01086
G1 X109.807 Y105.345 E0.01086
G1 X109.708 Y105.686 E0.01115
G1 X109.495 Y106.074 E0.01389
G1 X109.259 Y106.341 E0.01115
G1 X109.033 Y106.517 E0.00897
G1 X108.783 Y106.234 F10800.000
G1 F1200
G1 X108.538 Y106.358 E0.00862
G1 X108.274 Y106.435 E0.00862
G1 X108.000 Y106.461 E0.00862
G1 X107.726 Y106.435 E0.00862
G1 X107.462 Y106.358 E0.00862
G1 X107.217 Y106.234 E0.00862
G1 X107.000 Y106.065 E0.00862
G1 X106.816 Y105.856 E0.00873
G1 X106.643 Y105.541 E0.01128
G1 X106.565 Y105.274 E0.00873
G1 X106.539 Y105.000 E0.00862
G1 X106.565 Y104.726 E0.00862
G1 X106.642 Y104.462 E0.00862
G1 X106.766 Y104.217 E0.00862
G1 X106.935 Y104.000 E0.00862
G1 X107.141 Y103.818 E0.00862
G1 X107.378 Y103.678 E0.00862
G1 X107.640 Y103.584 E0.00872
G1 X107.994 Y103.539 E0.01119
G1 X108.274 Y103.565 E0.00881
G1 X108.538 Y103.642 E0.00863
G1 X108.783 Y103.766 E0.00862
G1 X109.000 Y103.935 E0.00862
G1 X109.184 Y104.144 E0.00873
G1 X109.357 Y104.459 E0.01128
G1 X109.435 Y104.726 E0.00873
G1 X109.461 Y105.000 E0.00862
G1 X109.435 Y105.274 E0.00862
G1 X109.357 Y105.541 E0.00873
G1 X109.184 Y105.856 E0.01128
G1 X109.000 Y106.065 E0.00873
G1 X108.830 Y106.197 E0.00674
G1 X108.794 Y106.508 F10800.000
G1 F8640
G1 X108.538 Y106.358 E-0.07714
G1 X108.274 Y106.435 E-0.06351
G1 X108.000 Y106.461 E-0.06348
G1 X107.726 Y106.435 E-0.06348
G1 X107.462 Y106.358 E-0.06351
G1 X107.217 Y106.234 E-0.06349
G1 X107.000 Y106.065 E-0.06349
G1 X106.816 Y105.856 E-0.06427
G1 X106.643 Y105.541 E-0.08305
G1 X106.565 Y105.274 E-0.06427
G1 X106.539 Y105.000 E-0.06349
G1 X106.550 Y104.884 E-0.02683
G1 E-0.04000 F2100.00000
G1 Z0.800 F10800.000
G1 X113.814 Y94.708
G1 Z0.200
G1 E0.80000 F2100.00000
G1 F1200
G1 X113.428 Y94.496 E0.01379
G1 X113.159 Y94.260 E0.01124
G1 X112.947 Y93.986 E0.01087
G1 X112.790 Y93.677 E0.01085
G1 X112.693 Y93.345 E0.01086
G1 X112.660 Y93.000 E0.01086
G1 X112.693 Y92.655 E0.01086
G1 X112.790 Y92.323 E0.01086
G1 X112.947 Y92.014 E0.01085
G1 X113.159 Y91.741 E0.01086
G1 X113.419 Y91.512 E0.01086
G1 X113.717 Y91.335 E0.01085
G1 X114.051 Y91.215 E0.01114
G1 X114.487 Y91.160 E0.01380
G1 X114.844 Y91.193 E0.01124
G1 X115.177 Y91.290 E0.01087
G1 X115.486 Y91.447 E0.01085
G1 X115.760 Y91.659 E0.01087
G1 X115.996 Y91.928 E0.01124
G1 X116.208 Y92.314 E0.01379
G1 X116.307 Y92.655 E0.01115
G1 X116.340 Y93.000 E0.01086
G1 X116.307 Y93.345 E0.01086
G1 X116.208 Y93.686 E0.01115
G1 X115.995 Y94.074 E0.01388
G1 X115.759 Y94.341 E0.01115
G1 X115.486 Y94.553 E0.01086
G1 X115.177 Y94.710 E0.01085
G1 X114.845 Y94.807 E0.01086
G1 X114.500 Y94.840 E0.01086
G1 X114.155 Y94.807 E0.01086
G1 X113.872 Y94.725 E0.00926
G1 X113.959 Y94.357 F10800.000
G1 F1200
G1 X113.646 Y94.186 E0.01119
G1 X113.435 Y94.000 E0.00881
G1 X113.267 Y93.783 E0.00863
G1 X113.142 Y93.538 E0.00862
G1 X113.065 Y93.274 E0.00862
G1 X113.039 Y93.000 E0.00862
G1 X113.065 Y92.726 E0.00862
G1 X113.142 Y92.462 E0.00862
G1 X113.267 Y92.217 E0.00862
G1 X113.435 Y92.000 E0.00862
G1 X113.641 Y91.818 E0.00862
G1 X113.878 Y91.678 E0.00862
G1 X114.140 Y91.584 E0.00872
G1 X114.494 Y91.539 E0.01119
G1 X114.774 Y91.565 E0.00881
G1 X115.038 Y91.642 E0.00863
G1 X115.283 Y91.767 E0.00862
G1 X115.500 Y91.935 E0.00863
G1 X115.686 Y92.146 E0.00881
G1 X115.857 Y92.459 E0.01119
G1 X115.935 Y92.726 E0.00873
G1 X115.961 Y93.000 E0.00862
G1 X115.935 Y93.274 E0.00862
G1 X115.857 Y93.541 E0.00873
G1 X115.684 Y93.856 E0.01127
G1 X115.500 Y94.065 E0.00873
G1 X115.283 Y94.233 E0.00862
G1 X115.038 Y94.358 E0.00862
G1 X114.774 Y94.435 E0.00862
G1 X114.500 Y94.461 E0.00862
G1 X114.226 Y94.435 E0.00862
G1 X114.017 Y94.374 E0.00685
G1 X113.675 Y94.573 F10800.000
G1 F8640
G1 X113.646 Y94.186 E-0.09597
G1 X113.435 Y94.000 E-0.06489
G1 X113.267 Y93.783 E-0.06353
G1 X113.142 Y93.538 E-0.06348
G1 X113.065 Y93.274 E-0.06352
G1 X113.039 Y93.000 E-0.06348
G1 X113.065 Y92.726 E-0.06348
G1 X113.142 Y92.462 E-0.06352
G1 X113.267 Y92.217 E-0.06348
G1 X113.435 Y92.000 E-0.06349
G1 X113.641 Y91.818 E-0.06350
G1 X113.744 Y91.757 E-0.02766
G1 E-0.04000 F2100.00000
G1 Z0.800 F10800.000
G1 X127.636 Y93.136
G1 Z0.200
G1 E0.80000 F2100.00000
G1 F1200
G1 X141.364 Y93.136 E0.43044
G1 X141.364 Y114.864 E0.68128
G1 X127.636 Y114.864 E0.43044
G1 X127.636 Y93.196 E0.67939
G1 X128.013 Y93.513 F10800.000
G1 F1200
G1 X140.987 Y93.513 E0.40680
G1 X140.987 Y114.487 E0.65763
G1 X128.013 Y114.487 E0.40680
G1 X128.013 Y93.573 E0.65575
G1 X128.390 Y93.890 F10800.000
G1 F1200
G1 X140.610 Y93.890 E0.38315
G1 X140.610 Y114.110 E0.63398
G1 X128.390 Y114.110 E0.38315
G1 X128.390 Y93.950 E0.63210
G1 X128.318 Y93.497 F10800.000
G1 F8640
G1 X131.681 Y93.934 E-0.76000
G1 E-0.04000 F2100.00000
G1 Z0.800 F10800.000
G1 X117.383 Y87.369
G1 Z0.200
G1 E0.80000 F2100.00000
G1 F1200
G1 X140.030 Y87.366 E0.71009
G1 X140.468 Y87.395 E0.01377
G1 X140.889 Y87.475 E0.01343
G1 X141.347 Y87.624 E0.01510
G1 X141.583 Y87.730 E0.00812
G1 X142.124 Y88.050 E0.01972
G1 X142.499 Y88.361 E0.01526
G1 X142.639 Y88.501 E0.00621
G1 X142.946 Y88.872 E0.01509
G1 X143.089 Y89.087 E0.00812
G1 X143.288 Y89.451 E0.01299
G1 X143.462 Y89.892 E0.01485
G1 X143.517 Y90.082 E0.00621
G1 X143.605 Y90.545 E0.01479
G1 X143.636 Y91.031 E0.01527
G1 X143.636 Y118.969 E0.87597
G1 X143.605 Y119.455 E0.01527
G1 X143.517 Y119.918 E0.01479
G1 X143.462 Y120.108 E0.00621
G1 X143.288 Y120.547 E0.01479
G1 X143.061 Y120.960 E0.01479
G1 X142.950 Y121.124 E0.00621
G1 X142.649 Y121.488 E0.01479
G1 X142.316 Y121.800 E0.01431
G1 X141.947 Y122.068 E0.01431
G1 X141.547 Y122.288 E0.01431
G1 X141.123 Y122.456 E0.01431
G1 X140.680 Y122.570 E0.01431
G1 X140.227 Y122.627 E0.01432
G1 X117.379 Y122.636 E0.71641
G1 X113.858 Y119.113 E0.15614
G1 X114.084 Y119.179 E0.00739
G1 X114.500 Y119.218 E0.01309
G1 X114.916 Y119.179 E0.01309
G1 X115.317 Y119.063 E0.01310
G1 X115.689 Y118.873 E0.01309
G1 X116.019 Y118.617 E0.01309
G1 X116.305 Y118.292 E0.01357
G1 X116.558 Y117.831 E0.01649
G1 X116.679 Y117.416 E0.01358
G1 X116.718 Y117.000 E0.01309
G1 X116.679 Y116.584 E0.01309
G1 X116.558 Y116.169 E0.01356
G1 X116.307 Y115.711 E0.01639
G1 X116.019 Y115.383 E0.01367
G1 X115.689 Y115.127 E0.01311
G1 X115.317 Y114.937 E0.01309
G1 X114.915 Y114.821 E0.01312
G1 X114.481 Y114.780 E0.01367
G1 X113.962 Y114.846 E0.01640
G1 X113.556 Y114.993 E0.01355
G1 X113.196 Y115.205 E0.01309
G1 X112.883 Y115.481 E0.01310
G1 X112.627 Y115.811 E0.01309
G1 X112.437 Y116.183 E0.01309
G1 X112.321 Y116.584 E0.01310
G1 X112.282 Y117.000 E0.01309
G1 X112.321 Y117.416 E0.01309
G1 X112.386 Y117.641 E0.00735
G1 X106.372 Y111.623 E0.26677
G1 X106.369 Y106.489 E0.16096
G1 X106.481 Y106.617 E0.00534
G1 X106.811 Y106.873 E0.01309
G1 X107.183 Y107.063 E0.01309
G1 X107.584 Y107.179 E0.01309
G1 X108.000 Y107.218 E0.01309
G1 X108.416 Y107.179 E0.01309
G1 X108.817 Y107.063 E0.01309
G1 X109.189 Y106.873 E0.01309
G1 X109.519 Y106.617 E0.01309
G1 X109.805 Y106.292 E0.01357
G1 X110.058 Y105.831 E0.01650
G1 X110.179 Y105.416 E0.01357
G1 X110.218 Y105.000 E0.01309
G1 X110.179 Y104.584 E0.01309
G1 X110.058 Y104.169 E0.01357
G1 X109.805 Y103.708 E0.01650
G1 X109.519 Y103.383 E0.01357
G1 X109.189 Y103.127 E0.01309
G1 X108.817 Y102.937 E0.01309
G1 X108.415 Y102.821 E0.01312
G1 X107.981 Y102.780 E0.01366
G1 X107.462 Y102.846 E0.01640
G1 X107.055 Y102.993 E0.01356
G1 X106.696 Y103.205 E0.01309
G1 X106.367 Y103.502 E0.01388
G1 X106.364 Y98.379 E0.16063
G1 X112.385 Y92.363 E0.26686
G1 X112.321 Y92.584 E0.00723
G1 X112.282 Y93.000 E0.01309
G1 X112.321 Y93.416 E0.01309
G1 X112.437 Y93.817 E0.01310
G1 X112.627 Y94.189 E0.01309
G1 X112.883 Y94.519 E0.01311
G1 X113.211 Y94.807 E0.01367
G1 X113.669 Y95.058 E0.01639
G1 X114.084 Y95.179 E0.01356
G1 X114.500 Y95.218 E0.01309
G1 X114.916 Y95.179 E0.01309
G1 X115.317 Y95.063 E0.01310
G1 X115.689 Y94.873 E0.01309
G1 X116.019 Y94.617 E0.01309
G1 X116.305 Y94.292 E0.01357
G1 X116.558 Y93.831 E0.01649
G1 X116.679 Y93.416 E0.01358
G1 X116.718 Y93.000 E0.01309
G1 X116.679 Y92.584 E0.01309
G1 X116.558 Y92.169 E0.01356
G1 X116.307 Y91.711 E0.01639
G1 X116.019 Y91.383 E0.01367
G1 X115.689 Y91.127 E0.01311
G1 X115.317 Y90.937 E0.01309
G1 X114.915 Y90.821 E0.01312
G1 X114.481 Y90.780 E0.01367
G1 X113.962 Y90.846 E0.01640
G1 X113.870 Y90.880 E0.00308
G1 X117.340 Y87.412 E0.15383
G1 X117.227 Y86.992 F10800.000
G1 F1200
G1 X140.042 Y86.989 E0.71537
G1 X140.510 Y87.020 E0.01470
G1 X140.988 Y87.111 E0.01526
G1 X141.482 Y87.272 E0.01628
G1 X141.752 Y87.392 E0.00926
G1 X142.157 Y87.616 E0.01451
G1 X142.351 Y87.748 E0.00736
G1 X142.753 Y88.081 E0.01638
G1 X142.919 Y88.247 E0.00733
G1 X143.249 Y88.647 E0.01627
G1 X143.413 Y88.893 E0.00926
G1 X143.630 Y89.291 E0.01422
G1 X143.819 Y89.769 E0.01613
G1 X143.884 Y89.994 E0.00733
G1 X143.980 Y90.498 E0.01609
G1 X144.013 Y91.019 E0.01638
G1 X144.013 Y118.981 E0.87672
G1 X143.980 Y119.502 E0.01638
G1 X143.884 Y120.006 E0.01609
G1 X143.819 Y120.231 E0.00733
G1 X143.630 Y120.708 E0.01609
G1 X143.383 Y121.158 E0.01609
G1 X143.252 Y121.351 E0.00733
G1 X142.925 Y121.746 E0.01609
G1 X142.557 Y122.091 E0.01580
G1 X142.149 Y122.387 E0.01580
G1 X141.708 Y122.630 E0.01580
G1 X141.239 Y122.816 E0.01580
G1 X140.751 Y122.941 E0.01580
G1 X140.251 Y123.004 E0.01581
G1 X117.222 Y123.013 E0.72205
G1 X105.995 Y111.779 E0.49799
G1 X105.987 Y98.222 E0.42507
G1 X117.184 Y87.035 E0.49629
G1 X117.071 Y86.615 F10800.000
G1 F1200
G1 X140.055 Y86.612 E0.72066
G1 X140.552 Y86.645 E0.01563
G1 X141.088 Y86.747 E0.01710
G1 X141.618 Y86.919 E0.01746
G1 X141.920 Y87.054 E0.01040
G1 X142.354 Y87.295 E0.01556
G1 X142.577 Y87.447 E0.00845
G1 X143.007 Y87.802 E0.01749
G1 X143.198 Y87.993 E0.00844
G1 X143.553 Y88.422 E0.01746
G1 X143.736 Y88.698 E0.01040
G1 X143.972 Y89.131 E0.01546
G1 X144.176 Y89.647 E0.01740
G1 X144.251 Y89.906 E0.00844
G1 X144.355 Y90.451 E0.01739
G1 X144.390 Y91.007 E0.01750
G1 X144.390 Y118.993 E0.87746
G1 X144.355 Y119.549 E0.01750
G1 X144.251 Y120.094 E0.01739
G1 X144.176 Y120.353 E0.00844
G1 X143.972 Y120.869 E0.01739
G1 X143.705 Y121.355 E0.01739
G1 X143.553 Y121.577 E0.00844
G1 X143.200 Y122.005 E0.01739
G1 X142.798 Y122.382 E0.01729
G1 X142.352 Y122.706 E0.01729
G1 X141.869 Y122.972 E0.01729
G1 X141.356 Y123.175 E0.01729
G1 X140.822 Y123.312 E0.01729
G1 X140.275 Y123.381 E0.01729
G1 X117.066 Y123.390 E0.72769
G1 X105.618 Y111.935 E0.50778
G1 X105.610 Y98.066 E0.43486
