; generated by PrusaSlicer 2.0.0+win64 on 2019-06-22 at 15:30:12

; 

; external perimeters extrusion width = 0.45mm
; perimeters extrusion width = 0.45mm
; infill extrusion width = 0.45mm
; solid infill extrusion width = 0.45mm
; top infill extrusion width = 0.40mm
; first layer extrusion width = 0.42mm

M73 P0 R40
M73 Q0 S40
M201 X1000 Y1000 Z1000 E5000 ; sets maximum accelerations, mm/sec^2
M203 X200 Y200 Z12 E120 ; sets maximum feedrates, mm/sec
M204 P1250 R1250 T1250 ; sets acceleration (P, T) and retract acceleration (R), mm/sec^2
M205 X8.00 Y8.00 Z0.40 E1.50 ; sets the jerk limits, mm/sec
M205 S0 T0 ; sets the minimum extruding and travel feed rate, mm/sec
M107
M115 U3.7.1 ; tell printer latest fw version
G90 ; use absolute coordinates
M83 ; extruder relative mode
M104 S240 ; set extruder temp
M140 S85 ; set bed temp
Tx
M190 S85 ; wait for bed temp
M109 S240 ; wait for extruder temp
G28 W ; home all without mesh bed level
G80 ; mesh bed leveling

G21 ; set units to millimeters

;go outside print area
G1 Y-3.0 F1000.0
G1 Z0.4 F1000.0
; select extruder
Tc
; purge line
G1 X55.0 F2000.0
G1 Z0.3 F1000.0
G92 E0.0
G1 X240.0 E25.0 F2200.0
M73 Q0 S40
M73 P0 R40
G1 Y-2.0 F1000.0
G1 X55.0 E25 F1400.0
G1 Z0.20 F1000.0
G1 X5.0 E4.0 F1000.0

M221 S95
G92 E0.0
M900 K45 ; Filament gcode
G21 ; set units to millimeters
G90 ; use absolute coordinates
M83 ; use relative distances for extrusion
;BEFORE_LAYER_CHANGE
G92 E0.0
;0.2


G1 E-0.80000 F2100.00000
G1 Z0.600 F10800.000
;AFTER_LAYER_CHANGE
;0.2
G1 X109.081 Y87.214
G1 Z0.200
G1 E0.80000 F2100.00000
M204 S1000
G1 F1200
G1 X109.950 Y87.012 E0.02799
G1 X140.004 Y87.011 E0.94230
G1 X140.817 Y87.170 E0.02597
G1 X141.513 Y87.618 E0.02597
G1 X141.992 Y88.294 E0.02597
G1 X142.186 Y89.099 E0.02597
G1 X142.188 Y120.837 E0.99510
G1 X142.040 Y121.593 E0.02417
G1 X141.636 Y122.254 E0.02428
G1 X140.903 Y122.794 E0.02855
G1 X140.013 Y122.988 E0.02855
G1 X109.960 Y122.988 E0.94230
G1 X109.204 Y122.839 E0.02417
G1 X108.546 Y122.436 E0.02417
G1 X108.006 Y121.703 E0.02855
G1 X107.812 Y120.813 E0.02855
G1 X107.812 Y89.163 E0.99235
G1 X107.960 Y88.407 E0.02417
G1 X108.364 Y87.746 E0.02428
G1 X109.032 Y87.250 E0.02611
G1 F8640
G1 X109.950 Y87.012 E-0.21892
G1 X112.294 Y87.012 E-0.54108
G1 E-0.04000 F2100.00000
G1 Z0.800 F10800.000
G1 X139.036 Y119.436
G1 Z0.200
G1 E0.80000 F2100.00000
G1 F1200
G1 X110.964 Y119.436 E0.88017
G1 X110.964 Y90.564 E0.90525
G1 X139.036 Y90.564 E0.88017
G1 X139.036 Y119.376 E0.90337
G1 X139.413 Y119.813 F10800.000
G1 F1200
G1 X110.587 Y119.813 E0.90381
G1 X110.587 Y90.187 E0.92890
G1 X139.413 Y90.187 E0.90381
G1 X139.413 Y119.753 E0.92702
G1 X139.790 Y120.190 F10800.000
G1 F1200
G1 X110.210 Y120.190 E0.92746
G1 X110.210 Y89.810 E0.95254
G1 X139.790 Y89.810 E0.92746
G1 X139.790 Y120.130 E0.95066
G1 X139.404 Y120.085 F10800.000
G1 F8640
G1 X136.499 Y120.137 E-0.76000
G1 E-0.04000 F2100.00000
G1 Z0.800 F10800.000
G1 X111.840 Y119.323
G1 Z0.200
G1 E0.80000 F2100.00000
G1 F1200
G1 X111.247 Y118.730 E0.02631
G1 X111.247 Y118.196 E0.01674
G1 X112.204 Y119.153 E0.04246
G1 X112.738 Y119.153 E0.01674
G1 X111.247 Y117.662 E0.06614
G1 X111.247 Y117.129 E0.01674
G1 X113.271 Y119.153 E0.08982
G1 X113.805 Y119.153 E0.01674
G1 X111.247 Y116.595 E0.11350
G1 X111.247 Y116.062 E0.01674
G1 X114.338 Y119.153 E0.13718
G1 X114.872 Y119.153 E0.01674
G1 X111.247 Y115.528 E0.16086
G1 X111.247 Y114.994 E0.01674
G1 X115.406 Y119.153 E0.18454
G1 X115.939 Y119.153 E0.01674
G1 X111.247 Y114.461 E0.20822
G1 X111.247 Y113.927 E0.01674
G1 X116.473 Y119.153 E0.23190
G1 X117.007 Y119.153 E0.01674
G1 X111.247 Y113.393 E0.25558
G1 X111.247 Y112.860 E0.01674
G1 X117.540 Y119.153 E0.27926
G1 X118.074 Y119.153 E0.01674
G1 X111.247 Y112.326 E0.30294
G1 X111.247 Y111.792 E0.01674
G1 X118.608 Y119.153 E0.32662
G1 X119.141 Y119.153 E0.01674
G1 X111.247 Y111.259 E0.35029
G1 X111.247 Y110.725 E0.01674
G1 X119.675 Y119.153 E0.37397
G1 X120.209 Y119.153 E0.01674
G1 X111.247 Y110.191 E0.39765
G1 X111.247 Y109.658 E0.01674
G1 X120.742 Y119.153 E0.42133
G1 X121.276 Y119.153 E0.01674
G1 X111.247 Y109.124 E0.44501
G1 X111.247 Y108.590 E0.01674
G1 X121.810 Y119.153 E0.46869
G1 X122.343 Y119.153 E0.01674
G1 X111.247 Y108.057 E0.49237
G1 X111.247 Y107.523 E0.01674
G1 X122.877 Y119.153 E0.51605
G1 X123.410 Y119.153 E0.01674
G1 X111.247 Y106.990 E0.53973
G1 X111.247 Y106.456 E0.01674
G1 X123.944 Y119.153 E0.56341
G1 X124.478 Y119.153 E0.01674
G1 X111.247 Y105.922 E0.58709
G1 X111.247 Y105.389 E0.01674
G1 X125.011 Y119.153 E0.61077
G1 X125.545 Y119.153 E0.01674
G1 X111.247 Y104.855 E0.63445
G1 X111.247 Y104.321 E0.01674
G1 X126.079 Y119.153 E0.65813
G1 X126.612 Y119.153 E0.01674
G1 X111.247 Y103.788 E0.68180
G1 X111.247 Y103.254 E0.01674
G1 X127.146 Y119.153 E0.70548
G1 X127.680 Y119.153 E0.01674
G1 X111.247 Y102.720 E0.72916
G1 X111.247 Y102.187 E0.01674
G1 X128.213 Y119.153 E0.75284
G1 X128.747 Y119.153 E0.01674
G1 X111.247 Y101.653 E0.77652
M73 Q2 S39
M73 P2 R39
G1 X111.247 Y101.119 E0.01674
G1 X129.281 Y119.153 E0.80020
G1 X129.814 Y119.153 E0.01674
G1 X111.247 Y100.586 E0.82388
G1 X111.247 Y100.052 E0.01674
G1 X130.348 Y119.153 E0.84756
G1 X130.881 Y119.153 E0.01674
G1 X111.247 Y99.519 E0.87124
G1 X111.247 Y98.985 E0.01674
G1 X131.415 Y119.153 E0.89492
G1 X131.949 Y119.153 E0.01674
G1 X111.247 Y98.451 E0.91860
G1 X111.247 Y97.918 E0.01674
G1 X132.482 Y119.153 E0.94228
G1 X133.016 Y119.153 E0.01674
G1 X111.247 Y97.384 E0.96596
G1 X111.247 Y96.850 E0.01674
G1 X133.550 Y119.153 E0.98964
G1 X134.083 Y119.153 E0.01674
G1 X111.247 Y96.317 E1.01331
G1 X111.247 Y95.783 E0.01674
G1 X134.617 Y119.153 E1.03699
G1 X135.151 Y119.153 E0.01674
G1 X111.247 Y95.249 E1.06067
G1 X111.247 Y94.716 E0.01674
G1 X135.684 Y119.153 E1.08435
G1 X136.218 Y119.153 E0.01674
G1 X111.247 Y94.182 E1.10803
G1 X111.247 Y93.648 E0.01674
G1 X136.752 Y119.153 E1.13171
G1 X137.285 Y119.153 E0.01674
G1 X111.247 Y93.115 E1.15539
G1 X111.247 Y92.581 E0.01674
G1 X137.819 Y119.153 E1.17907
G1 X138.353 Y119.153 E0.01674
G1 X111.247 Y92.047 E1.20275
G1 X111.247 Y91.514 E0.01674
G1 X138.753 Y119.020 E1.22052
G1 X138.753 Y118.486 E0.01674
G1 X111.247 Y90.980 E1.22052
G1 X111.247 Y90.847 E0.00418
G1 X111.647 Y90.847 E0.01256
G1 X138.753 Y117.953 E1.20276
G1 X138.753 Y117.419 E0.01674
G1 X112.181 Y90.847 E1.17908
G1 X112.715 Y90.847 E0.01674
G1 X138.753 Y116.885 E1.15540
G1 X138.753 Y116.352 E0.01674
G1 X113.248 Y90.847 E1.13172
G1 X113.782 Y90.847 E0.01674
G1 X138.753 Y115.818 E1.10804
G1 X138.753 Y115.284 E0.01674
G1 X114.316 Y90.847 E1.08436
G1 X114.849 Y90.847 E0.01674
G1 X138.753 Y114.751 E1.06068
G1 X138.753 Y114.217 E0.01674
G1 X115.383 Y90.847 E1.03700
G1 X115.917 Y90.847 E0.01674
G1 X138.753 Y113.683 E1.01332
G1 X138.753 Y113.150 E0.01674
G1 X116.450 Y90.847 E0.98964
G1 X116.984 Y90.847 E0.01674
G1 X138.753 Y112.616 E0.96596
G1 X138.753 Y112.083 E0.01674
G1 X117.517 Y90.847 E0.94228
G1 X118.051 Y90.847 E0.01674
G1 X138.753 Y111.549 E0.91860
G1 X138.753 Y111.015 E0.01674
G1 X118.585 Y90.847 E0.89492
G1 X119.118 Y90.847 E0.01674
G1 X138.753 Y110.482 E0.87125
G1 X138.753 Y109.948 E0.01674
G1 X119.652 Y90.847 E0.84757
M73 Q5 S38
M73 P5 R38
G1 X120.186 Y90.847 E0.01674
G1 X138.753 Y109.414 E0.82389
G1 X138.753 Y108.881 E0.01674
G1 X120.719 Y90.847 E0.80021
G1 X121.253 Y90.847 E0.01674
G1 X138.753 Y108.347 E0.77653
G1 X138.753 Y107.813 E0.01674
G1 X121.787 Y90.847 E0.75285
G1 X122.320 Y90.847 E0.01674
G1 X138.753 Y107.280 E0.72917
G1 X138.753 Y106.746 E0.01674
G1 X122.854 Y90.847 E0.70549
G1 X123.388 Y90.847 E0.01674
G1 X138.753 Y106.212 E0.68181
G1 X138.753 Y105.679 E0.01674
G1 X123.921 Y90.847 E0.65813
G1 X124.455 Y90.847 E0.01674
G1 X138.753 Y105.145 E0.63445
G1 X138.753 Y104.612 E0.01674
G1 X124.988 Y90.847 E0.61077
G1 X125.522 Y90.847 E0.01674
G1 X138.753 Y104.078 E0.58709
G1 X138.753 Y103.544 E0.01674
G1 X126.056 Y90.847 E0.56341
G1 X126.589 Y90.847 E0.01674
G1 X138.753 Y103.011 E0.53973
G1 X138.753 Y102.477 E0.01674
G1 X127.123 Y90.847 E0.51606
G1 X127.657 Y90.847 E0.01674
G1 X138.753 Y101.943 E0.49238
G1 X138.753 Y101.410 E0.01674
G1 X128.190 Y90.847 E0.46870
G1 X128.724 Y90.847 E0.01674
G1 X138.753 Y100.876 E0.44502
G1 X138.753 Y100.342 E0.01674
G1 X129.258 Y90.847 E0.42134
G1 X129.791 Y90.847 E0.01674
G1 X138.753 Y99.809 E0.39766
G1 X138.753 Y99.275 E0.01674
G1 X130.325 Y90.847 E0.37398
G1 X130.859 Y90.847 E0.01674
G1 X138.753 Y98.741 E0.35030
G1 X138.753 Y98.208 E0.01674
G1 X131.392 Y90.847 E0.32662
G1 X131.926 Y90.847 E0.01674
G1 X138.753 Y97.674 E0.30294
G1 X138.753 Y97.141 E0.01674
G1 X132.459 Y90.847 E0.27926
G1 X132.993 Y90.847 E0.01674
G1 X138.753 Y96.607 E0.25558
G1 X138.753 Y96.073 E0.01674
G1 X133.527 Y90.847 E0.23190
G1 X134.060 Y90.847 E0.01674
G1 X138.753 Y95.540 E0.20822
G1 X138.753 Y95.006 E0.01674
G1 X134.594 Y90.847 E0.18455
G1 X135.128 Y90.847 E0.01674
G1 X138.753 Y94.472 E0.16087
G1 X138.753 Y93.939 E0.01674
G1 X135.661 Y90.847 E0.13719
G1 X136.195 Y90.847 E0.01674
G1 X138.753 Y93.405 E0.11351
G1 X138.753 Y92.871 E0.01674
G1 X136.729 Y90.847 E0.08983
G1 X137.262 Y90.847 E0.01674
G1 X138.753 Y92.338 E0.06615
G1 X138.753 Y91.804 E0.01674
G1 X137.796 Y90.847 E0.04247
G1 X138.330 Y90.847 E0.01674
G1 X138.923 Y91.440 E0.02632
;BEFORE_LAYER_CHANGE
G92 E0.0
;0.4


G1 F8640
G1 X138.330 Y90.847 E-0.19369
G1 X137.796 Y90.847 E-0.12322
G1 X138.753 Y91.804 E-0.31254
G1 X138.753 Y92.338 E-0.12322
G1 X138.731 Y92.315 E-0.00733
G1 E-0.04000 F2100.00000
G1 Z0.800 F10800.000
;AFTER_LAYER_CHANGE
;0.4
M104 S250 ; set temperature
M140 S90 ; set bed temperature
G1 X141.992 Y88.294
G1 Z0.400
G1 E0.80000 F2100.00000
G1 F3000
G1 X142.186 Y89.099 E0.02597
G1 X142.188 Y120.837 E0.99510
G1 X142.040 Y121.593 E0.02417
G1 X141.636 Y122.254 E0.02428
G1 X140.903 Y122.794 E0.02855
G1 X140.013 Y122.988 E0.02855
G1 X109.960 Y122.988 E0.94230
G1 X109.204 Y122.839 E0.02417
G1 X108.546 Y122.436 E0.02417
G1 X108.006 Y121.703 E0.02855
G1 X107.812 Y120.813 E0.02855
G1 X107.812 Y89.163 E0.99235
G1 X107.960 Y88.407 E0.02417
G1 X108.364 Y87.746 E0.02428
G1 X109.081 Y87.214 E0.02799
G1 X109.950 Y87.012 E0.02799
G1 X140.004 Y87.011 E0.94230
G1 X140.817 Y87.170 E0.02597
G1 X141.513 Y87.618 E0.02597
G1 X141.957 Y88.245 E0.02409
G1 F8640
G1 X142.186 Y89.099 E-0.20418
G1 X142.186 Y91.506 E-0.55582
G1 E-0.04000 F2100.00000
G1 Z1.000 F10800.000
G1 X138.961 Y119.561
G1 Z0.400
G1 E0.80000 F2100.00000
M204 S800
G1 F2700
G1 X111.039 Y119.561 E0.94512
G1 X111.039 Y90.439 E0.98573
G1 X138.961 Y90.439 E0.94512
G1 X138.961 Y119.501 E0.98370
M204 S1000
G1 X139.368 Y119.968 F10800.000
M204 S800
G1 F2700
G1 X110.632 Y119.968 E0.97267
G1 X110.632 Y90.032 E1.01329
G1 X139.368 Y90.032 E0.97267
G1 X139.368 Y119.908 E1.01126
M204 S1000
G1 X139.775 Y120.375 F10800.000
M204 S800
G1 F1500
G1 X110.225 Y120.375 E1.00023
G1 X110.225 Y89.625 E1.04085
G1 X139.775 Y89.625 E1.00023
G1 X139.775 Y120.315 E1.03882
M204 S1000
G1 X139.389 Y120.269 F10800.000
G1 F8640
G1 X136.484 Y120.322 E-0.76000
G1 E-0.04000 F2100.00000
G1 Z1.000 F10800.000
G1 X138.012 Y119.439
G1 Z0.400
G1 E0.80000 F2100.00000
M204 S1250
G1 F4800
G1 X138.656 Y118.796 E0.03090
G1 X138.656 Y118.218 E0.01964
G1 X137.618 Y119.256 E0.04987
G1 X137.040 Y119.256 E0.01964
G1 X138.656 Y117.640 E0.07764
G1 X138.656 Y117.062 E0.01964
G1 X136.462 Y119.256 E0.10541
G1 X135.884 Y119.256 E0.01964
G1 X138.656 Y116.484 E0.13319
G1 X138.656 Y115.906 E0.01964
G1 X135.306 Y119.256 E0.16096
G1 X134.728 Y119.256 E0.01964
G1 X138.656 Y115.328 E0.18873
G1 X138.656 Y114.750 E0.01964
G1 X134.150 Y119.256 E0.21650
G1 X133.572 Y119.256 E0.01964
G1 X138.656 Y114.172 E0.24427
G1 X138.656 Y113.594 E0.01964
G1 X132.994 Y119.256 E0.27204
G1 X132.416 Y119.256 E0.01964
G1 X138.656 Y113.016 E0.29982
G1 X138.656 Y112.439 E0.01964
G1 X131.839 Y119.256 E0.32759
G1 X131.261 Y119.256 E0.01964
G1 X138.656 Y111.861 E0.35536
G1 X138.656 Y111.283 E0.01964
G1 X130.683 Y119.256 E0.38313
G1 X130.105 Y119.256 E0.01964
G1 X138.656 Y110.705 E0.41090
G1 X138.656 Y110.127 E0.01964
G1 X129.527 Y119.256 E0.43867
G1 X128.949 Y119.256 E0.01964
G1 X138.656 Y109.549 E0.46645
G1 X138.656 Y108.971 E0.01964
G1 X128.371 Y119.256 E0.49422
G1 X127.793 Y119.256 E0.01964
G1 X138.656 Y108.393 E0.52199
G1 X138.656 Y107.815 E0.01964
G1 X127.215 Y119.256 E0.54976
G1 X126.637 Y119.256 E0.01964
G1 X138.656 Y107.237 E0.57753
G1 X138.656 Y106.659 E0.01964
G1 X126.059 Y119.256 E0.60530
G1 X125.481 Y119.256 E0.01964
G1 X138.656 Y106.081 E0.63307
G1 X138.656 Y105.503 E0.01964
G1 X124.903 Y119.256 E0.66085
G1 X124.326 Y119.256 E0.01964
G1 X138.656 Y104.926 E0.68862
G1 X138.656 Y104.348 E0.01964
G1 X123.748 Y119.256 E0.71639
G1 X123.170 Y119.256 E0.01964
G1 X138.656 Y103.770 E0.74416
G1 X138.656 Y103.192 E0.01964
G1 X122.592 Y119.256 E0.77193
G1 X122.014 Y119.256 E0.01964
G1 X138.656 Y102.614 E0.79970
G1 X138.656 Y102.036 E0.01964
G1 X121.436 Y119.256 E0.82748
G1 X120.858 Y119.256 E0.01964
G1 X138.656 Y101.458 E0.85525
G1 X138.656 Y100.880 E0.01964
G1 X120.280 Y119.256 E0.88302
G1 X119.702 Y119.256 E0.01964
G1 X138.656 Y100.302 E0.91079
G1 X138.656 Y99.724 E0.01964
G1 X119.124 Y119.256 E0.93856
G1 X118.546 Y119.256 E0.01964
G1 X138.656 Y99.146 E0.96633
G1 X138.656 Y98.568 E0.01964
G1 X117.968 Y119.256 E0.99411
G1 X117.391 Y119.256 E0.01964
G1 X138.656 Y97.991 E1.02188
G1 X138.656 Y97.413 E0.01964
G1 X116.813 Y119.256 E1.04965
G1 X116.235 Y119.256 E0.01964
G1 X138.656 Y96.835 E1.07742
G1 X138.656 Y96.257 E0.01964
G1 X115.657 Y119.256 E1.10519
G1 X115.079 Y119.256 E0.01964
G1 X138.656 Y95.679 E1.13296
G1 X138.656 Y95.101 E0.01964
G1 X114.501 Y119.256 E1.16074
G1 X113.923 Y119.256 E0.01964
G1 X138.656 Y94.523 E1.18851
G1 X138.656 Y93.945 E0.01964
G1 X113.345 Y119.256 E1.21628
G1 X112.767 Y119.256 E0.01964
G1 X138.656 Y93.367 E1.24405
G1 X138.656 Y92.789 E0.01964
G1 X112.189 Y119.256 E1.27182
G1 X111.611 Y119.256 E0.01964
G1 X138.656 Y92.211 E1.29959
G1 X138.656 Y91.633 E0.01964
G1 X111.344 Y118.944 E1.31242
G1 X111.344 Y118.367 E0.01964
G1 X138.656 Y91.055 E1.31242
G1 X138.656 Y90.744 E0.01057
G1 X138.389 Y90.744 E0.00907
G1 X111.344 Y117.789 E1.29959
G1 X111.344 Y117.211 E0.01964
G1 X137.811 Y90.744 E1.27182
G1 X137.233 Y90.744 E0.01964
G1 X111.344 Y116.633 E1.24405
G1 X111.344 Y116.055 E0.01964
G1 X136.655 Y90.744 E1.21627
G1 X136.077 Y90.744 E0.01964
G1 X111.344 Y115.477 E1.18850
G1 X111.344 Y114.899 E0.01964
G1 X135.499 Y90.744 E1.16073
G1 X134.921 Y90.744 E0.01964
G1 X111.344 Y114.321 E1.13296
G1 X111.344 Y113.743 E0.01964
G1 X134.343 Y90.744 E1.10519
M73 Q7 S37
M73 P7 R37
G1 X133.765 Y90.744 E0.01964
G1 X111.344 Y113.165 E1.07742
G1 X111.344 Y112.587 E0.01964
G1 X133.187 Y90.744 E1.04965
G1 X132.609 Y90.744 E0.01964
G1 X111.344 Y112.009 E1.02187
G1 X111.344 Y111.431 E0.01964
G1 X132.031 Y90.744 E0.99410
G1 X131.454 Y90.744 E0.01964
G1 X111.344 Y110.854 E0.96633
G1 X111.344 Y110.276 E0.01964
G1 X130.876 Y90.744 E0.93856
G1 X130.298 Y90.744 E0.01964
G1 X111.344 Y109.698 E0.91079
G1 X111.344 Y109.120 E0.01964
G1 X129.720 Y90.744 E0.88302
G1 X129.142 Y90.744 E0.01964
G1 X111.344 Y108.542 E0.85524
G1 X111.344 Y107.964 E0.01964
G1 X128.564 Y90.744 E0.82747
G1 X127.986 Y90.744 E0.01964
G1 X111.344 Y107.386 E0.79970
G1 X111.344 Y106.808 E0.01964
G1 X127.408 Y90.744 E0.77193
G1 X126.830 Y90.744 E0.01964
G1 X111.344 Y106.230 E0.74416
G1 X111.344 Y105.652 E0.01964
G1 X126.252 Y90.744 E0.71639
G1 X125.674 Y90.744 E0.01964
G1 X111.344 Y105.074 E0.68861
G1 X111.344 Y104.496 E0.01964
G1 X125.096 Y90.744 E0.66084
G1 X124.519 Y90.744 E0.01964
G1 X111.344 Y103.919 E0.63307
G1 X111.344 Y103.341 E0.01964
G1 X123.941 Y90.744 E0.60530
G1 X123.363 Y90.744 E0.01964
G1 X111.344 Y102.763 E0.57753
G1 X111.344 Y102.185 E0.01964
G1 X122.785 Y90.744 E0.54976
G1 X122.207 Y90.744 E0.01964
G1 X111.344 Y101.607 E0.52198
G1 X111.344 Y101.029 E0.01964
G1 X121.629 Y90.744 E0.49421
G1 X121.051 Y90.744 E0.01964
G1 X111.344 Y100.451 E0.46644
G1 X111.344 Y99.873 E0.01964
G1 X120.473 Y90.744 E0.43867
G1 X119.895 Y90.744 E0.01964
G1 X111.344 Y99.295 E0.41090
G1 X111.344 Y98.717 E0.01964
G1 X119.317 Y90.744 E0.38313
G1 X118.739 Y90.744 E0.01964
