; generated by PrusaSlicer 2.0.0+win64 on 2019-09-06 at 09:35:10

; 

; external perimeters extrusion width = 0.45mm
; perimeters extrusion width = 0.45mm
; infill extrusion width = 0.45mm
; solid infill extrusion width = 0.45mm
; top infill extrusion width = 0.40mm
; first layer extrusion width = 0.42mm

M73 P0 R13
M73 Q0 S13
M201 X1000 Y1000 Z1000 E5000 ; sets maximum accelerations, mm/sec^2
M203 X200 Y200 Z12 E120 ; sets maximum feedrates, mm/sec
M204 P1250 R1250 T1250 ; sets acceleration (P, T) and retract acceleration (R), mm/sec^2
M205 X8.00 Y8.00 Z0.40 E1.50 ; sets the jerk limits, mm/sec
M205 S0 T0 ; sets the minimum extruding and travel feed rate, mm/sec
M107
M115 U3.7.2 ; tell printer latest fw version
G90 ; use absolute coordinates
M83 ; extruder relative mode
M104 S240 ; set extruder temp
M140 S85 ; set bed temp
Tx
M190 S85 ; wait for bed temp
M109 S240 ; wait for extruder temp
G28 W ; home all without mesh bed level
G80 ; mesh bed leveling

G21 ; set units to millimeters

;go outside print area
G1 Y-3.0 F1000.0
G1 Z0.4 F1000.0
; select extruder
Tc
; purge line
G1 X55.0 F2000.0
G1 Z0.3 F1000.0
G92 E0.0
G1 X240.0 E25.0 F2200.0
M73 Q0 S13
M73 P0 R13
G1 Y-2.0 F1000.0
G1 X55.0 E25 F1400.0
G1 Z0.20 F1000.0
G1 X5.0 E4.0 F1000.0

M221 S95
G92 E0.0
M900 K45 ; Filament gcode
G21 ; set units to millimeters
G90 ; use absolute coordinates
M83 ; use relative distances for extrusion
;BEFORE_LAYER_CHANGE
G92 E0.0
;0.2


G1 E-0.80000 F2100.00000
G1 Z0.600 F10800.000
;AFTER_LAYER_CHANGE
;0.2
G1 X125.068 Y79.056
G1 Z0.200
G1 E0.80000 F2100.00000
M204 S1000
G1 F1200
G1 X125.837 Y78.839 E0.02506
G1 X129.204 Y78.569 E0.10592
G1 X129.792 Y78.639 E0.01857
G1 X130.261 Y78.789 E0.01542
G1 X133.185 Y80.171 E0.10140
G1 X133.751 Y80.570 E0.02172
G1 X134.112 Y80.965 E0.01679
G1 X135.969 Y83.653 E0.10243
G1 X136.240 Y84.255 E0.02071
G1 X136.351 Y84.796 E0.01731
G1 X136.614 Y88.119 E0.10451
G1 X135.733 Y129.365 E1.29355
G1 X135.551 Y130.122 E0.02439
G1 X135.117 Y130.767 E0.02439
G1 X134.484 Y131.220 E0.02439
G1 X133.733 Y131.423 E0.02439
G1 X132.149 Y131.272 E0.04990
G1 X130.672 Y130.990 E0.04715
G1 X128.060 Y130.226 E0.08532
G1 X126.630 Y129.655 E0.04829
G1 X124.214 Y128.409 E0.08521
G1 X122.961 Y127.605 E0.04669
G1 X121.768 Y126.719 E0.04661
G1 X119.722 Y124.876 E0.08631
G1 X118.710 Y123.769 E0.04703
G1 X117.080 Y121.608 E0.08486
G1 X116.300 Y120.344 E0.04658
G1 X115.607 Y119.025 E0.04672
G1 X114.579 Y116.526 E0.08472
G1 X114.144 Y115.102 E0.04668
G1 X113.808 Y113.654 E0.04662
G1 X113.443 Y110.944 E0.08574
G1 X113.427 Y108.003 E0.09222
G1 X113.755 Y105.321 E0.08471
G1 X114.081 Y103.838 E0.04760
G1 X119.818 Y85.139 E0.61327
G1 X121.265 Y82.035 E0.10738
G1 X121.553 Y81.584 E0.01678
G1 X122.007 Y81.125 E0.02024
G1 X125.018 Y79.089 E0.11397
G1 F8640
G1 X125.837 Y78.839 E-0.19772
G1 X128.264 Y78.645 E-0.56228
G1 E-0.04000 F2100.00000
G1 Z0.800 F10800.000
G1 X129.667 Y88.125
G1 Z0.200
G1 E0.80000 F2100.00000
G1 F1200
G1 X129.424 Y88.400 E0.01151
G1 X129.146 Y88.615 E0.01103
G1 X128.832 Y88.774 E0.01103
G1 X128.495 Y88.872 E0.01103
G1 X128.144 Y88.904 E0.01103
G1 X127.794 Y88.871 E0.01103
G1 X127.442 Y88.768 E0.01151
G1 X127.058 Y88.556 E0.01375
G1 X126.783 Y88.313 E0.01151
G1 X126.568 Y88.034 E0.01103
G1 X126.409 Y87.721 E0.01103
G1 X126.312 Y87.383 E0.01103
G1 X126.279 Y87.033 E0.01103
G1 X126.313 Y86.683 E0.01103
G1 X126.412 Y86.345 E0.01103
G1 X126.572 Y86.032 E0.01103
G1 X126.788 Y85.755 E0.01103
G1 X127.052 Y85.522 E0.01103
G1 X127.355 Y85.344 E0.01103
G1 X127.700 Y85.220 E0.01149
G1 X128.133 Y85.166 E0.01367
G1 X128.500 Y85.201 E0.01158
G1 X128.838 Y85.300 E0.01105
G1 X129.152 Y85.460 E0.01103
G1 X129.429 Y85.676 E0.01103
G1 X129.671 Y85.952 E0.01151
G1 X129.882 Y86.336 E0.01375
G1 X129.984 Y86.689 E0.01151
G1 X130.016 Y87.039 E0.01103
G1 X129.982 Y87.389 E0.01103
G1 X129.879 Y87.742 E0.01151
G1 X129.696 Y88.073 E0.01187
G1 X129.357 Y87.907 F10800.000
G1 F1200
G1 X129.166 Y88.124 E0.00908
G1 X128.944 Y88.295 E0.00879
G1 X128.694 Y88.422 E0.00879
G1 X128.424 Y88.500 E0.00879
G1 X128.145 Y88.526 E0.00879
G1 X127.866 Y88.499 E0.00879
G1 X127.588 Y88.417 E0.00908
G1 X127.277 Y88.246 E0.01114
G1 X127.060 Y88.054 E0.00908
G1 X126.888 Y87.832 E0.00879
G1 X126.762 Y87.582 E0.00879
G1 X126.684 Y87.313 E0.00879
G1 X126.658 Y87.033 E0.00879
G1 X126.685 Y86.754 E0.00879
G1 X126.764 Y86.485 E0.00879
G1 X126.891 Y86.236 E0.00879
G1 X127.063 Y86.014 E0.00879
G1 X127.274 Y85.829 E0.00879
G1 X127.516 Y85.687 E0.00879
G1 X127.788 Y85.589 E0.00908
G1 X128.138 Y85.545 E0.01107
G1 X128.429 Y85.573 E0.00915
G1 X128.698 Y85.652 E0.00880
G1 X128.948 Y85.780 E0.00879
G1 X129.169 Y85.952 E0.00879
G1 X129.361 Y86.169 E0.00908
G1 X129.531 Y86.481 E0.01114
G1 X129.611 Y86.759 E0.00908
G1 X129.637 Y87.039 E0.00879
G1 X129.610 Y87.318 E0.00879
G1 X129.529 Y87.596 E0.00908
G1 X129.386 Y87.854 E0.00926
G1 X129.047 Y87.688 F10800.000
G1 F1200
G1 X128.907 Y87.847 E0.00666
G1 X128.741 Y87.975 E0.00656
G1 X128.555 Y88.070 E0.00656
G1 X128.354 Y88.128 E0.00656
G1 X128.146 Y88.147 E0.00656
G1 X127.938 Y88.127 E0.00656
G1 X127.734 Y88.067 E0.00666
G1 X127.496 Y87.936 E0.00853
G1 X127.336 Y87.795 E0.00666
G1 X127.209 Y87.630 E0.00656
G1 X127.114 Y87.443 E0.00656
G1 X127.056 Y87.242 E0.00656
G1 X127.037 Y87.034 E0.00656
G1 X127.057 Y86.826 E0.00656
G1 X127.115 Y86.625 E0.00656
G1 X127.211 Y86.439 E0.00656
G1 X127.339 Y86.274 E0.00656
G1 X127.496 Y86.136 E0.00656
G1 X127.676 Y86.030 E0.00656
G1 X127.876 Y85.958 E0.00666
G1 X128.144 Y85.925 E0.00846
G1 X128.358 Y85.945 E0.00672
G1 X128.558 Y86.004 E0.00656
G1 X128.745 Y86.099 E0.00656
G1 X128.910 Y86.227 E0.00656
G1 X129.050 Y86.387 E0.00666
G1 X129.180 Y86.626 E0.00853
G1 X129.239 Y86.830 E0.00666
G1 X129.259 Y87.038 E0.00656
G1 X129.239 Y87.246 E0.00656
G1 X129.179 Y87.450 E0.00666
G1 X129.076 Y87.636 E0.00665
G1 X129.136 Y87.881 F10800.000
G1 F8640
G1 X128.907 Y87.847 E-0.06264
G1 X128.741 Y87.975 E-0.04828
G1 X128.555 Y88.070 E-0.04828
G1 X128.354 Y88.128 E-0.04828
G1 X128.146 Y88.147 E-0.04828
G1 X127.938 Y88.127 E-0.04828
G1 X127.734 Y88.067 E-0.04905
G1 X127.496 Y87.936 E-0.06280
G1 X127.336 Y87.795 E-0.04905
G1 X127.209 Y87.630 E-0.04828
G1 X127.114 Y87.443 E-0.04828
G1 X127.056 Y87.242 E-0.04828
G1 X127.037 Y87.034 E-0.04828
G1 X127.057 Y86.826 E-0.04828
G1 X127.115 Y86.625 E-0.04828
G1 X127.126 Y86.605 E-0.00537
G1 E-0.04000 F2100.00000
G1 Z0.800 F10800.000
G1 X131.539 Y87.677
G1 Z0.200
G1 E0.80000 F2100.00000
G1 F1200
G1 X131.219 Y87.956 E0.01331
G1 X130.845 Y88.743 E0.02734
G1 X130.776 Y89.112 E0.01178
G1 X130.842 Y89.459 E0.01106
G1 X123.465 Y102.525 E0.47049
G1 X123.033 Y103.439 E0.03168
G1 X122.686 Y104.239 E0.02733
G1 X122.385 Y105.073 E0.02782
G1 X122.139 Y105.925 E0.02781
G1 X121.947 Y106.792 E0.02781
G1 X121.812 Y107.668 E0.02782
G1 X121.732 Y108.552 E0.02781
G1 X121.709 Y109.439 E0.02782
G1 X121.744 Y110.325 E0.02781
G1 X121.834 Y111.208 E0.02781
G1 X121.981 Y112.082 E0.02782
G1 X122.184 Y112.946 E0.02782
G1 X122.441 Y113.795 E0.02781
G1 X122.754 Y114.631 E0.02797
G1 X123.193 Y115.581 E0.03282
G1 X123.531 Y116.219 E0.02264
G1 X123.995 Y116.975 E0.02782
G1 X124.506 Y117.700 E0.02782
G1 X125.063 Y118.391 E0.02781
G1 X125.662 Y119.045 E0.02782
G1 X126.303 Y119.659 E0.02781
G1 X126.981 Y120.231 E0.02782
G1 X127.694 Y120.758 E0.02781
G1 X128.440 Y121.238 E0.02781
G1 X129.215 Y121.670 E0.02782
G1 X130.016 Y122.052 E0.02782
G1 X130.840 Y122.381 E0.02782
G1 X131.683 Y122.657 E0.02781
G1 X132.183 Y122.787 E0.01622
G1 X132.183 Y127.665 E0.15296
G1 X131.498 Y127.534 E0.02188
G1 X130.344 Y127.236 E0.03739
G1 X129.210 Y126.865 E0.03739
G1 X128.103 Y126.422 E0.03739
G1 X127.027 Y125.910 E0.03739
G1 X125.985 Y125.329 E0.03739
G1 X124.983 Y124.683 E0.03739
G1 X124.024 Y123.975 E0.03739
G1 X123.112 Y123.206 E0.03739
G1 X122.252 Y122.381 E0.03739
G1 X121.446 Y121.502 E0.03739
G1 X120.698 Y120.574 E0.03738
G1 X120.010 Y119.599 E0.03739
G1 X119.387 Y118.583 E0.03739
G1 X118.829 Y117.529 E0.03739
G1 X118.341 Y116.441 E0.03738
G1 X117.922 Y115.325 E0.03739
G1 X117.576 Y114.184 E0.03739
G1 X117.304 Y113.023 E0.03738
G1 X117.107 Y111.847 E0.03739
G1 X116.985 Y110.661 E0.03739
G1 X116.939 Y109.469 E0.03738
G1 X116.969 Y108.277 E0.03739
G1 X117.076 Y107.090 E0.03739
G1 X117.307 Y105.692 E0.04443
G1 X117.516 Y104.747 E0.03033
G1 X117.847 Y103.602 E0.03739
G1 X118.251 Y102.480 E0.03739
G1 X118.732 Y101.372 E0.03787
G1 X119.151 Y100.486 E0.03071
G1 X124.554 Y86.521 E0.46950
G1 X125.039 Y86.180 E0.01859
G1 X125.449 Y85.333 E0.02953
G1 X125.520 Y84.960 E0.01190
G1 X125.487 Y84.790 E0.00540
G1 X125.958 Y84.698 E0.01503
G1 X126.669 Y84.207 E0.02710
G1 X127.007 Y83.775 E0.01719
G1 X127.420 Y83.916 E0.01369
G1 X128.282 Y83.846 E0.02711
G1 X128.761 Y83.661 E0.01610
G1 X129.144 Y84.003 E0.01610
G1 X129.926 Y84.372 E0.02711
G1 X130.405 Y84.386 E0.01501
G1 X130.443 Y84.771 E0.01215
G1 X130.972 Y85.551 E0.02953
G1 X131.260 Y85.798 E0.01190
G1 X131.423 Y85.855 E0.00541
G1 X131.267 Y86.308 E0.01503
G1 X131.337 Y87.170 E0.02711
G1 X131.513 Y87.624 E0.01527
G1 F8640
G1 X131.219 Y87.956 E-0.10215
G1 X130.845 Y88.743 E-0.20131
G1 X130.776 Y89.112 E-0.08679
G1 X130.842 Y89.459 E-0.08144
G1 X130.228 Y90.546 E-0.28831
G1 E-0.04000 F2100.00000
G1 Z0.800 F10800.000
G1 X131.794 Y85.935
G1 Z0.200
G1 E0.80000 F2100.00000
G1 F1200
G1 X131.650 Y86.356 E0.01396
G1 X131.709 Y87.085 E0.02294
G1 X131.841 Y87.427 E0.01147
G1 X132.219 Y87.689 E0.01444
G1 X133.027 Y87.726 E0.02534
G1 X133.178 Y87.778 E0.00501
G1 X133.402 Y87.900 E0.00800
G1 X133.566 Y88.023 E0.00644
G1 X133.186 Y88.106 E0.01219
G1 X132.941 Y88.107 E0.00768
G1 X132.232 Y87.867 E0.02347
G1 X131.823 Y87.930 E0.01299
G1 X131.526 Y88.188 E0.01232
G1 X131.207 Y88.861 E0.02335
G1 X131.159 Y89.112 E0.00800
G1 X131.220 Y89.426 E0.01004
G1 X131.433 Y89.700 E0.01089
G1 X132.059 Y90.100 E0.02327
G1 X132.173 Y90.250 E0.00590
G1 X132.353 Y90.604 E0.01244
G1 X132.157 Y90.551 E0.00635
G1 X131.914 Y90.452 E0.00825
G1 X131.768 Y90.362 E0.00537
G1 X131.133 Y89.710 E0.02852
G1 X123.800 Y102.699 E0.46767
G1 X123.376 Y103.595 E0.03106
G1 X123.036 Y104.378 E0.02676
G1 X122.744 Y105.190 E0.02706
G1 X122.504 Y106.019 E0.02706
G1 X122.318 Y106.861 E0.02706
G1 X122.186 Y107.714 E0.02706
G1 X122.109 Y108.574 E0.02706
G1 X122.087 Y109.436 E0.02706
G1 X122.120 Y110.299 E0.02706
G1 X122.208 Y111.157 E0.02706
G1 X122.351 Y112.008 E0.02706
G1 X122.548 Y112.848 E0.02706
G1 X122.798 Y113.674 E0.02706
G1 X123.102 Y114.485 E0.02716
G1 X123.531 Y115.414 E0.03207
G1 X123.858 Y116.032 E0.02195
G1 X124.310 Y116.768 E0.02706
G1 X124.807 Y117.473 E0.02706
G1 X125.349 Y118.145 E0.02706
G1 X125.932 Y118.781 E0.02706
G1 X126.555 Y119.378 E0.02706
G1 X127.215 Y119.935 E0.02706
G1 X127.909 Y120.447 E0.02706
G1 X128.634 Y120.915 E0.02706
G1 X129.388 Y121.335 E0.02706
G1 X130.167 Y121.706 E0.02706
G1 X130.968 Y122.027 E0.02706
G1 X131.788 Y122.295 E0.02706
G1 X132.561 Y122.494 E0.02500
G1 X132.561 Y128.121 E0.17641
G1 X131.416 Y127.902 E0.03655
G1 X130.238 Y127.598 E0.03814
G1 X129.082 Y127.220 E0.03814
G1 X127.952 Y126.768 E0.03814
G1 X126.854 Y126.245 E0.03814
G1 X125.791 Y125.653 E0.03814
G1 X124.769 Y124.994 E0.03814
G1 X123.790 Y124.271 E0.03814
G1 X122.860 Y123.486 E0.03814
G1 X121.982 Y122.644 E0.03814
G1 X121.160 Y121.748 E0.03814
G1 X120.396 Y120.801 E0.03814
G1 X119.695 Y119.807 E0.03814
G1 X119.059 Y118.770 E0.03814
G1 X118.490 Y117.694 E0.03814
G1 X117.992 Y116.585 E0.03814
G1 X117.565 Y115.446 E0.03815
G1 X117.212 Y114.281 E0.03814
G1 X116.934 Y113.097 E0.03814
G1 X116.733 Y111.897 E0.03814
G1 X116.608 Y110.687 E0.03814
G1 X116.562 Y109.472 E0.03814
G1 X116.593 Y108.256 E0.03814
G1 X116.702 Y107.044 E0.03814
G1 X116.888 Y105.842 E0.03814
G1 X116.939 Y105.610 E0.00744
G1 X117.150 Y104.654 E0.03071
G1 X117.488 Y103.485 E0.03814
G1 X117.900 Y102.341 E0.03814
G1 X118.389 Y101.216 E0.03844
G1 X118.804 Y100.338 E0.03047
G1 X124.186 Y86.427 E0.46767
G1 X123.280 Y86.350 E0.02852
G1 X123.117 Y86.294 E0.00537
G1 X122.886 Y86.169 E0.00825
G1 X122.722 Y86.051 E0.00635
G1 X123.109 Y85.966 E0.01244
G1 X123.297 Y85.958 E0.00590
G1 X124.054 Y86.202 E0.02492
G1 X124.425 Y86.157 E0.01172
G1 X124.741 Y85.930 E0.01220
G1 X125.088 Y85.213 E0.02496
G1 X125.136 Y84.960 E0.00807
G1 X125.075 Y84.646 E0.01004
G1 X124.862 Y84.372 E0.01089
G1 X124.292 Y84.020 E0.02100
G1 X124.160 Y83.874 E0.00618
G1 X124.025 Y83.654 E0.00809
G1 X123.941 Y83.469 E0.00637
G1 X124.239 Y83.557 E0.00974
G1 X124.510 Y83.696 E0.00956
G1 X124.991 Y84.238 E0.02273
G1 X125.371 Y84.429 E0.01332
G1 X125.808 Y84.343 E0.01396
G1 X126.409 Y83.927 E0.02293
G1 X126.639 Y83.643 E0.01148
G1 X126.677 Y83.180 E0.01454
G1 X126.308 Y82.483 E0.02475
G1 X126.269 Y82.240 E0.00772
G1 X126.289 Y81.845 E0.01239
G1 X126.502 Y82.069 E0.00966
G1 X126.667 Y82.325 E0.00956
G1 X126.813 Y83.035 E0.02273
G1 X127.046 Y83.390 E0.01331
G1 X127.468 Y83.534 E0.01397
G1 X128.197 Y83.475 E0.02294
G1 X128.538 Y83.343 E0.01147
G1 X128.802 Y82.962 E0.01453
G1 X128.831 Y82.173 E0.02474
G1 X128.919 Y81.943 E0.00772
G1 X129.130 Y81.617 E0.01219
G1 X129.188 Y81.814 E0.00644
G1 X129.223 Y82.066 E0.00800
G1 X129.218 Y82.226 E0.00501
G1 X128.969 Y82.995 E0.02534
G1 X129.081 Y83.442 E0.01444
G1 X129.355 Y83.685 E0.01147
G1 X130.016 Y83.997 E0.02294
G1 X130.461 Y84.010 E0.01396
G1 X130.804 Y83.760 E0.01332
G1 X131.191 Y83.147 E0.02273
G1 X131.436 Y82.965 E0.00956
G1 X131.713 Y82.831 E0.00966
G1 X131.594 Y83.208 E0.01239
G1 X131.506 Y83.374 E0.00590
G1 X130.917 Y83.908 E0.02492
G1 X130.770 Y84.252 E0.01172
G1 X130.809 Y84.639 E0.01220
G1 X131.256 Y85.298 E0.02496
G1 X131.451 Y85.466 E0.00807
G1 X131.754 Y85.570 E0.01005
G1 X132.098 Y85.523 E0.01089
G1 X132.687 Y85.204 E0.02100
G1 X132.880 Y85.163 E0.00618
G1 X133.138 Y85.156 E0.00809
G1 X133.340 Y85.176 E0.00637
G1 X133.115 Y85.390 E0.00974
G1 X132.859 Y85.556 E0.00956
G1 X132.149 Y85.702 E0.02273
G1 X131.844 Y85.902 E0.01143
G1 X132.109 Y86.179 F10800.000
G1 F1200
G1 X132.032 Y86.404 E0.00745
G1 X132.080 Y87.000 E0.01876
G1 X132.151 Y87.183 E0.00613
G1 X132.345 Y87.317 E0.00741
G1 X133.098 Y87.352 E0.02363
G1 X133.330 Y87.431 E0.00770
G1 X133.607 Y87.582 E0.00988
G1 X133.949 Y87.840 E0.01345
G1 X134.206 Y88.093 E0.01130
G1 X134.199 Y88.174 E0.00254
G1 X133.859 Y88.325 E0.01167
G1 X133.579 Y88.415 E0.00921
G1 X133.229 Y88.482 E0.01118
G1 X132.859 Y88.478 E0.01159
G1 X132.198 Y88.254 E0.02189
G1 X131.988 Y88.286 E0.00667
G1 X131.833 Y88.421 E0.00643
G1 X131.568 Y88.979 E0.01937
G1 X131.543 Y89.111 E0.00422
G1 X131.573 Y89.266 E0.00495
G1 X131.689 Y89.415 E0.00592
G1 X132.253 Y89.762 E0.02076
G1 X132.490 Y90.045 E0.01157
G1 X132.661 Y90.358 E0.01118
G1 X132.769 Y90.631 E0.00921
G1 X132.864 Y90.989 E0.01162
G1 X132.818 Y91.045 E0.00230
G1 X132.616 Y91.032 E0.00635
G1 X132.298 Y90.979 E0.01009
G1 X132.037 Y90.909 E0.00847
G1 X131.742 Y90.790 E0.00997
G1 X131.530 Y90.659 E0.00783
G1 X131.214 Y90.334 E0.01420
G1 X124.135 Y102.872 E0.45147
G1 X123.720 Y103.750 E0.03044
G1 X123.387 Y104.517 E0.02620
G1 X123.103 Y105.306 E0.02630
G1 X122.870 Y106.112 E0.02630
G1 X122.689 Y106.931 E0.02630
G1 X122.561 Y107.760 E0.02630
G1 X122.486 Y108.595 E0.02630
G1 X122.464 Y109.434 E0.02630
G1 X122.496 Y110.272 E0.02630
G1 X122.582 Y111.107 E0.02630
G1 X122.721 Y111.934 E0.02630
G1 X122.912 Y112.750 E0.02630
G1 X123.156 Y113.553 E0.02630
G1 X123.450 Y114.340 E0.02634
G1 X123.869 Y115.246 E0.03131
G1 X124.186 Y115.845 E0.02125
G1 X124.625 Y116.560 E0.02630
G1 X125.108 Y117.246 E0.02630
G1 X125.635 Y117.899 E0.02630
G1 X126.202 Y118.517 E0.02630
G1 X126.807 Y119.098 E0.02630
G1 X127.449 Y119.638 E0.02630
G1 X128.123 Y120.137 E0.02630
G1 X128.828 Y120.591 E0.02630
G1 X129.561 Y121.000 E0.02630
G1 X130.318 Y121.361 E0.02630
G1 X131.097 Y121.672 E0.02630
G1 X131.894 Y121.933 E0.02630
G1 X132.938 Y122.187 E0.03367
G1 X132.938 Y128.551 E0.19955
G1 X132.552 Y128.503 E0.01219
G1 X131.333 Y128.270 E0.03890
G1 X130.132 Y127.960 E0.03890
G1 X128.953 Y127.574 E0.03890
G1 X128.721 Y127.482 E0.00781
G1 X127.801 Y127.114 E0.03109
G1 X126.681 Y126.580 E0.03890
G1 X125.597 Y125.976 E0.03890
