; generated by PrusaSlicer 2.0.0+win64 on 2019-09-08 at 11:37:05

; 

; external perimeters extrusion width = 0.45mm
; perimeters extrusion width = 0.45mm
; infill extrusion width = 0.45mm
; solid infill extrusion width = 0.45mm
; top infill extrusion width = 0.40mm
; first layer extrusion width = 0.42mm

M73 P0 R40
M73 Q0 S40
M201 X1000 Y1000 Z1000 E5000 ; sets maximum accelerations, mm/sec^2
M203 X200 Y200 Z12 E120 ; sets maximum feedrates, mm/sec
M204 P1250 R1250 T1250 ; sets acceleration (P, T) and retract acceleration (R), mm/sec^2
M205 X8.00 Y8.00 Z0.40 E1.50 ; sets the jerk limits, mm/sec
M205 S0 T0 ; sets the minimum extruding and travel feed rate, mm/sec
M107
M115 U3.7.2 ; tell printer latest fw version
G90 ; use absolute coordinates
M83 ; extruder relative mode
M104 S240 ; set extruder temp
M140 S85 ; set bed temp
Tx
M190 S85 ; wait for bed temp
M109 S240 ; wait for extruder temp
G28 W ; home all without mesh bed level
G80 ; mesh bed leveling

G21 ; set units to millimeters

;go outside print area
G1 Y-3.0 F1000.0
G1 Z0.4 F1000.0
; select extruder
Tc
; purge line
G1 X55.0 F2000.0
G1 Z0.3 F1000.0
G92 E0.0
G1 X240.0 E25.0 F2200.0
M73 Q0 S40
M73 P0 R39
G1 Y-2.0 F1000.0
G1 X55.0 E25 F1400.0
G1 Z0.20 F1000.0
G1 X5.0 E4.0 F1000.0

M221 S95
G92 E0.0
M900 K45 ; Filament gcode
G21 ; set units to millimeters
G90 ; use absolute coordinates
M83 ; use relative distances for extrusion
;BEFORE_LAYER_CHANGE
G92 E0.0
;0.2


G1 E-0.80000 F2100.00000
G1 Z0.600 F10800.000
;AFTER_LAYER_CHANGE
;0.2
G1 X109.081 Y87.214
G1 Z0.200
G1 E0.80000 F2100.00000
M204 S1000
G1 F1200
G1 X109.950 Y87.012 E0.02799
G1 X140.004 Y87.011 E0.94230
G1 X140.817 Y87.170 E0.02597
G1 X141.513 Y87.618 E0.02597
G1 X141.992 Y88.294 E0.02597
G1 X142.186 Y89.099 E0.02597
G1 X142.188 Y120.837 E0.99510
G1 X142.040 Y121.593 E0.02417
G1 X141.636 Y122.254 E0.02428
G1 X140.903 Y122.794 E0.02855
G1 X140.013 Y122.988 E0.02855
G1 X109.960 Y122.988 E0.94230
G1 X109.204 Y122.839 E0.02417
G1 X108.546 Y122.436 E0.02417
G1 X108.006 Y121.703 E0.02855
G1 X107.812 Y120.813 E0.02855
G1 X107.812 Y89.163 E0.99235
G1 X107.960 Y88.407 E0.02417
G1 X108.364 Y87.746 E0.02428
G1 X109.032 Y87.250 E0.02611
G1 F8640
G1 X109.950 Y87.012 E-0.21892
G1 X112.294 Y87.012 E-0.54108
G1 E-0.04000 F2100.00000
G1 Z0.800 F10800.000
G1 X137.087 Y119.587
G1 Z0.200
G1 E0.80000 F2100.00000
G1 F1200
G1 X127.913 Y119.587 E0.28765
G1 X127.913 Y114.913 E0.14655
G1 X137.087 Y114.913 E0.28765
G1 X137.087 Y119.527 E0.14467
G1 X136.710 Y119.210 F10800.000
G1 F1200
G1 X128.290 Y119.210 E0.26400
G1 X128.290 Y115.290 E0.12291
G1 X136.710 Y115.290 E0.26400
G1 X136.710 Y119.150 E0.12103
G1 X136.858 Y119.582 F10800.000
G1 F8640
G1 X133.419 Y119.173 E-0.76000
G1 E-0.04000 F2100.00000
G1 Z0.800 F10800.000
G1 X127.536 Y95.464
G1 Z0.200
G1 E0.80000 F2100.00000
G1 F1200
G1 X137.464 Y95.464 E0.31130
G1 X137.464 Y90.564 E0.15364
G1 X139.036 Y90.564 E0.04928
G1 X139.036 Y119.436 E0.90525
G1 X137.464 Y119.436 E0.04928
G1 X137.464 Y114.536 E0.15364
G1 X127.536 Y114.536 E0.31130
G1 X127.536 Y119.436 E0.15364
G1 X110.964 Y119.436 E0.51959
G1 X110.964 Y90.564 E0.90525
G1 X127.536 Y90.564 E0.51959
G1 X127.536 Y95.404 E0.15175
G1 X127.913 Y95.087 F10800.000
G1 F1200
G1 X127.913 Y90.413 E0.14655
G1 X137.087 Y90.413 E0.28765
G1 X137.087 Y95.087 E0.14655
G1 X127.973 Y95.087 E0.28577
G1 X128.290 Y94.710 F10800.000
G1 F1200
G1 X128.290 Y90.790 E0.12291
G1 X136.710 Y90.790 E0.26400
G1 X136.710 Y94.710 E0.12291
G1 X128.350 Y94.710 E0.26212
G1 X127.894 Y94.768 F10800.000
G1 F8640
G1 X128.300 Y91.419 E-0.76000
G1 E-0.04000 F2100.00000
G1 Z0.800 F10800.000
G1 X139.413 Y90.187
G1 Z0.200
G1 E0.80000 F2100.00000
G1 F1200
G1 X139.413 Y119.813 E0.92890
G1 X110.587 Y119.813 E0.90381
G1 X110.587 Y90.187 E0.92890
G1 X139.353 Y90.187 E0.90193
G1 X139.790 Y89.810 F10800.000
G1 F1200
G1 X139.790 Y120.190 E0.95254
G1 X110.210 Y120.190 E0.92746
G1 X110.210 Y89.810 E0.95254
G1 X139.730 Y89.810 E0.92558
G1 X139.688 Y90.197 F10800.000
G1 F8640
G1 X139.737 Y93.101 E-0.76000
G1 E-0.04000 F2100.00000
G1 Z0.800 F10800.000
G1 X138.923 Y91.440
G1 Z0.200
G1 E0.80000 F2100.00000
G1 F1200
G1 X138.330 Y90.847 E0.02632
G1 X137.796 Y90.847 E0.01674
G1 X138.753 Y91.804 E0.04247
G1 X138.753 Y92.338 E0.01674
G1 X137.747 Y91.332 E0.04464
G1 X137.747 Y91.865 E0.01674
G1 X138.753 Y92.871 E0.04464
G1 X138.753 Y93.405 E0.01674
G1 X137.747 Y92.399 E0.04464
G1 X137.747 Y92.933 E0.01674
G1 X138.753 Y93.939 E0.04464
G1 X138.753 Y94.472 E0.01674
G1 X137.747 Y93.466 E0.04464
G1 X137.747 Y94.000 E0.01674
G1 X138.753 Y95.006 E0.04464
G1 X138.753 Y95.540 E0.01674
G1 X137.747 Y94.533 E0.04464
G1 X137.747 Y95.067 E0.01674
G1 X138.753 Y96.073 E0.04464
G1 X138.753 Y96.607 E0.01674
G1 X137.747 Y95.601 E0.04464
G1 X137.747 Y95.747 E0.00459
G1 X137.360 Y95.747 E0.01216
G1 X138.753 Y97.140 E0.06184
G1 X138.753 Y97.674 E0.01674
G1 X136.826 Y95.747 E0.08552
G1 X136.292 Y95.747 E0.01674
G1 X138.753 Y98.208 E0.10919
G1 X138.753 Y98.741 E0.01674
G1 X135.759 Y95.747 E0.13287
G1 X135.225 Y95.747 E0.01674
G1 X138.753 Y99.275 E0.15655
G1 X138.753 Y99.809 E0.01674
G1 X134.691 Y95.747 E0.18023
G1 X134.158 Y95.747 E0.01674
G1 X138.753 Y100.342 E0.20391
G1 X138.753 Y100.876 E0.01674
G1 X133.624 Y95.747 E0.22759
G1 X133.090 Y95.747 E0.01674
G1 X138.753 Y101.410 E0.25127
G1 X138.753 Y101.943 E0.01674
G1 X132.557 Y95.747 E0.27495
G1 X132.023 Y95.747 E0.01674
G1 X138.753 Y102.477 E0.29863
G1 X138.753 Y103.011 E0.01674
G1 X131.489 Y95.747 E0.32231
G1 X130.956 Y95.747 E0.01674
G1 X138.753 Y103.544 E0.34599
G1 X138.753 Y104.078 E0.01674
G1 X130.422 Y95.747 E0.36967
G1 X129.888 Y95.747 E0.01674
G1 X138.753 Y104.612 E0.39335
G1 X138.753 Y105.145 E0.01674
G1 X129.355 Y95.747 E0.41703
G1 X128.821 Y95.747 E0.01674
G1 X138.753 Y105.679 E0.44070
G1 X138.753 Y106.212 E0.01674
G1 X128.288 Y95.747 E0.46438
G1 X127.754 Y95.747 E0.01674
G1 X138.753 Y106.746 E0.48806
G1 X138.753 Y107.280 E0.01674
G1 X122.320 Y90.847 E0.72917
G1 X122.854 Y90.847 E0.01674
G1 X127.253 Y95.246 E0.19520
G1 X127.253 Y94.712 E0.01674
G1 X123.388 Y90.847 E0.17152
G1 X123.921 Y90.847 E0.01674
G1 X127.253 Y94.179 E0.14784
G1 X127.253 Y93.645 E0.01674
G1 X124.455 Y90.847 E0.12417
G1 X124.988 Y90.847 E0.01674
G1 X127.253 Y93.112 E0.10049
G1 X127.253 Y92.578 E0.01674
G1 X125.522 Y90.847 E0.07681
G1 X126.056 Y90.847 E0.01674
G1 X127.253 Y92.044 E0.05313
G1 X127.253 Y91.511 E0.01674
G1 X126.589 Y90.847 E0.02945
G1 X127.123 Y90.847 E0.01674
G1 X127.423 Y91.147 E0.01330
G1 F8640
G1 X127.123 Y90.847 E-0.09786
G1 X126.589 Y90.847 E-0.12322
G1 X127.253 Y91.511 E-0.21671
G1 X127.253 Y92.044 E-0.12322
G1 X126.644 Y91.435 E-0.19898
G1 E-0.04000 F2100.00000
G1 Z0.800 F10800.000
G1 X138.923 Y107.983
G1 Z0.200
G1 E0.80000 F2100.00000
G1 F1200
G1 X121.787 Y90.847 E0.76038
M73 Q2 S39
M73 P2 R38
G1 X121.253 Y90.847 E0.01674
G1 X138.753 Y108.347 E0.77653
G1 X138.753 Y108.881 E0.01674
G1 X120.719 Y90.847 E0.80021
G1 X120.186 Y90.847 E0.01674
G1 X138.753 Y109.414 E0.82389
G1 X138.753 Y109.948 E0.01674
G1 X119.652 Y90.847 E0.84757
G1 X119.118 Y90.847 E0.01674
G1 X138.753 Y110.482 E0.87125
G1 X138.753 Y111.015 E0.01674
G1 X118.585 Y90.847 E0.89492
G1 X118.051 Y90.847 E0.01674
G1 X138.753 Y111.549 E0.91860
G1 X138.753 Y112.083 E0.01674
G1 X117.517 Y90.847 E0.94228
G1 X116.984 Y90.847 E0.01674
G1 X138.753 Y112.616 E0.96596
G1 X138.753 Y113.150 E0.01674
G1 X116.450 Y90.847 E0.98964
G1 X115.917 Y90.847 E0.01674
G1 X138.753 Y113.683 E1.01332
G1 X138.753 Y114.217 E0.01674
G1 X115.383 Y90.847 E1.03700
G1 X114.849 Y90.847 E0.01674
G1 X138.753 Y114.751 E1.06068
G1 X138.753 Y115.284 E0.01674
G1 X114.316 Y90.847 E1.08436
G1 X113.782 Y90.847 E0.01674
G1 X137.188 Y114.253 E1.03859
G1 X136.654 Y114.253 E0.01674
G1 X113.248 Y90.847 E1.03859
G1 X112.715 Y90.847 E0.01674
G1 X136.121 Y114.253 E1.03859
G1 X135.587 Y114.253 E0.01674
G1 X112.181 Y90.847 E1.03859
G1 X111.647 Y90.847 E0.01674
G1 X135.053 Y114.253 E1.03859
G1 X134.520 Y114.253 E0.01674
G1 X111.247 Y90.980 E1.03268
G1 X111.247 Y91.514 E0.01674
G1 X133.986 Y114.253 E1.00900
G1 X133.453 Y114.253 E0.01674
G1 X111.247 Y92.047 E0.98532
G1 X111.247 Y92.581 E0.01674
G1 X132.919 Y114.253 E0.96164
G1 X132.385 Y114.253 E0.01674
G1 X111.247 Y93.115 E0.93796
G1 X111.247 Y93.648 E0.01674
G1 X131.852 Y114.253 E0.91428
G1 X131.318 Y114.253 E0.01674
G1 X111.247 Y94.182 E0.89061
G1 X111.247 Y94.716 E0.01674
G1 X130.784 Y114.253 E0.86693
G1 X130.251 Y114.253 E0.01674
G1 X111.247 Y95.249 E0.84325
G1 X111.247 Y95.783 E0.01674
G1 X129.717 Y114.253 E0.81957
G1 X129.183 Y114.253 E0.01674
G1 X111.247 Y96.317 E0.79589
G1 X111.247 Y96.850 E0.01674
G1 X128.650 Y114.253 E0.77221
G1 X128.116 Y114.253 E0.01674
G1 X111.247 Y97.384 E0.74853
G1 X111.247 Y97.918 E0.01674
G1 X127.582 Y114.253 E0.72485
G1 X127.253 Y114.253 E0.01033
G1 X127.253 Y114.457 E0.00641
G1 X111.247 Y98.451 E0.71024
G1 X111.247 Y98.985 E0.01674
G1 X127.253 Y114.991 E0.71024
G1 X127.253 Y115.525 E0.01674
G1 X111.247 Y99.519 E0.71024
G1 X111.247 Y100.052 E0.01674
G1 X127.253 Y116.058 E0.71024
G1 X127.253 Y116.592 E0.01674
G1 X111.247 Y100.586 E0.71024
G1 X111.247 Y101.119 E0.01674
G1 X127.253 Y117.126 E0.71024
G1 X127.253 Y117.659 E0.01674
G1 X111.247 Y101.653 E0.71024
G1 X111.247 Y102.187 E0.01674
G1 X127.253 Y118.193 E0.71024
G1 X127.253 Y118.726 E0.01674
G1 X111.247 Y102.720 E0.71024
M73 Q5 S38
M73 P5 R37
G1 X111.247 Y103.254 E0.01674
G1 X127.146 Y119.153 E0.70548
G1 X126.612 Y119.153 E0.01674
G1 X111.247 Y103.788 E0.68180
G1 X111.247 Y104.321 E0.01674
G1 X126.079 Y119.153 E0.65813
G1 X125.545 Y119.153 E0.01674
G1 X111.247 Y104.855 E0.63445
G1 X111.247 Y105.389 E0.01674
G1 X125.011 Y119.153 E0.61077
G1 X124.478 Y119.153 E0.01674
G1 X111.247 Y105.922 E0.58709
G1 X111.247 Y106.456 E0.01674
G1 X123.944 Y119.153 E0.56341
G1 X123.410 Y119.153 E0.01674
G1 X111.247 Y106.990 E0.53973
G1 X111.247 Y107.523 E0.01674
G1 X122.877 Y119.153 E0.51605
G1 X122.343 Y119.153 E0.01674
G1 X111.247 Y108.057 E0.49237
G1 X111.247 Y108.590 E0.01674
G1 X121.810 Y119.153 E0.46869
G1 X121.276 Y119.153 E0.01674
G1 X111.247 Y109.124 E0.44501
G1 X111.247 Y109.658 E0.01674
G1 X120.742 Y119.153 E0.42133
G1 X120.209 Y119.153 E0.01674
G1 X111.247 Y110.191 E0.39765
G1 X111.247 Y110.725 E0.01674
G1 X119.675 Y119.153 E0.37397
G1 X119.141 Y119.153 E0.01674
G1 X111.247 Y111.259 E0.35029
G1 X111.247 Y111.792 E0.01674
G1 X118.608 Y119.153 E0.32662
G1 X118.074 Y119.153 E0.01674
G1 X111.247 Y112.326 E0.30294
G1 X111.247 Y112.860 E0.01674
G1 X117.540 Y119.153 E0.27926
G1 X117.007 Y119.153 E0.01674
G1 X111.247 Y113.393 E0.25558
G1 X111.247 Y113.927 E0.01674
G1 X116.473 Y119.153 E0.23190
G1 X115.939 Y119.153 E0.01674
G1 X111.247 Y114.461 E0.20822
G1 X111.247 Y114.994 E0.01674
G1 X115.406 Y119.153 E0.18454
G1 X114.872 Y119.153 E0.01674
G1 X111.247 Y115.528 E0.16086
G1 X111.247 Y116.062 E0.01674
G1 X114.338 Y119.153 E0.13718
G1 X113.805 Y119.153 E0.01674
G1 X111.247 Y116.595 E0.11350
G1 X111.247 Y117.129 E0.01674
G1 X113.271 Y119.153 E0.08982
G1 X112.738 Y119.153 E0.01674
G1 X111.247 Y117.662 E0.06614
G1 X111.247 Y118.196 E0.01674
G1 X112.204 Y119.153 E0.04246
G1 X111.670 Y119.153 E0.01674
G1 X111.077 Y118.560 E0.02631
G1 F8640
G1 X111.670 Y119.153 E-0.19365
G1 X112.204 Y119.153 E-0.12322
G1 X111.247 Y118.196 E-0.31250
G1 X111.247 Y117.662 E-0.12322
G1 X111.270 Y117.685 E-0.00742
G1 E-0.04000 F2100.00000
G1 Z0.800 F10800.000
G1 X137.577 Y118.911
G1 Z0.200
G1 E0.80000 F2100.00000
G1 F1200
G1 X137.819 Y119.153 E0.01072
G1 X138.353 Y119.153 E0.01674
G1 X137.747 Y118.547 E0.02687
G1 X137.747 Y118.014 E0.01674
G1 X138.753 Y119.020 E0.04464
G1 X138.753 Y118.486 E0.01674
G1 X137.747 Y117.480 E0.04464
G1 X137.747 Y116.947 E0.01674
G1 X138.753 Y117.953 E0.04464
G1 X138.753 Y117.419 E0.01674
G1 X137.747 Y116.413 E0.04464
G1 X137.747 Y115.879 E0.01674
G1 X138.753 Y116.885 E0.04464
G1 X138.753 Y116.352 E0.01674
G1 X137.747 Y115.346 E0.04464
G1 X137.747 Y114.812 E0.01674
G1 X138.923 Y115.988 E0.05217
;BEFORE_LAYER_CHANGE
G92 E0.0
;0.4


G1 F8640
G1 X137.747 Y114.812 E-0.38395
G1 X137.747 Y115.346 E-0.12322
G1 X138.521 Y116.120 E-0.25283
G1 E-0.04000 F2100.00000
G1 Z0.800 F10800.000
;AFTER_LAYER_CHANGE
;0.4
M104 S250 ; set temperature
M140 S90 ; set bed temperature
G1 X140.903 Y122.794
G1 Z0.400
G1 E0.80000 F2100.00000
G1 F3000
G1 X140.013 Y122.988 E0.02855
G1 X109.960 Y122.988 E0.94230
G1 X109.204 Y122.839 E0.02417
G1 X108.546 Y122.436 E0.02417
G1 X108.006 Y121.703 E0.02855
G1 X107.812 Y120.813 E0.02855
G1 X107.812 Y89.163 E0.99235
G1 X107.960 Y88.407 E0.02417
G1 X108.364 Y87.746 E0.02428
G1 X109.081 Y87.214 E0.02799
G1 X109.950 Y87.012 E0.02799
G1 X140.004 Y87.011 E0.94230
G1 X140.817 Y87.170 E0.02597
G1 X141.513 Y87.618 E0.02597
G1 X141.992 Y88.294 E0.02597
G1 X142.186 Y89.099 E0.02597
G1 X142.188 Y120.837 E0.99510
G1 X142.040 Y121.593 E0.02417
G1 X141.636 Y122.254 E0.02428
G1 X140.951 Y122.758 E0.02667
G1 F8640
G1 X140.013 Y122.989 E-0.22300
G1 X137.688 Y122.988 E-0.53700
G1 E-0.04000 F2100.00000
G1 Z1.000 F10800.000
G1 X137.132 Y119.632
G1 Z0.400
G1 E0.80000 F2100.00000
M204 S800
G1 F1500
G1 X127.868 Y119.632 E0.31358
G1 X127.868 Y114.868 E0.16126
G1 X137.132 Y114.868 E0.31358
G1 X137.132 Y119.572 E0.15923
M204 S1000
G1 X136.725 Y119.225 F10800.000
M204 S800
G1 F1500
G1 X128.275 Y119.225 E0.28602
G1 X128.275 Y115.275 E0.13370
G1 X136.725 Y115.275 E0.28602
G1 X136.725 Y119.165 E0.13167
M204 S1000
G1 X136.873 Y119.597 F10800.000
G1 F8640
G1 X133.434 Y119.188 E-0.76000
G1 E-0.04000 F2100.00000
G1 Z1.000 F10800.000
G1 X127.461 Y95.539
G1 Z0.400
G1 E0.80000 F2100.00000
M204 S800
G1 F2700
G1 X137.539 Y95.539 E0.34114
G1 X137.539 Y90.439 E0.17263
G1 X138.961 Y90.439 E0.04812
G1 X138.961 Y119.561 E0.98573
G1 X137.539 Y119.561 E0.04812
G1 X137.539 Y114.461 E0.17263
G1 X127.461 Y114.461 E0.34114
G1 X127.461 Y119.561 E0.17263
G1 X111.039 Y119.561 E0.55585
G1 X111.039 Y90.439 E0.98573
G1 X127.461 Y90.439 E0.55585
G1 X127.461 Y95.479 E0.17060
M204 S1000
G1 X127.868 Y95.132 F10800.000
M204 S800
G1 F1500
G1 X127.868 Y90.368 E0.16126
G1 X137.132 Y90.368 E0.31358
G1 X137.132 Y95.132 E0.16126
G1 X127.928 Y95.132 E0.31155
M204 S1000
G1 X128.275 Y94.725 F10800.000
M204 S800
G1 F1500
G1 X128.275 Y90.775 E0.13370
G1 X136.725 Y90.775 E0.28602
G1 X136.725 Y94.725 E0.13370
G1 X128.335 Y94.725 E0.28399
M204 S1000
G1 X127.879 Y94.783 F10800.000
G1 F8640
G1 X128.285 Y91.434 E-0.76000
G1 E-0.04000 F2100.00000
G1 Z1.000 F10800.000
G1 X139.368 Y90.032
G1 Z0.400
G1 E0.80000 F2100.00000
M204 S800
G1 F2700
G1 X139.368 Y119.968 E1.01329
G1 X110.632 Y119.968 E0.97267
G1 X110.632 Y90.032 E1.01329
G1 X139.308 Y90.032 E0.97064
M204 S1000
G1 X139.775 Y89.625 F10800.000
M204 S800
G1 F1500
G1 X139.775 Y120.375 E1.04085
G1 X110.225 Y120.375 E1.00023
G1 X110.225 Y89.625 E1.04085
G1 X139.715 Y89.625 E0.99820
M204 S1000
G1 X139.674 Y90.012 F10800.000
G1 F8640
G1 X139.721 Y92.916 E-0.76000
G1 E-0.04000 F2100.00000
G1 Z1.000 F10800.000
G1 X137.661 Y91.472
G1 Z0.400
G1 E0.80000 F2100.00000
M204 S1250
G1 F4800
G1 X138.389 Y90.744 E0.03495
G1 X138.656 Y90.744 E0.00907
G1 X138.656 Y91.055 E0.01057
G1 X137.844 Y91.867 E0.03898
G1 X137.844 Y92.444 E0.01964
G1 X138.656 Y91.633 E0.03898
G1 X138.656 Y92.211 E0.01964
G1 X137.844 Y93.022 E0.03898
G1 X137.844 Y93.600 E0.01964
G1 X138.656 Y92.789 E0.03898
G1 X138.656 Y93.367 E0.01964
G1 X137.844 Y94.178 E0.03898
G1 X137.844 Y94.756 E0.01964
G1 X138.656 Y93.945 E0.03898
G1 X138.656 Y94.523 E0.01964
G1 X137.661 Y95.517 E0.04778
M204 S1000
G1 F8640
G1 X138.656 Y94.523 E-0.32468
G1 X138.656 Y93.945 E-0.13344
G1 X137.844 Y94.756 E-0.26486
G1 X137.844 Y94.596 E-0.03702
G1 E-0.04000 F2100.00000
G1 Z1.000 F10800.000
G1 X138.012 Y119.439
G1 Z0.400
G1 E0.80000 F2100.00000
M204 S1250
G1 F4800
G1 X138.656 Y118.796 E0.03090
G1 X138.656 Y118.218 E0.01964
G1 X137.844 Y119.029 E0.03898
G1 X137.844 Y118.451 E0.01964
G1 X138.656 Y117.640 E0.03898
G1 X138.656 Y117.062 E0.01964
G1 X137.844 Y117.873 E0.03898
G1 X137.844 Y117.295 E0.01964
G1 X138.656 Y116.484 E0.03898
G1 X138.656 Y115.906 E0.01964
G1 X137.844 Y116.717 E0.03898
G1 X137.844 Y116.139 E0.01964
