; generated by PrusaSlicer 2.0.0+win64 on 2019-09-06 at 09:54:33

; 

; external perimeters extrusion width = 0.45mm
; perimeters extrusion width = 0.45mm
; infill extrusion width = 0.45mm
; solid infill extrusion width = 0.45mm
; top infill extrusion width = 0.40mm
; first layer extrusion width = 0.42mm

M73 P0 R62
M73 Q0 S62
M201 X1000 Y1000 Z1000 E5000 ; sets maximum accelerations, mm/sec^2
M203 X200 Y200 Z12 E120 ; sets maximum feedrates, mm/sec
M204 P1250 R1250 T1250 ; sets acceleration (P, T) and retract acceleration (R), mm/sec^2
M205 X8.00 Y8.00 Z0.40 E1.50 ; sets the jerk limits, mm/sec
M205 S0 T0 ; sets the minimum extruding and travel feed rate, mm/sec
M107
M115 U3.7.2 ; tell printer latest fw version
G90 ; use absolute coordinates
M83 ; extruder relative mode
M104 S240 ; set extruder temp
M140 S85 ; set bed temp
Tx
M190 S85 ; wait for bed temp
M109 S240 ; wait for extruder temp
G28 W ; home all without mesh bed level
G80 ; mesh bed leveling

G21 ; set units to millimeters

;go outside print area
G1 Y-3.0 F1000.0
G1 Z0.4 F1000.0
; select extruder
Tc
; purge line
G1 X55.0 F2000.0
G1 Z0.3 F1000.0
G92 E0.0
G1 X240.0 E25.0 F2200.0
M73 Q0 S62
M73 P0 R62
G1 Y-2.0 F1000.0
G1 X55.0 E25 F1400.0
G1 Z0.20 F1000.0
G1 X5.0 E4.0 F1000.0

M221 S95
G92 E0.0
M900 K45 ; Filament gcode
G21 ; set units to millimeters
G90 ; use absolute coordinates
M83 ; use relative distances for extrusion
;BEFORE_LAYER_CHANGE
G92 E0.0
;0.2


G1 E-0.80000 F2100.00000
G1 Z0.600 F10800.000
;AFTER_LAYER_CHANGE
;0.2
G1 X76.871 Y72.904
G1 Z0.200
G1 E0.80000 F2100.00000
M204 S1000
G1 F1200
G1 X77.490 Y72.811 E0.01964
G1 X172.504 Y72.811 E2.97907
G1 X173.330 Y72.975 E0.02642
G1 X174.034 Y73.439 E0.02642
G1 X174.510 Y74.134 E0.02642
G1 X174.688 Y74.958 E0.02642
G1 X174.688 Y135.037 E1.88373
G1 X174.615 Y135.564 E0.01669
G1 X174.416 Y136.058 E0.01669
G1 X174.104 Y136.489 E0.01669
G1 X173.697 Y136.832 E0.01669
G1 X173.129 Y137.096 E0.01964
G1 X172.510 Y137.189 E0.01964
G1 X77.485 Y137.188 E2.97942
G1 X76.954 Y137.119 E0.01680
G1 X76.452 Y136.921 E0.01692
G1 X76.017 Y136.609 E0.01680
G1 X75.668 Y136.197 E0.01692
G1 X75.405 Y135.633 E0.01953
G1 X75.312 Y135.013 E0.01964
G1 X75.312 Y74.978 E1.88236
G1 X75.383 Y74.447 E0.01680
G1 X75.580 Y73.949 E0.01680
G1 X75.893 Y73.514 E0.01680
G1 X76.303 Y73.168 E0.01680
G1 X76.816 Y72.929 E0.01776
G1 F8640
G1 X77.490 Y72.811 E-0.15799
G1 X80.098 Y72.811 E-0.60201
G1 E-0.04000 F2100.00000
G1 Z0.800 F10800.000
G1 X82.208 Y117.686
G1 Z0.200
G1 E0.80000 F2100.00000
G1 F1200
G1 X81.995 Y118.074 E0.01388
G1 X81.759 Y118.341 E0.01115
G1 X81.486 Y118.553 E0.01086
G1 X81.177 Y118.710 E0.01085
G1 X80.845 Y118.807 E0.01086
G1 X80.500 Y118.840 E0.01086
G1 X80.155 Y118.807 E0.01086
G1 X79.823 Y118.710 E0.01086
G1 X79.514 Y118.553 E0.01087
G1 X79.231 Y118.333 E0.01124
G1 X78.951 Y117.994 E0.01379
G1 X78.790 Y117.677 E0.01114
G1 X78.693 Y117.345 E0.01086
G1 X78.660 Y117.000 E0.01086
G1 X78.693 Y116.655 E0.01086
G1 X78.790 Y116.323 E0.01086
G1 X78.947 Y116.014 E0.01085
G1 X79.159 Y115.741 E0.01086
G1 X79.419 Y115.512 E0.01086
G1 X79.717 Y115.335 E0.01085
G1 X80.051 Y115.215 E0.01114
G1 X80.487 Y115.160 E0.01380
G1 X80.844 Y115.193 E0.01124
G1 X81.177 Y115.290 E0.01087
G1 X81.486 Y115.447 E0.01085
G1 X81.760 Y115.659 E0.01087
G1 X81.996 Y115.928 E0.01124
G1 X82.208 Y116.314 E0.01379
G1 X82.307 Y116.655 E0.01115
G1 X82.340 Y117.000 E0.01086
G1 X82.307 Y117.345 E0.01086
G1 X82.225 Y117.629 E0.00927
G1 X81.857 Y117.541 F10800.000
G1 F1200
G1 X81.684 Y117.856 E0.01127
G1 X81.500 Y118.065 E0.00873
G1 X81.283 Y118.233 E0.00862
G1 X81.038 Y118.358 E0.00862
G1 X80.774 Y118.435 E0.00862
G1 X80.500 Y118.461 E0.00862
G1 X80.226 Y118.435 E0.00862
G1 X79.962 Y118.358 E0.00862
G1 X79.717 Y118.233 E0.00862
G1 X79.495 Y118.061 E0.00881
G1 X79.268 Y117.786 E0.01119
G1 X79.142 Y117.538 E0.00872
G1 X79.065 Y117.274 E0.00862
G1 X79.039 Y117.000 E0.00862
G1 X79.065 Y116.726 E0.00862
G1 X79.142 Y116.462 E0.00862
G1 X79.267 Y116.217 E0.00862
G1 X79.435 Y116.000 E0.00862
G1 X79.641 Y115.818 E0.00862
G1 X79.878 Y115.678 E0.00862
G1 X80.140 Y115.584 E0.00872
G1 X80.494 Y115.539 E0.01119
G1 X80.774 Y115.565 E0.00881
G1 X81.038 Y115.642 E0.00863
G1 X81.283 Y115.767 E0.00862
G1 X81.500 Y115.935 E0.00863
G1 X81.686 Y116.146 E0.00881
G1 X81.857 Y116.459 E0.01119
G1 X81.935 Y116.726 E0.00873
G1 X81.961 Y117.000 E0.00862
G1 X81.935 Y117.274 E0.00862
G1 X81.874 Y117.483 E0.00685
G1 X82.075 Y117.828 F10800.000
G1 F8640
G1 X81.684 Y117.856 E-0.09660
G1 X81.500 Y118.065 E-0.06427
G1 X81.283 Y118.233 E-0.06349
G1 X81.038 Y118.358 E-0.06348
G1 X80.774 Y118.435 E-0.06352
G1 X80.500 Y118.461 E-0.06348
G1 X80.226 Y118.435 E-0.06348
G1 X79.962 Y118.358 E-0.06352
G1 X79.717 Y118.233 E-0.06351
G1 X79.495 Y118.061 E-0.06488
G1 X79.268 Y117.786 E-0.08241
G1 X79.254 Y117.757 E-0.00735
G1 E-0.04000 F2100.00000
G1 Z0.800 F10800.000
G1 X80.500 Y94.840
G1 Z0.200
G1 E0.80000 F2100.00000
G1 F1200
G1 X80.155 Y94.807 E0.01086
G1 X79.814 Y94.708 E0.01115
G1 X79.428 Y94.496 E0.01379
G1 X79.159 Y94.260 E0.01124
G1 X78.947 Y93.986 E0.01087
G1 X78.790 Y93.677 E0.01085
G1 X78.693 Y93.345 E0.01086
G1 X78.660 Y93.000 E0.01086
G1 X78.693 Y92.655 E0.01086
G1 X78.790 Y92.323 E0.01086
G1 X78.947 Y92.014 E0.01085
G1 X79.159 Y91.741 E0.01086
G1 X79.419 Y91.512 E0.01086
G1 X79.717 Y91.335 E0.01085
G1 X80.051 Y91.215 E0.01114
G1 X80.487 Y91.160 E0.01380
G1 X80.844 Y91.193 E0.01124
G1 X81.177 Y91.290 E0.01087
G1 X81.486 Y91.447 E0.01085
G1 X81.760 Y91.659 E0.01087
G1 X81.996 Y91.928 E0.01124
G1 X82.208 Y92.314 E0.01379
G1 X82.307 Y92.655 E0.01115
G1 X82.340 Y93.000 E0.01086
G1 X82.307 Y93.345 E0.01086
G1 X82.208 Y93.686 E0.01115
G1 X81.995 Y94.074 E0.01388
G1 X81.759 Y94.341 E0.01115
G1 X81.486 Y94.553 E0.01086
G1 X81.177 Y94.710 E0.01085
G1 X80.845 Y94.807 E0.01086
G1 X80.560 Y94.834 E0.00897
G1 X80.500 Y94.461 F10800.000
G1 F1200
G1 X80.226 Y94.435 E0.00862
G1 X79.959 Y94.357 E0.00873
G1 X79.646 Y94.186 E0.01119
G1 X79.435 Y94.000 E0.00881
G1 X79.267 Y93.783 E0.00863
G1 X79.142 Y93.538 E0.00862
G1 X79.065 Y93.274 E0.00862
G1 X79.039 Y93.000 E0.00862
G1 X79.065 Y92.726 E0.00862
G1 X79.142 Y92.462 E0.00862
G1 X79.267 Y92.217 E0.00862
G1 X79.435 Y92.000 E0.00862
G1 X79.641 Y91.818 E0.00862
G1 X79.878 Y91.678 E0.00862
G1 X80.140 Y91.584 E0.00872
G1 X80.494 Y91.539 E0.01119
G1 X80.774 Y91.565 E0.00881
G1 X81.038 Y91.642 E0.00863
G1 X81.283 Y91.767 E0.00862
G1 X81.500 Y91.935 E0.00863
G1 X81.686 Y92.146 E0.00881
G1 X81.857 Y92.459 E0.01119
G1 X81.935 Y92.726 E0.00873
G1 X81.961 Y93.000 E0.00862
G1 X81.935 Y93.274 E0.00862
G1 X81.857 Y93.541 E0.00873
G1 X81.684 Y93.856 E0.01127
G1 X81.500 Y94.065 E0.00873
G1 X81.283 Y94.233 E0.00862
G1 X81.038 Y94.358 E0.00862
G1 X80.774 Y94.435 E0.00862
G1 X80.560 Y94.455 E0.00674
G1 X80.363 Y94.699 F10800.000
G1 F8640
G1 X80.226 Y94.435 E-0.07714
G1 X79.959 Y94.357 E-0.06427
G1 X79.646 Y94.186 E-0.08240
G1 X79.435 Y94.000 E-0.06489
G1 X79.267 Y93.783 E-0.06353
G1 X79.142 Y93.538 E-0.06348
G1 X79.065 Y93.274 E-0.06352
G1 X79.039 Y93.000 E-0.06348
G1 X79.065 Y92.726 E-0.06348
G1 X79.142 Y92.462 E-0.06352
G1 X79.267 Y92.217 E-0.06348
G1 X79.338 Y92.125 E-0.02683
G1 E-0.04000 F2100.00000
G1 Z0.800 F10800.000
G1 X141.198 Y128.605
G1 Z0.200
G1 E0.80000 F2100.00000
G1 F1200
G1 X141.416 Y128.177 E0.01504
G1 X141.700 Y127.810 E0.01457
G1 X142.049 Y127.503 E0.01457
G1 X142.449 Y127.267 E0.01456
G1 X142.886 Y127.109 E0.01457
G1 X143.345 Y127.036 E0.01456
G1 X143.825 Y127.051 E0.01504
G1 X144.395 Y127.198 E0.01847
G1 X144.823 Y127.416 E0.01504
G1 X145.190 Y127.700 E0.01457
G1 X145.497 Y128.049 E0.01457
G1 X145.733 Y128.449 E0.01456
G1 X145.891 Y128.886 E0.01457
G1 X145.964 Y129.345 E0.01456
G1 X145.949 Y129.825 E0.01504
G1 X145.802 Y130.395 E0.01847
G1 X145.584 Y130.823 E0.01504
G1 X145.300 Y131.190 E0.01457
G1 X144.951 Y131.497 E0.01457
G1 X144.551 Y131.733 E0.01456
G1 X144.114 Y131.891 E0.01457
G1 X143.655 Y131.964 E0.01456
G1 X143.175 Y131.949 E0.01504
G1 X142.605 Y131.802 E0.01847
G1 X142.177 Y131.584 E0.01504
G1 X141.810 Y131.300 E0.01457
G1 X141.503 Y130.951 E0.01457
G1 X141.267 Y130.551 E0.01456
G1 X141.109 Y130.114 E0.01457
G1 X141.036 Y129.655 E0.01456
G1 X141.051 Y129.175 E0.01504
G1 X141.183 Y128.663 E0.01659
G1 X141.553 Y128.739 F10800.000
G1 F1200
G1 X141.736 Y128.380 E0.01262
G1 X141.977 Y128.070 E0.01233
G1 X142.272 Y127.809 E0.01233
G1 X142.610 Y127.609 E0.01233
G1 X142.980 Y127.476 E0.01234
G1 X143.369 Y127.414 E0.01233
G1 X143.771 Y127.427 E0.01262
G1 X144.261 Y127.553 E0.01586
G1 X144.620 Y127.736 E0.01262
G1 X144.930 Y127.977 E0.01233
G1 X145.191 Y128.272 E0.01233
G1 X145.391 Y128.610 E0.01233
G1 X145.524 Y128.980 E0.01234
G1 X145.586 Y129.369 E0.01233
G1 X145.573 Y129.771 E0.01262
G1 X145.447 Y130.261 E0.01586
G1 X145.264 Y130.620 E0.01262
G1 X145.023 Y130.930 E0.01233
G1 X144.728 Y131.191 E0.01233
G1 X144.390 Y131.391 E0.01233
G1 X144.020 Y131.524 E0.01234
G1 X143.631 Y131.586 E0.01233
G1 X143.229 Y131.573 E0.01262
G1 X142.739 Y131.447 E0.01586
G1 X142.380 Y131.264 E0.01262
G1 X142.070 Y131.023 E0.01233
G1 X141.809 Y130.728 E0.01233
G1 X141.609 Y130.390 E0.01233
G1 X141.476 Y130.020 E0.01234
G1 X141.414 Y129.631 E0.01233
G1 X141.427 Y129.229 E0.01262
G1 X141.538 Y128.797 E0.01398
G1 X141.908 Y128.873 F10800.000
G1 F1200
G1 X142.055 Y128.583 E0.01020
G1 X142.253 Y128.329 E0.01010
G1 X142.494 Y128.116 E0.01010
G1 X142.771 Y127.952 E0.01010
G1 X143.075 Y127.843 E0.01010
G1 X143.393 Y127.792 E0.01009
G1 X143.718 Y127.803 E0.01020
G1 X144.127 Y127.908 E0.01324
G1 X144.417 Y128.055 E0.01020
G1 X144.671 Y128.253 E0.01010
G1 X144.884 Y128.494 E0.01010
G1 X145.048 Y128.771 E0.01010
G1 X145.157 Y129.075 E0.01010
G1 X145.208 Y129.393 E0.01009
G1 X145.197 Y129.718 E0.01020
G1 X145.092 Y130.127 E0.01324
G1 X144.945 Y130.417 E0.01020
G1 X144.747 Y130.671 E0.01010
G1 X144.506 Y130.884 E0.01010
G1 X144.229 Y131.048 E0.01010
G1 X143.925 Y131.157 E0.01010
G1 X143.607 Y131.208 E0.01009
G1 X143.282 Y131.197 E0.01020
G1 X142.873 Y131.092 E0.01324
G1 X142.583 Y130.945 E0.01020
G1 X142.329 Y130.747 E0.01010
G1 X142.116 Y130.506 E0.01010
G1 X141.952 Y130.229 E0.01010
G1 X141.843 Y129.925 E0.01010
G1 X141.792 Y129.607 E0.01009
G1 X141.803 Y129.282 E0.01020
G1 X141.893 Y128.931 E0.01136
G1 X141.703 Y128.620 F10800.000
G1 F8640
G1 X142.055 Y128.583 E-0.08869
G1 X142.253 Y128.329 E-0.07435
G1 X142.494 Y128.116 E-0.07436
G1 X142.771 Y127.952 E-0.07435
G1 X143.075 Y127.843 E-0.07438
G1 X143.393 Y127.792 E-0.07434
G1 X143.718 Y127.803 E-0.07512
G1 X144.127 Y127.908 E-0.09754
G1 X144.417 Y128.055 E-0.07511
G1 X144.594 Y128.193 E-0.05175
G1 E-0.04000 F2100.00000
G1 Z0.800 F10800.000
G1 X143.000 Y116.468
G1 Z0.200
G1 E0.80000 F2100.00000
G1 F1200
G1 X142.350 Y116.407 E0.02047
G1 X141.723 Y116.225 E0.02047
G1 X141.142 Y115.929 E0.02047
G1 X140.626 Y115.528 E0.02047
G1 X140.194 Y115.039 E0.02047
G1 X139.862 Y114.477 E0.02047
G1 X139.646 Y113.877 E0.01999
G1 X139.561 Y113.434 E0.01413
G1 X139.533 Y112.985 E0.01412
G1 X139.593 Y112.350 E0.01999
G1 X139.775 Y111.723 E0.02047
G1 X140.071 Y111.142 E0.02047
G1 X140.472 Y110.626 E0.02047
G1 X140.961 Y110.194 E0.02047
G1 X141.523 Y109.862 E0.02047
G1 X142.123 Y109.646 E0.01999
G1 X142.565 Y109.561 E0.01412
G1 X143.009 Y109.533 E0.01394
G1 X143.649 Y109.593 E0.02016
G1 X144.277 Y109.775 E0.02049
G1 X144.859 Y110.071 E0.02047
G1 X145.374 Y110.472 E0.02047
G1 X145.806 Y110.961 E0.02046
G1 X146.138 Y111.523 E0.02047
G1 X146.354 Y112.123 E0.01999
G1 X146.439 Y112.566 E0.01413
G1 X146.466 Y113.000 E0.01365
G1 X146.439 Y113.434 E0.01365
G1 X146.354 Y113.877 E0.01413
G1 X146.138 Y114.477 E0.01999
G1 X145.806 Y115.039 E0.02047
G1 X145.374 Y115.528 E0.02047
G1 X144.858 Y115.929 E0.02047
G1 X144.277 Y116.225 E0.02047
G1 X143.650 Y116.407 E0.02047
G1 X143.060 Y116.463 E0.01859
G1 X143.000 Y116.090 F10800.000
G1 F1200
G1 X142.421 Y116.035 E0.01824
G1 X141.863 Y115.873 E0.01823
G1 X141.344 Y115.609 E0.01823
G1 X140.885 Y115.252 E0.01823
G1 X140.500 Y114.816 E0.01823
G1 X140.204 Y114.316 E0.01823
G1 X140.010 Y113.777 E0.01794
G1 X139.936 Y113.387 E0.01245
G1 X139.911 Y112.991 E0.01245
G1 X139.965 Y112.421 E0.01794
G1 X140.127 Y111.863 E0.01823
G1 X140.391 Y111.344 E0.01823
G1 X140.748 Y110.885 E0.01823
G1 X141.184 Y110.500 E0.01823
G1 X141.685 Y110.204 E0.01824
G1 X142.223 Y110.011 E0.01794
G1 X142.613 Y109.936 E0.01245
G1 X143.003 Y109.911 E0.01227
G1 X143.579 Y109.965 E0.01811
G1 X144.137 Y110.127 E0.01824
G1 X144.656 Y110.391 E0.01823
G1 X145.115 Y110.748 E0.01823
G1 X145.500 Y111.184 E0.01823
G1 X145.796 Y111.684 E0.01823
G1 X145.990 Y112.223 E0.01794
G1 X146.064 Y112.613 E0.01245
G1 X146.088 Y113.000 E0.01216
G1 X146.064 Y113.387 E0.01216
G1 X145.990 Y113.777 E0.01245
G1 X145.796 Y114.316 E0.01794
G1 X145.500 Y114.816 E0.01823
G1 X145.115 Y115.252 E0.01823
G1 X144.656 Y115.609 E0.01823
G1 X144.137 Y115.873 E0.01823
G1 X143.579 Y116.035 E0.01823
G1 X143.060 Y116.084 E0.01635
G1 X143.000 Y115.711 F10800.000
G1 F1200
G1 X142.492 Y115.663 E0.01600
G1 X142.002 Y115.521 E0.01600
G1 X141.547 Y115.289 E0.01600
G1 X141.144 Y114.976 E0.01600
G1 X140.807 Y114.593 E0.01600
G1 X140.547 Y114.154 E0.01600
G1 X140.375 Y113.677 E0.01590
G1 X140.311 Y113.340 E0.01078
G1 X140.289 Y112.997 E0.01078
G1 X140.337 Y112.492 E0.01589
G1 X140.479 Y112.002 E0.01600
G1 X140.711 Y111.547 E0.01600
G1 X141.024 Y111.144 E0.01600
G1 X141.407 Y110.807 E0.01600
G1 X141.846 Y110.547 E0.01600
G1 X142.323 Y110.375 E0.01589
G1 X142.660 Y110.311 E0.01077
G1 X142.998 Y110.290 E0.01061
G1 X143.508 Y110.337 E0.01606
G1 X143.998 Y110.479 E0.01600
G1 X144.453 Y110.711 E0.01600
G1 X144.856 Y111.024 E0.01600
G1 X145.193 Y111.407 E0.01600
G1 X145.453 Y111.846 E0.01600
G1 X145.625 Y112.323 E0.01589
G1 X145.689 Y112.660 E0.01078
G1 X145.710 Y113.000 E0.01067
G1 X145.689 Y113.340 E0.01067
G1 X145.625 Y113.677 E0.01078
G1 X145.453 Y114.154 E0.01590
G1 X145.193 Y114.593 E0.01600
G1 X144.856 Y114.976 E0.01600
G1 X144.453 Y115.289 E0.01600
G1 X143.998 Y115.521 E0.01600
G1 X143.508 Y115.663 E0.01600
G1 X143.060 Y115.705 E0.01412
G1 X142.800 Y116.057 F10800.000
G1 F8640
G1 X142.492 Y115.663 E-0.13146
G1 X142.002 Y115.521 E-0.11780
G1 X141.547 Y115.289 E-0.11782
G1 X141.144 Y114.976 E-0.11782
G1 X140.807 Y114.593 E-0.11780
G1 X140.547 Y114.154 E-0.11782
G1 X140.489 Y113.993 E-0.03947
G1 E-0.04000 F2100.00000
G1 Z0.800 F10800.000
G1 X160.950 Y105.846
G1 Z0.200
G1 E0.80000 F2100.00000
G1 F1200
G1 X160.821 Y105.416 E0.01408
G1 X160.782 Y105.000 E0.01309
G1 X160.821 Y104.584 E0.01309
G1 X160.937 Y104.183 E0.01309
G1 X161.127 Y103.811 E0.01309
G1 X161.383 Y103.481 E0.01309
G1 X161.696 Y103.205 E0.01309
G1 X162.055 Y102.993 E0.01309
G1 X162.462 Y102.846 E0.01356
G1 X162.981 Y102.780 E0.01640
G1 X163.415 Y102.821 E0.01366
G1 X163.817 Y102.937 E0.01312
G1 X164.189 Y103.127 E0.01309
G1 X164.519 Y103.383 E0.01309
G1 X164.805 Y103.708 E0.01357
G1 X165.058 Y104.169 E0.01650
G1 X165.179 Y104.584 E0.01357
G1 X165.218 Y105.000 E0.01309
G1 X165.179 Y105.416 E0.01309
G1 X165.058 Y105.831 E0.01357
G1 X164.805 Y106.292 E0.01650
G1 X164.519 Y106.617 E0.01357
G1 X164.189 Y106.873 E0.01309
G1 X163.817 Y107.063 E0.01309
G1 X163.416 Y107.179 E0.01310
G1 X163.000 Y107.218 E0.01309
G1 X162.584 Y107.179 E0.01309
G1 X162.183 Y107.063 E0.01310
G1 X161.811 Y106.873 E0.01309
G1 X161.481 Y106.617 E0.01309
G1 X161.195 Y106.292 E0.01357
G1 X160.979 Y105.899 E0.01409
G1 X161.292 Y105.686 F10800.000
G1 F1200
G1 X161.193 Y105.345 E0.01115
G1 X161.160 Y105.000 E0.01086
G1 X161.193 Y104.655 E0.01086
G1 X161.290 Y104.323 E0.01086
G1 X161.447 Y104.014 E0.01085
G1 X161.659 Y103.741 E0.01086
G1 X161.919 Y103.512 E0.01086
G1 X162.217 Y103.335 E0.01085
G1 X162.551 Y103.215 E0.01114
G1 X162.987 Y103.160 E0.01380
G1 X163.344 Y103.193 E0.01124
G1 X163.677 Y103.289 E0.01087
G1 X163.986 Y103.447 E0.01086
G1 X164.259 Y103.659 E0.01086
G1 X164.495 Y103.926 E0.01115
G1 X164.708 Y104.314 E0.01389
G1 X164.807 Y104.655 E0.01115
G1 X164.840 Y105.000 E0.01086
G1 X164.807 Y105.345 E0.01086
G1 X164.708 Y105.686 E0.01115
G1 X164.495 Y106.074 E0.01389
