; generated by PrusaSlicer 2.0.0+win64 on 2019-09-06 at 09:52:59

; 

; external perimeters extrusion width = 0.45mm
; perimeters extrusion width = 0.45mm
; infill extrusion width = 0.45mm
; solid infill extrusion width = 0.45mm
; top infill extrusion width = 0.40mm
; first layer extrusion width = 0.42mm

M73 P0 R20
M73 Q0 S20
M201 X1000 Y1000 Z1000 E5000 ; sets maximum accelerations, mm/sec^2
M203 X200 Y200 Z12 E120 ; sets maximum feedrates, mm/sec
M204 P1250 R1250 T1250 ; sets acceleration (P, T) and retract acceleration (R), mm/sec^2
M205 X8.00 Y8.00 Z0.40 E1.50 ; sets the jerk limits, mm/sec
M205 S0 T0 ; sets the minimum extruding and travel feed rate, mm/sec
M107
M115 U3.7.2 ; tell printer latest fw version
G90 ; use absolute coordinates
M83 ; extruder relative mode
M104 S240 ; set extruder temp
M140 S85 ; set bed temp
Tx
M190 S85 ; wait for bed temp
M109 S240 ; wait for extruder temp
G28 W ; home all without mesh bed level
G80 ; mesh bed leveling

G21 ; set units to millimeters

;go outside print area
G1 Y-3.0 F1000.0
G1 Z0.4 F1000.0
; select extruder
Tc
; purge line
G1 X55.0 F2000.0
G1 Z0.3 F1000.0
G92 E0.0
G1 X240.0 E25.0 F2200.0
M73 Q0 S20
M73 P0 R20
G1 Y-2.0 F1000.0
G1 X55.0 E25 F1400.0
G1 Z0.20 F1000.0
G1 X5.0 E4.0 F1000.0

M221 S95
G92 E0.0
M900 K45 ; Filament gcode
G21 ; set units to millimeters
G90 ; use absolute coordinates
M83 ; use relative distances for extrusion
;BEFORE_LAYER_CHANGE
G92 E0.0
;0.2


G1 E-0.80000 F2100.00000
G1 Z0.600 F10800.000
;AFTER_LAYER_CHANGE
;0.2
G1 X103.444 Y73.883
G1 Z0.200
G1 E0.80000 F2100.00000
M204 S1000
G1 F1200
G1 X103.954 Y73.812 E0.01612
G1 X146.004 Y73.811 E1.31845
G1 X146.518 Y73.874 E0.01623
G1 X146.999 Y74.053 E0.01612
G1 X147.426 Y74.340 E0.01612
G1 X147.774 Y74.718 E0.01612
G1 X159.823 Y92.290 E0.66802
G1 X160.086 Y92.838 E0.01908
G1 X160.188 Y93.438 E0.01908
G1 X160.189 Y116.507 E0.72332
G1 X160.099 Y117.120 E0.01942
G1 X159.811 Y117.729 E0.02112
G1 X147.795 Y135.253 E0.66622
G1 X147.450 Y135.639 E0.01623
G1 X147.021 Y135.936 E0.01635
G1 X146.538 Y136.121 E0.01623
G1 X146.024 Y136.188 E0.01623
G1 X103.982 Y136.188 E1.31822
G1 X103.335 Y136.085 E0.02055
G1 X102.747 Y135.794 E0.02055
G1 X102.203 Y135.249 E0.02417
G1 X90.183 Y117.720 E0.66642
G1 X89.908 Y117.144 E0.01998
G1 X89.812 Y116.518 E0.01987
G1 X89.811 Y93.493 E0.72194
G1 X89.902 Y92.876 E0.01953
G1 X90.189 Y92.271 E0.02100
G1 X102.205 Y74.747 E0.66622
G1 X102.547 Y74.363 E0.01612
G1 X102.966 Y74.071 E0.01601
G1 X103.389 Y73.905 E0.01424
G1 F8640
G1 X103.954 Y73.812 E-0.13223
G1 X106.672 Y73.812 E-0.62777
G1 E-0.04000 F2100.00000
G1 Z0.800 F10800.000
G1 X145.092 Y130.127
G1 Z0.200
G1 E0.80000 F2100.00000
G1 F1200
G1 X144.945 Y130.417 E0.01020
G1 X144.747 Y130.671 E0.01010
G1 X144.506 Y130.884 E0.01010
G1 X144.229 Y131.048 E0.01010
G1 X143.925 Y131.157 E0.01010
G1 X143.607 Y131.208 E0.01009
G1 X143.282 Y131.197 E0.01020
G1 X142.873 Y131.092 E0.01324
G1 X142.583 Y130.945 E0.01020
G1 X142.329 Y130.747 E0.01010
G1 X142.116 Y130.506 E0.01010
G1 X141.952 Y130.229 E0.01010
G1 X141.843 Y129.925 E0.01010
G1 X141.792 Y129.607 E0.01009
G1 X141.803 Y129.282 E0.01020
G1 X141.908 Y128.873 E0.01324
G1 X142.055 Y128.583 E0.01020
G1 X142.253 Y128.329 E0.01010
G1 X142.494 Y128.116 E0.01010
G1 X142.771 Y127.952 E0.01010
G1 X143.075 Y127.843 E0.01010
G1 X143.393 Y127.792 E0.01009
G1 X143.718 Y127.803 E0.01020
G1 X144.127 Y127.908 E0.01324
G1 X144.417 Y128.055 E0.01020
G1 X144.671 Y128.253 E0.01010
G1 X144.884 Y128.494 E0.01010
G1 X145.048 Y128.771 E0.01010
G1 X145.157 Y129.075 E0.01010
G1 X145.208 Y129.393 E0.01009
G1 X145.197 Y129.718 E0.01020
G1 X145.107 Y130.069 E0.01136
G1 X145.297 Y130.380 F10800.000
G1 F8640
G1 X144.945 Y130.417 E-0.08869
G1 X144.747 Y130.671 E-0.07435
G1 X144.506 Y130.884 E-0.07436
G1 X144.229 Y131.048 E-0.07435
G1 X143.925 Y131.157 E-0.07438
G1 X143.607 Y131.208 E-0.07434
G1 X143.282 Y131.197 E-0.07512
G1 X142.873 Y131.092 E-0.09754
G1 X142.583 Y130.945 E-0.07512
G1 X142.406 Y130.807 E-0.05175
G1 E-0.04000 F2100.00000
G1 Z0.800 F10800.000
G1 X108.197 Y129.718
G1 Z0.200
G1 E0.80000 F2100.00000
G1 F1200
G1 X108.092 Y130.127 E0.01324
G1 X107.945 Y130.417 E0.01020
G1 X107.747 Y130.671 E0.01010
G1 X107.506 Y130.884 E0.01010
G1 X107.229 Y131.048 E0.01010
G1 X106.925 Y131.157 E0.01010
G1 X106.607 Y131.208 E0.01009
G1 X106.282 Y131.197 E0.01020
G1 X105.873 Y131.092 E0.01324
G1 X105.583 Y130.945 E0.01020
G1 X105.329 Y130.747 E0.01010
G1 X105.116 Y130.506 E0.01010
G1 X104.952 Y130.229 E0.01010
G1 X104.843 Y129.925 E0.01010
G1 X104.792 Y129.607 E0.01009
G1 X104.803 Y129.282 E0.01020
G1 X104.908 Y128.873 E0.01324
G1 X105.055 Y128.583 E0.01020
G1 X105.253 Y128.329 E0.01010
G1 X105.494 Y128.116 E0.01010
G1 X105.771 Y127.952 E0.01010
G1 X106.075 Y127.843 E0.01010
G1 X106.393 Y127.792 E0.01009
G1 X106.718 Y127.803 E0.01020
G1 X107.127 Y127.908 E0.01324
G1 X107.417 Y128.055 E0.01020
G1 X107.671 Y128.253 E0.01010
G1 X107.884 Y128.494 E0.01010
G1 X108.048 Y128.771 E0.01010
G1 X108.157 Y129.075 E0.01010
G1 X108.208 Y129.393 E0.01009
G1 X108.199 Y129.658 E0.00832
G1 X108.511 Y129.966 F10800.000
G1 F8640
G1 X108.092 Y130.127 E-0.11110
G1 X107.945 Y130.417 E-0.07512
G1 X107.747 Y130.671 E-0.07435
G1 X107.506 Y130.884 E-0.07436
G1 X107.229 Y131.048 E-0.07435
G1 X106.925 Y131.157 E-0.07438
G1 X106.607 Y131.208 E-0.07434
G1 X106.282 Y131.197 E-0.07512
G1 X105.873 Y131.092 E-0.09754
G1 X105.760 Y131.035 E-0.02934
G1 E-0.04000 F2100.00000
G1 Z0.800 F10800.000
G1 X106.282 Y82.197
G1 Z0.200
G1 E0.80000 F2100.00000
G1 F1200
G1 X105.873 Y82.092 E0.01324
G1 X105.583 Y81.945 E0.01020
G1 X105.329 Y81.747 E0.01010
G1 X105.116 Y81.506 E0.01010
G1 X104.952 Y81.229 E0.01010
G1 X104.843 Y80.925 E0.01010
G1 X104.792 Y80.607 E0.01009
G1 X104.803 Y80.282 E0.01020
G1 X104.908 Y79.873 E0.01324
G1 X105.055 Y79.583 E0.01020
G1 X105.253 Y79.329 E0.01010
G1 X105.494 Y79.116 E0.01010
G1 X105.771 Y78.952 E0.01010
G1 X106.075 Y78.843 E0.01010
G1 X106.393 Y78.792 E0.01009
G1 X106.718 Y78.803 E0.01020
G1 X107.127 Y78.908 E0.01324
G1 X107.417 Y79.055 E0.01020
G1 X107.671 Y79.253 E0.01010
G1 X107.884 Y79.494 E0.01010
G1 X108.048 Y79.771 E0.01010
G1 X108.157 Y80.075 E0.01010
G1 X108.208 Y80.393 E0.01009
G1 X108.197 Y80.718 E0.01020
G1 X108.092 Y81.127 E0.01324
G1 X107.945 Y81.417 E0.01020
G1 X107.747 Y81.671 E0.01010
G1 X107.506 Y81.884 E0.01010
G1 X107.229 Y82.048 E0.01010
G1 X106.925 Y82.157 E0.01010
G1 X106.607 Y82.208 E0.01009
G1 X106.342 Y82.199 E0.00832
G1 X106.034 Y82.511 F10800.000
G1 F8640
G1 X105.873 Y82.092 E-0.11110
G1 X105.583 Y81.945 E-0.07511
G1 X105.329 Y81.747 E-0.07435
G1 X105.116 Y81.506 E-0.07436
G1 X104.952 Y81.229 E-0.07435
G1 X104.843 Y80.925 E-0.07438
G1 X104.792 Y80.607 E-0.07434
G1 X104.803 Y80.282 E-0.07512
G1 X104.908 Y79.873 E-0.09754
G1 X104.965 Y79.760 E-0.02934
G1 E-0.04000 F2100.00000
G1 Z0.800 F10800.000
G1 X141.803 Y80.282
G1 Z0.200
G1 E0.80000 F2100.00000
G1 F1200
G1 X141.908 Y79.873 E0.01324
G1 X142.055 Y79.583 E0.01020
G1 X142.253 Y79.329 E0.01010
G1 X142.494 Y79.116 E0.01010
G1 X142.771 Y78.952 E0.01010
G1 X143.075 Y78.843 E0.01010
G1 X143.393 Y78.792 E0.01009
G1 X143.718 Y78.803 E0.01020
G1 X144.127 Y78.908 E0.01324
G1 X144.417 Y79.055 E0.01020
G1 X144.671 Y79.253 E0.01010
G1 X144.884 Y79.494 E0.01010
G1 X145.048 Y79.771 E0.01010
G1 X145.157 Y80.075 E0.01010
G1 X145.208 Y80.393 E0.01009
G1 X145.197 Y80.718 E0.01020
G1 X145.092 Y81.127 E0.01324
G1 X144.945 Y81.417 E0.01020
G1 X144.747 Y81.671 E0.01010
G1 X144.506 Y81.884 E0.01010
G1 X144.229 Y82.048 E0.01010
G1 X143.925 Y82.157 E0.01010
G1 X143.607 Y82.208 E0.01009
G1 X143.282 Y82.197 E0.01020
G1 X142.873 Y82.092 E0.01324
G1 X142.583 Y81.945 E0.01020
G1 X142.329 Y81.747 E0.01010
G1 X142.116 Y81.506 E0.01010
G1 X141.952 Y81.229 E0.01010
G1 X141.843 Y80.925 E0.01010
G1 X141.792 Y80.607 E0.01009
G1 X141.801 Y80.342 E0.00832
G1 X141.489 Y80.034 F10800.000
G1 F8640
G1 X141.908 Y79.873 E-0.11110
G1 X142.055 Y79.583 E-0.07512
G1 X142.253 Y79.329 E-0.07435
G1 X142.494 Y79.116 E-0.07436
G1 X142.771 Y78.952 E-0.07435
G1 X143.075 Y78.843 E-0.07438
G1 X143.393 Y78.792 E-0.07434
G1 X143.718 Y78.803 E-0.07512
G1 X144.127 Y78.908 E-0.09754
G1 X144.240 Y78.965 E-0.02934
G1 E-0.04000 F2100.00000
G1 Z0.800 F10800.000
G1 X145.036 Y94.464
G1 Z0.200
G1 E0.80000 F2100.00000
G1 F1200
G1 X157.036 Y94.464 E0.37625
G1 X157.036 Y115.536 E0.66069
G1 X145.036 Y115.536 E0.37625
G1 X145.036 Y127.581 E0.37767
G1 X144.823 Y127.416 E0.00846
G1 X144.395 Y127.198 E0.01504
G1 X143.825 Y127.051 E0.01847
G1 X143.345 Y127.036 E0.01504
G1 X142.886 Y127.109 E0.01456
G1 X142.449 Y127.267 E0.01457
G1 X142.049 Y127.503 E0.01456
G1 X141.700 Y127.810 E0.01457
G1 X141.416 Y128.177 E0.01457
G1 X141.198 Y128.605 E0.01504
G1 X141.051 Y129.175 E0.01847
G1 X141.036 Y129.655 E0.01504
G1 X141.109 Y130.114 E0.01456
G1 X141.267 Y130.551 E0.01457
G1 X141.503 Y130.951 E0.01456
G1 X141.810 Y131.300 E0.01457
G1 X142.177 Y131.584 E0.01457
G1 X142.605 Y131.802 E0.01504
G1 X143.175 Y131.949 E0.01847
G1 X143.655 Y131.964 E0.01504
G1 X144.114 Y131.891 E0.01456
G1 X144.551 Y131.733 E0.01457
G1 X144.951 Y131.497 E0.01456
G1 X145.036 Y131.422 E0.00355
G1 X145.036 Y133.036 E0.05060
G1 X104.964 Y133.036 E1.25642
G1 X104.964 Y131.419 E0.05070
G1 X105.177 Y131.584 E0.00846
G1 X105.605 Y131.802 E0.01504
G1 X106.175 Y131.949 E0.01847
G1 X106.655 Y131.964 E0.01504
G1 X107.114 Y131.891 E0.01456
G1 X107.551 Y131.733 E0.01457
G1 X107.951 Y131.497 E0.01456
G1 X108.300 Y131.190 E0.01457
G1 X108.584 Y130.823 E0.01457
G1 X108.802 Y130.395 E0.01504
G1 X108.949 Y129.825 E0.01847
G1 X108.964 Y129.345 E0.01504
G1 X108.891 Y128.886 E0.01456
G1 X108.733 Y128.449 E0.01457
G1 X108.497 Y128.049 E0.01456
G1 X108.190 Y127.700 E0.01457
G1 X107.823 Y127.416 E0.01457
G1 X107.395 Y127.198 E0.01504
G1 X106.825 Y127.051 E0.01847
G1 X106.345 Y127.036 E0.01504
G1 X105.886 Y127.109 E0.01456
G1 X105.449 Y127.267 E0.01457
G1 X105.049 Y127.503 E0.01456
G1 X104.964 Y127.578 E0.00355
G1 X104.964 Y115.536 E0.37757
G1 X92.964 Y115.536 E0.37625
G1 X92.964 Y94.464 E0.66069
G1 X104.964 Y94.464 E0.37625
G1 X104.964 Y82.419 E0.37767
G1 X105.177 Y82.584 E0.00846
G1 X105.605 Y82.802 E0.01504
G1 X106.175 Y82.949 E0.01847
G1 X106.655 Y82.964 E0.01504
G1 X107.114 Y82.891 E0.01456
G1 X107.551 Y82.733 E0.01457
G1 X107.951 Y82.497 E0.01456
G1 X108.300 Y82.190 E0.01457
G1 X108.584 Y81.823 E0.01457
G1 X108.802 Y81.395 E0.01504
G1 X108.949 Y80.825 E0.01847
G1 X108.964 Y80.345 E0.01504
G1 X108.891 Y79.886 E0.01456
G1 X108.733 Y79.449 E0.01457
G1 X108.497 Y79.049 E0.01456
G1 X108.190 Y78.700 E0.01457
G1 X107.823 Y78.416 E0.01457
G1 X107.395 Y78.198 E0.01504
G1 X106.825 Y78.051 E0.01847
G1 X106.345 Y78.036 E0.01504
G1 X105.886 Y78.109 E0.01456
G1 X105.449 Y78.267 E0.01457
G1 X105.049 Y78.503 E0.01456
G1 X104.964 Y78.578 E0.00355
G1 X104.964 Y76.964 E0.05060
G1 X145.036 Y76.964 E1.25642
G1 X145.036 Y78.581 E0.05070
G1 X144.823 Y78.416 E0.00846
G1 X144.395 Y78.198 E0.01504
G1 X143.825 Y78.051 E0.01847
G1 X143.345 Y78.036 E0.01504
G1 X142.886 Y78.109 E0.01456
G1 X142.449 Y78.267 E0.01457
G1 X142.049 Y78.503 E0.01456
G1 X141.700 Y78.810 E0.01457
G1 X141.416 Y79.177 E0.01457
G1 X141.198 Y79.605 E0.01504
G1 X141.051 Y80.175 E0.01847
G1 X141.036 Y80.655 E0.01504
G1 X141.109 Y81.114 E0.01456
G1 X141.267 Y81.551 E0.01457
G1 X141.503 Y81.951 E0.01456
G1 X141.810 Y82.300 E0.01457
G1 X142.177 Y82.584 E0.01457
G1 X142.605 Y82.802 E0.01504
G1 X143.175 Y82.949 E0.01847
G1 X143.655 Y82.964 E0.01504
G1 X144.114 Y82.891 E0.01456
G1 X144.551 Y82.733 E0.01457
G1 X144.951 Y82.497 E0.01456
G1 X145.036 Y82.422 E0.00355
G1 X145.036 Y94.404 E0.37569
G1 X145.413 Y94.087 F10800.000
G1 F1200
G1 X157.413 Y94.087 E0.37625
G1 X157.413 Y115.913 E0.68433
G1 X145.413 Y115.913 E0.37625
G1 X145.413 Y128.672 E0.40004
G1 X145.191 Y128.272 E0.01435
G1 X144.930 Y127.977 E0.01233
G1 X144.620 Y127.736 E0.01233
G1 X144.261 Y127.553 E0.01262
G1 X143.771 Y127.427 E0.01586
G1 X143.369 Y127.414 E0.01262
G1 X142.980 Y127.476 E0.01233
G1 X142.610 Y127.609 E0.01234
G1 X142.272 Y127.809 E0.01233
G1 X141.977 Y128.070 E0.01233
G1 X141.736 Y128.380 E0.01233
G1 X141.553 Y128.739 E0.01262
G1 X141.427 Y129.229 E0.01586
G1 X141.414 Y129.631 E0.01262
G1 X141.476 Y130.020 E0.01233
G1 X141.609 Y130.390 E0.01234
G1 X141.809 Y130.728 E0.01233
G1 X142.070 Y131.023 E0.01233
G1 X142.380 Y131.264 E0.01233
G1 X142.739 Y131.447 E0.01262
G1 X143.229 Y131.573 E0.01586
G1 X143.631 Y131.586 E0.01262
G1 X144.020 Y131.524 E0.01233
G1 X144.390 Y131.391 E0.01234
G1 X144.728 Y131.191 E0.01233
G1 X145.023 Y130.930 E0.01233
G1 X145.264 Y130.620 E0.01233
G1 X145.413 Y130.328 E0.01025
G1 X145.413 Y133.413 E0.09672
G1 X104.587 Y133.413 E1.28007
G1 X104.587 Y130.328 E0.09672
G1 X104.809 Y130.728 E0.01435
G1 X105.070 Y131.023 E0.01233
G1 X105.380 Y131.264 E0.01233
G1 X105.739 Y131.447 E0.01262
G1 X106.229 Y131.573 E0.01586
G1 X106.631 Y131.586 E0.01262
G1 X107.020 Y131.524 E0.01233
G1 X107.390 Y131.391 E0.01234
G1 X107.728 Y131.191 E0.01233
G1 X108.023 Y130.930 E0.01233
G1 X108.264 Y130.620 E0.01233
G1 X108.447 Y130.261 E0.01262
G1 X108.573 Y129.771 E0.01586
G1 X108.586 Y129.369 E0.01262
G1 X108.524 Y128.980 E0.01233
G1 X108.391 Y128.610 E0.01234
G1 X108.191 Y128.272 E0.01233
G1 X107.930 Y127.977 E0.01233
G1 X107.620 Y127.736 E0.01233
G1 X107.261 Y127.553 E0.01262
G1 X106.771 Y127.427 E0.01586
G1 X106.369 Y127.414 E0.01262
G1 X105.980 Y127.476 E0.01233
G1 X105.610 Y127.609 E0.01234
G1 X105.272 Y127.809 E0.01233
G1 X104.977 Y128.070 E0.01233
G1 X104.736 Y128.380 E0.01233
G1 X104.587 Y128.672 E0.01025
G1 X104.587 Y115.913 E0.40004
G1 X92.587 Y115.913 E0.37625
G1 X92.587 Y94.087 E0.68433
G1 X104.587 Y94.087 E0.37625
G1 X104.587 Y81.328 E0.40004
G1 X104.809 Y81.728 E0.01435
G1 X105.070 Y82.023 E0.01233
G1 X105.380 Y82.264 E0.01233
G1 X105.739 Y82.447 E0.01262
G1 X106.229 Y82.573 E0.01586
G1 X106.631 Y82.586 E0.01262
G1 X107.020 Y82.524 E0.01233
G1 X107.390 Y82.391 E0.01234
G1 X107.728 Y82.191 E0.01233
G1 X108.023 Y81.930 E0.01233
G1 X108.264 Y81.620 E0.01233
G1 X108.447 Y81.261 E0.01262
G1 X108.573 Y80.771 E0.01586
G1 X108.586 Y80.369 E0.01262
G1 X108.524 Y79.980 E0.01233
G1 X108.391 Y79.610 E0.01234
G1 X108.191 Y79.272 E0.01233
G1 X107.930 Y78.977 E0.01233
G1 X107.620 Y78.736 E0.01233
G1 X107.261 Y78.553 E0.01262
G1 X106.771 Y78.427 E0.01586
G1 X106.369 Y78.414 E0.01262
G1 X105.980 Y78.476 E0.01233
G1 X105.610 Y78.609 E0.01234
G1 X105.272 Y78.809 E0.01233
G1 X104.977 Y79.070 E0.01233
G1 X104.736 Y79.380 E0.01233
G1 X104.587 Y79.672 E0.01026
G1 X104.587 Y76.587 E0.09672
G1 X145.413 Y76.587 E1.28007
G1 X145.413 Y79.672 E0.09672
G1 X145.191 Y79.272 E0.01435
G1 X144.930 Y78.977 E0.01233
G1 X144.620 Y78.736 E0.01233
G1 X144.261 Y78.553 E0.01262
G1 X143.771 Y78.427 E0.01586
G1 X143.369 Y78.414 E0.01262
G1 X142.980 Y78.476 E0.01233
G1 X142.610 Y78.609 E0.01234
G1 X142.272 Y78.809 E0.01233
G1 X141.977 Y79.070 E0.01233
G1 X141.736 Y79.380 E0.01233
G1 X141.553 Y79.739 E0.01262
G1 X141.427 Y80.229 E0.01586
G1 X141.414 Y80.631 E0.01262
G1 X141.476 Y81.020 E0.01233
G1 X141.609 Y81.390 E0.01234
G1 X141.809 Y81.728 E0.01233
G1 X142.070 Y82.023 E0.01233
G1 X142.380 Y82.264 E0.01233
G1 X142.739 Y82.447 E0.01262
G1 X143.229 Y82.573 E0.01586
G1 X143.631 Y82.586 E0.01262
G1 X144.020 Y82.524 E0.01233
G1 X144.390 Y82.391 E0.01234
G1 X144.728 Y82.191 E0.01233
G1 X145.023 Y81.930 E0.01233
G1 X145.264 Y81.620 E0.01233
G1 X145.413 Y81.328 E0.01025
G1 X145.413 Y94.027 E0.39816
G1 X145.790 Y93.710 F10800.000
G1 F1200
G1 X157.790 Y93.710 E0.37625
G1 X157.790 Y116.290 E0.70798
G1 X145.790 Y116.290 E0.37625
M73 Q5 S19
G1 X145.790 Y133.790 E0.54870
M73 P5 R19
G1 X104.210 Y133.790 E1.30371
G1 X104.210 Y116.290 E0.54870
G1 X92.210 Y116.290 E0.37625
G1 X92.210 Y93.710 E0.70798
G1 X104.210 Y93.710 E0.37625
G1 X104.210 Y76.210 E0.54870
G1 X145.790 Y76.210 E1.30371
G1 X145.790 Y93.650 E0.54682
G1 X145.942 Y94.080 F10800.000
G1 F8640
G1 X149.081 Y93.666 E-0.76000
G1 E-0.04000 F2100.00000
G1 Z0.800 F10800.000
G1 X144.923 Y83.192
G1 Z0.200
G1 E0.80000 F2100.00000
G1 F1200
