; generated by PrusaSlicer 2.0.0+win64 on 2019-10-09 at 08:56:49

; 

; external perimeters extrusion width = 0.45mm
; perimeters extrusion width = 0.45mm
; infill extrusion width = 0.45mm
; solid infill extrusion width = 0.45mm
; top infill extrusion width = 0.40mm
; first layer extrusion width = 0.42mm

M73 P0 R104
M73 Q0 S104
M201 X1000 Y1000 Z1000 E5000 ; sets maximum accelerations, mm/sec^2
M203 X200 Y200 Z12 E120 ; sets maximum feedrates, mm/sec
M204 P1250 R1250 T1250 ; sets acceleration (P, T) and retract acceleration (R), mm/sec^2
M205 X8.00 Y8.00 Z0.40 E1.50 ; sets the jerk limits, mm/sec
M205 S0 T0 ; sets the minimum extruding and travel feed rate, mm/sec
M107
M115 U3.8.0 ; tell printer latest fw version
G90 ; use absolute coordinates
M83 ; extruder relative mode
M104 S240 ; set extruder temp
M140 S85 ; set bed temp
Tx
M190 S85 ; wait for bed temp
M109 S240 ; wait for extruder temp
G28 W ; home all without mesh bed level
G80 ; mesh bed leveling

G21 ; set units to millimeters

;go outside print area
G1 Y-3.0 F1000.0
G1 Z0.4 F1000.0
; select extruder
Tc
; purge line
G1 X55.0 F2000.0
G1 Z0.3 F1000.0
G92 E0.0
G1 X240.0 E25.0 F2200.0
M73 Q0 S104
M73 P0 R104
G1 Y-2.0 F1000.0
G1 X55.0 E25 F1400.0
G1 Z0.20 F1000.0
G1 X5.0 E4.0 F1000.0

M221 S95
G92 E0.0
M900 K45 ; Filament gcode
G21 ; set units to millimeters
G90 ; use absolute coordinates
M83 ; use relative distances for extrusion
;BEFORE_LAYER_CHANGE
G92 E0.0
;0.2


G1 E-0.80000 F2100.00000
G1 Z0.600 F10800.000
;AFTER_LAYER_CHANGE
;0.2
G1 X66.627 Y42.993
G1 Z0.200
G1 E0.80000 F2100.00000
M204 S1000
G1 F1200
G1 X67.487 Y42.812 E0.02754
G1 X182.504 Y42.811 E3.60627
G1 X183.334 Y42.976 E0.02653
G1 X184.039 Y43.444 E0.02653
G1 X184.514 Y44.144 E0.02653
G1 X184.688 Y44.972 E0.02653
G1 X184.689 Y165.011 E3.76373
G1 X184.532 Y165.813 E0.02563
G1 X184.094 Y166.500 E0.02552
G1 X183.369 Y167.008 E0.02777
G1 X182.502 Y167.189 E0.02777
G1 X67.489 Y167.189 E3.60616
G1 X66.687 Y167.032 E0.02563
G1 X66.000 Y166.594 E0.02552
G1 X65.492 Y165.869 E0.02777
G1 X65.311 Y165.002 E0.02777
G1 X65.311 Y44.989 E3.76293
G1 X65.468 Y44.187 E0.02563
G1 X65.906 Y43.500 E0.02552
G1 X66.578 Y43.028 E0.02577
G1 F8640
G1 X67.487 Y42.812 E-0.21564
G1 X69.844 Y42.812 E-0.54436
G1 E-0.04000 F2100.00000
G1 Z0.800 F10800.000
G1 X82.208 Y116.314
G1 Z0.200
G1 E0.80000 F2100.00000
G1 F1200
G1 X82.307 Y116.655 E0.01115
G1 X82.340 Y117.000 E0.01086
G1 X82.307 Y117.345 E0.01086
G1 X82.208 Y117.686 E0.01115
G1 X81.995 Y118.074 E0.01388
G1 X81.759 Y118.341 E0.01115
G1 X81.486 Y118.553 E0.01086
G1 X81.177 Y118.710 E0.01085
G1 X80.845 Y118.807 E0.01086
G1 X80.500 Y118.840 E0.01086
G1 X80.155 Y118.807 E0.01086
G1 X79.823 Y118.710 E0.01086
G1 X79.514 Y118.553 E0.01087
G1 X79.231 Y118.333 E0.01124
G1 X78.951 Y117.994 E0.01379
G1 X78.790 Y117.677 E0.01114
G1 X78.693 Y117.345 E0.01086
G1 X78.660 Y117.000 E0.01086
G1 X78.693 Y116.655 E0.01086
G1 X78.790 Y116.323 E0.01086
G1 X78.947 Y116.014 E0.01085
G1 X79.159 Y115.741 E0.01086
G1 X79.419 Y115.512 E0.01086
G1 X79.717 Y115.335 E0.01085
G1 X80.051 Y115.215 E0.01114
G1 X80.487 Y115.160 E0.01380
G1 X80.844 Y115.193 E0.01124
G1 X81.177 Y115.290 E0.01087
G1 X81.486 Y115.447 E0.01085
G1 X81.760 Y115.659 E0.01087
G1 X81.996 Y115.928 E0.01124
G1 X82.179 Y116.261 E0.01191
G1 X81.857 Y116.459 F10800.000
G1 F1200
G1 X81.935 Y116.726 E0.00873
G1 X81.961 Y117.000 E0.00862
G1 X81.935 Y117.274 E0.00862
G1 X81.857 Y117.541 E0.00873
G1 X81.684 Y117.856 E0.01127
G1 X81.500 Y118.065 E0.00873
G1 X81.283 Y118.233 E0.00862
G1 X81.038 Y118.358 E0.00862
G1 X80.774 Y118.435 E0.00862
G1 X80.500 Y118.461 E0.00862
G1 X80.226 Y118.435 E0.00862
G1 X79.962 Y118.358 E0.00862
G1 X79.717 Y118.233 E0.00862
G1 X79.495 Y118.061 E0.00881
G1 X79.268 Y117.786 E0.01119
G1 X79.142 Y117.538 E0.00872
G1 X79.065 Y117.274 E0.00862
G1 X79.039 Y117.000 E0.00862
G1 X79.065 Y116.726 E0.00862
G1 X79.142 Y116.462 E0.00862
G1 X79.267 Y116.217 E0.00862
G1 X79.435 Y116.000 E0.00862
G1 X79.641 Y115.818 E0.00862
G1 X79.878 Y115.678 E0.00862
G1 X80.140 Y115.584 E0.00872
G1 X80.494 Y115.539 E0.01119
G1 X80.774 Y115.565 E0.00881
G1 X81.038 Y115.642 E0.00863
G1 X81.283 Y115.767 E0.00862
G1 X81.500 Y115.935 E0.00863
G1 X81.686 Y116.146 E0.00881
G1 X81.829 Y116.406 E0.00931
G1 X82.133 Y116.497 F10800.000
G1 F8640
G1 X81.935 Y116.726 E-0.07785
G1 X81.961 Y117.000 E-0.06348
G1 X81.935 Y117.274 E-0.06348
G1 X81.857 Y117.541 E-0.06428
G1 X81.684 Y117.856 E-0.08303
G1 X81.500 Y118.065 E-0.06427
G1 X81.283 Y118.233 E-0.06349
G1 X81.038 Y118.358 E-0.06348
G1 X80.774 Y118.435 E-0.06352
G1 X80.500 Y118.461 E-0.06348
G1 X80.226 Y118.435 E-0.06348
G1 X80.118 Y118.403 E-0.02614
G1 E-0.04000 F2100.00000
G1 Z0.800 F10800.000
G1 X80.500 Y94.840
G1 Z0.200
G1 E0.80000 F2100.00000
G1 F1200
G1 X80.155 Y94.807 E0.01086
G1 X79.823 Y94.710 E0.01086
G1 X79.514 Y94.553 E0.01087
G1 X79.231 Y94.333 E0.01124
G1 X78.951 Y93.994 E0.01379
G1 X78.790 Y93.677 E0.01114
G1 X78.693 Y93.345 E0.01086
G1 X78.660 Y93.000 E0.01086
G1 X78.693 Y92.655 E0.01086
G1 X78.790 Y92.323 E0.01086
G1 X78.947 Y92.014 E0.01085
G1 X79.159 Y91.741 E0.01086
G1 X79.419 Y91.512 E0.01086
G1 X79.717 Y91.335 E0.01085
G1 X80.051 Y91.215 E0.01114
G1 X80.487 Y91.160 E0.01380
G1 X80.844 Y91.193 E0.01124
G1 X81.177 Y91.290 E0.01087
G1 X81.486 Y91.447 E0.01085
G1 X81.760 Y91.659 E0.01087
G1 X81.996 Y91.928 E0.01124
G1 X82.208 Y92.314 E0.01379
G1 X82.307 Y92.655 E0.01115
G1 X82.340 Y93.000 E0.01086
G1 X82.307 Y93.345 E0.01086
G1 X82.208 Y93.686 E0.01115
G1 X81.995 Y94.074 E0.01388
G1 X81.759 Y94.341 E0.01115
G1 X81.486 Y94.553 E0.01086
G1 X81.177 Y94.710 E0.01085
G1 X80.845 Y94.807 E0.01086
G1 X80.560 Y94.834 E0.00897
G1 X80.500 Y94.461 F10800.000
G1 F1200
G1 X80.226 Y94.435 E0.00862
G1 X79.962 Y94.358 E0.00862
G1 X79.717 Y94.233 E0.00862
G1 X79.495 Y94.061 E0.00881
G1 X79.268 Y93.786 E0.01119
G1 X79.142 Y93.538 E0.00872
G1 X79.065 Y93.274 E0.00862
G1 X79.039 Y93.000 E0.00862
G1 X79.065 Y92.726 E0.00862
G1 X79.142 Y92.462 E0.00862
G1 X79.267 Y92.217 E0.00862
G1 X79.435 Y92.000 E0.00862
G1 X79.641 Y91.818 E0.00862
G1 X79.878 Y91.678 E0.00862
G1 X80.140 Y91.584 E0.00872
G1 X80.494 Y91.539 E0.01119
G1 X80.774 Y91.565 E0.00881
G1 X81.038 Y91.642 E0.00863
G1 X81.283 Y91.767 E0.00862
G1 X81.500 Y91.935 E0.00863
G1 X81.686 Y92.146 E0.00881
G1 X81.857 Y92.459 E0.01119
G1 X81.935 Y92.726 E0.00873
G1 X81.961 Y93.000 E0.00862
G1 X81.935 Y93.274 E0.00862
G1 X81.857 Y93.541 E0.00873
G1 X81.684 Y93.856 E0.01127
G1 X81.500 Y94.065 E0.00873
G1 X81.283 Y94.233 E0.00862
G1 X81.038 Y94.358 E0.00862
G1 X80.774 Y94.435 E0.00862
G1 X80.560 Y94.455 E0.00674
G1 X80.363 Y94.699 F10800.000
G1 F8640
G1 X80.226 Y94.435 E-0.07714
G1 X79.962 Y94.358 E-0.06352
G1 X79.717 Y94.233 E-0.06351
G1 X79.495 Y94.061 E-0.06488
G1 X79.268 Y93.786 E-0.08241
G1 X79.142 Y93.538 E-0.06423
G1 X79.065 Y93.274 E-0.06352
G1 X79.039 Y93.000 E-0.06348
G1 X79.065 Y92.726 E-0.06348
G1 X79.142 Y92.462 E-0.06352
G1 X79.267 Y92.217 E-0.06348
G1 X79.338 Y92.125 E-0.02683
G1 E-0.04000 F2100.00000
G1 Z0.800 F10800.000
G1 X175.627 Y150.311
G1 Z0.200
G1 E0.80000 F2100.00000
G1 F1200
G1 X175.883 Y149.981 E0.01309
G1 X176.196 Y149.705 E0.01310
G1 X176.555 Y149.493 E0.01309
G1 X176.962 Y149.346 E0.01355
G1 X177.481 Y149.280 E0.01640
G1 X177.915 Y149.321 E0.01367
G1 X178.317 Y149.437 E0.01312
G1 X178.689 Y149.627 E0.01309
G1 X179.031 Y149.892 E0.01357
G1 X179.366 Y150.298 E0.01650
G1 X179.563 Y150.683 E0.01357
G1 X179.679 Y151.084 E0.01310
G1 X179.718 Y151.500 E0.01309
G1 X179.679 Y151.916 E0.01309
G1 X179.562 Y152.317 E0.01312
G1 X179.364 Y152.705 E0.01366
G1 X179.030 Y153.108 E0.01640
G1 X178.689 Y153.373 E0.01356
G1 X178.317 Y153.563 E0.01309
G1 X177.916 Y153.679 E0.01310
G1 X177.500 Y153.718 E0.01309
G1 X177.084 Y153.679 E0.01309
G1 X176.683 Y153.563 E0.01310
G1 X176.298 Y153.366 E0.01357
G1 X175.892 Y153.031 E0.01650
G1 X175.627 Y152.689 E0.01357
G1 X175.437 Y152.317 E0.01309
G1 X175.321 Y151.916 E0.01310
G1 X175.282 Y151.500 E0.01309
G1 X175.321 Y151.084 E0.01309
G1 X175.437 Y150.683 E0.01310
G1 X175.600 Y150.365 E0.01121
G1 X175.947 Y150.514 F10800.000
G1 F1200
G1 X176.159 Y150.241 E0.01086
G1 X176.419 Y150.012 E0.01086
G1 X176.717 Y149.835 E0.01085
G1 X177.051 Y149.715 E0.01114
G1 X177.487 Y149.660 E0.01379
G1 X177.844 Y149.693 E0.01124
G1 X178.177 Y149.790 E0.01087
G1 X178.486 Y149.947 E0.01085
G1 X178.767 Y150.165 E0.01115
G1 X179.049 Y150.506 E0.01389
G1 X179.210 Y150.823 E0.01115
G1 X179.307 Y151.155 E0.01086
G1 X179.340 Y151.500 E0.01086
G1 X179.307 Y151.845 E0.01086
G1 X179.210 Y152.178 E0.01087
G1 X179.047 Y152.497 E0.01123
G1 X178.767 Y152.835 E0.01379
G1 X178.486 Y153.053 E0.01114
G1 X178.177 Y153.210 E0.01085
G1 X177.845 Y153.307 E0.01086
G1 X177.500 Y153.340 E0.01086
G1 X177.155 Y153.307 E0.01086
G1 X176.823 Y153.210 E0.01086
G1 X176.506 Y153.049 E0.01115
G1 X176.165 Y152.767 E0.01389
G1 X175.947 Y152.486 E0.01115
G1 X175.790 Y152.177 E0.01085
G1 X175.693 Y151.845 E0.01086
G1 X175.660 Y151.500 E0.01086
G1 X175.693 Y151.155 E0.01086
G1 X175.790 Y150.823 E0.01086
G1 X175.919 Y150.568 E0.00897
G1 X176.266 Y150.717 F10800.000
G1 F1200
G1 X176.435 Y150.500 E0.00862
G1 X176.641 Y150.318 E0.00862
G1 X176.878 Y150.178 E0.00862
G1 X177.140 Y150.084 E0.00872
G1 X177.494 Y150.039 E0.01119
G1 X177.774 Y150.065 E0.00881
G1 X178.038 Y150.142 E0.00863
G1 X178.283 Y150.266 E0.00862
G1 X178.503 Y150.437 E0.00873
G1 X178.732 Y150.714 E0.01128
G1 X178.858 Y150.962 E0.00872
G1 X178.935 Y151.226 E0.00863
G1 X178.961 Y151.500 E0.00862
G1 X178.935 Y151.774 E0.00862
G1 X178.858 Y152.038 E0.00863
G1 X178.730 Y152.288 E0.00881
G1 X178.503 Y152.563 E0.01119
G1 X178.283 Y152.734 E0.00872
G1 X178.038 Y152.858 E0.00862
G1 X177.774 Y152.935 E0.00863
G1 X177.500 Y152.961 E0.00862
G1 X177.226 Y152.935 E0.00862
G1 X176.962 Y152.858 E0.00863
G1 X176.714 Y152.732 E0.00872
G1 X176.437 Y152.503 E0.01128
G1 X176.266 Y152.283 E0.00873
G1 X176.142 Y152.038 E0.00862
G1 X176.065 Y151.774 E0.00863
G1 X176.039 Y151.500 E0.00862
G1 X176.065 Y151.226 E0.00862
G1 X176.142 Y150.962 E0.00863
G1 X176.239 Y150.771 E0.00674
G1 X176.139 Y150.473 F10800.000
G1 F8640
G1 X176.435 Y150.500 E-0.07715
G1 X176.641 Y150.318 E-0.06350
G1 X176.878 Y150.178 E-0.06348
G1 X177.140 Y150.084 E-0.06422
G1 X177.494 Y150.039 E-0.08243
G1 X177.774 Y150.065 E-0.06488
G1 X178.038 Y150.142 E-0.06355
G1 X178.283 Y150.266 E-0.06348
G1 X178.503 Y150.437 E-0.06426
G1 X178.732 Y150.714 E-0.08305
G1 X178.858 Y150.962 E-0.06425
G1 X178.865 Y150.986 E-0.00575
G1 E-0.04000 F2100.00000
G1 Z0.800 F10800.000
G1 X161.718 Y151.500
G1 Z0.200
G1 E0.80000 F2100.00000
G1 F1200
G1 X161.679 Y151.916 E0.01309
G1 X161.562 Y152.317 E0.01312
G1 X161.364 Y152.705 E0.01366
G1 X161.030 Y153.108 E0.01640
G1 X160.689 Y153.373 E0.01356
G1 X160.317 Y153.563 E0.01309
G1 X159.916 Y153.679 E0.01310
G1 X159.500 Y153.718 E0.01309
G1 X159.084 Y153.679 E0.01309
G1 X158.683 Y153.563 E0.01310
G1 X158.298 Y153.366 E0.01357
G1 X157.892 Y153.031 E0.01650
G1 X157.627 Y152.689 E0.01357
G1 X157.437 Y152.317 E0.01309
G1 X157.321 Y151.916 E0.01310
G1 X157.282 Y151.500 E0.01309
G1 X157.321 Y151.084 E0.01309
G1 X157.437 Y150.683 E0.01310
G1 X157.627 Y150.311 E0.01309
G1 X157.883 Y149.981 E0.01309
G1 X158.196 Y149.705 E0.01310
G1 X158.555 Y149.493 E0.01309
G1 X158.962 Y149.346 E0.01355
G1 X159.481 Y149.280 E0.01640
G1 X159.915 Y149.321 E0.01367
G1 X160.317 Y149.437 E0.01312
G1 X160.689 Y149.627 E0.01309
G1 X161.031 Y149.892 E0.01357
G1 X161.366 Y150.298 E0.01650
G1 X161.563 Y150.683 E0.01357
G1 X161.679 Y151.084 E0.01310
G1 X161.713 Y151.440 E0.01121
G1 X161.340 Y151.500 F10800.000
G1 F1200
G1 X161.307 Y151.845 E0.01086
G1 X161.210 Y152.178 E0.01087
G1 X161.047 Y152.497 E0.01123
G1 X160.767 Y152.835 E0.01379
G1 X160.486 Y153.053 E0.01114
G1 X160.177 Y153.210 E0.01085
G1 X159.845 Y153.307 E0.01086
G1 X159.500 Y153.340 E0.01086
G1 X159.155 Y153.307 E0.01086
G1 X158.823 Y153.210 E0.01086
G1 X158.506 Y153.049 E0.01115
G1 X158.165 Y152.767 E0.01389
G1 X157.947 Y152.486 E0.01115
G1 X157.790 Y152.177 E0.01085
G1 X157.693 Y151.845 E0.01086
G1 X157.660 Y151.500 E0.01086
G1 X157.693 Y151.155 E0.01086
G1 X157.790 Y150.823 E0.01086
G1 X157.947 Y150.514 E0.01085
G1 X158.159 Y150.241 E0.01086
G1 X158.419 Y150.012 E0.01086
G1 X158.717 Y149.835 E0.01085
G1 X159.051 Y149.715 E0.01114
G1 X159.487 Y149.660 E0.01379
G1 X159.844 Y149.693 E0.01124
G1 X160.177 Y149.790 E0.01087
G1 X160.486 Y149.947 E0.01085
G1 X160.767 Y150.165 E0.01115
G1 X161.049 Y150.506 E0.01389
G1 X161.210 Y150.823 E0.01115
G1 X161.307 Y151.155 E0.01086
G1 X161.334 Y151.440 E0.00897
G1 X160.961 Y151.500 F10800.000
G1 F1200
G1 X160.935 Y151.774 E0.00862
G1 X160.858 Y152.038 E0.00863
G1 X160.730 Y152.288 E0.00881
G1 X160.503 Y152.563 E0.01119
G1 X160.283 Y152.734 E0.00872
G1 X160.038 Y152.858 E0.00862
G1 X159.774 Y152.935 E0.00863
G1 X159.500 Y152.961 E0.00862
G1 X159.226 Y152.935 E0.00862
G1 X158.962 Y152.858 E0.00863
G1 X158.714 Y152.732 E0.00872
G1 X158.437 Y152.503 E0.01128
G1 X158.266 Y152.283 E0.00873
G1 X158.142 Y152.038 E0.00862
G1 X158.065 Y151.774 E0.00863
G1 X158.039 Y151.500 E0.00862
G1 X158.065 Y151.226 E0.00862
G1 X158.142 Y150.962 E0.00863
G1 X158.266 Y150.717 E0.00862
G1 X158.435 Y150.500 E0.00862
G1 X158.641 Y150.318 E0.00862
G1 X158.878 Y150.178 E0.00862
G1 X159.140 Y150.084 E0.00872
G1 X159.494 Y150.039 E0.01119
G1 X159.774 Y150.065 E0.00881
G1 X160.038 Y150.142 E0.00863
G1 X160.283 Y150.266 E0.00862
G1 X160.503 Y150.437 E0.00873
G1 X160.732 Y150.714 E0.01128
G1 X160.858 Y150.962 E0.00872
G1 X160.935 Y151.226 E0.00863
G1 X160.955 Y151.440 E0.00674
G1 X161.199 Y151.637 F10800.000
G1 F8640
G1 X160.935 Y151.774 E-0.07714
G1 X160.858 Y152.038 E-0.06355
G1 X160.730 Y152.288 E-0.06487
G1 X160.503 Y152.563 E-0.08241
G1 X160.283 Y152.734 E-0.06424
G1 X160.038 Y152.858 E-0.06348
G1 X159.774 Y152.935 E-0.06352
G1 X159.500 Y152.961 E-0.06348
G1 X159.226 Y152.935 E-0.06348
G1 X158.962 Y152.858 E-0.06352
G1 X158.714 Y152.732 E-0.06425
G1 X158.627 Y152.660 E-0.02606
G1 E-0.04000 F2100.00000
G1 Z0.800 F10800.000
G1 X164.175 Y131.949
G1 Z0.200
G1 E0.80000 F2100.00000
G1 F1200
G1 X163.605 Y131.802 E0.01847
G1 X163.177 Y131.584 E0.01504
G1 X162.810 Y131.300 E0.01457
G1 X162.503 Y130.951 E0.01457
G1 X162.267 Y130.551 E0.01456
G1 X162.109 Y130.114 E0.01457
G1 X162.036 Y129.655 E0.01456
G1 X162.051 Y129.175 E0.01504
G1 X162.198 Y128.605 E0.01847
G1 X162.416 Y128.177 E0.01504
G1 X162.700 Y127.810 E0.01457
G1 X163.049 Y127.503 E0.01457
G1 X163.449 Y127.267 E0.01456
G1 X163.886 Y127.109 E0.01457
G1 X164.345 Y127.036 E0.01456
G1 X164.825 Y127.051 E0.01504
G1 X165.395 Y127.198 E0.01847
G1 X165.823 Y127.416 E0.01504
G1 X166.190 Y127.700 E0.01457
G1 X166.497 Y128.049 E0.01457
G1 X166.733 Y128.449 E0.01456
G1 X166.891 Y128.886 E0.01457
G1 X166.964 Y129.345 E0.01456
G1 X166.949 Y129.825 E0.01504
G1 X166.802 Y130.395 E0.01847
G1 X166.584 Y130.823 E0.01504
G1 X166.300 Y131.190 E0.01457
G1 X165.951 Y131.497 E0.01457
G1 X165.551 Y131.733 E0.01456
G1 X165.114 Y131.891 E0.01457
G1 X164.655 Y131.964 E0.01456
G1 X164.235 Y131.950 E0.01316
G1 X164.229 Y131.573 F10800.000
G1 F1200
G1 X163.739 Y131.447 E0.01586
G1 X163.380 Y131.264 E0.01262
G1 X163.070 Y131.023 E0.01233
G1 X162.809 Y130.728 E0.01233
G1 X162.609 Y130.390 E0.01233
G1 X162.476 Y130.020 E0.01234
G1 X162.414 Y129.631 E0.01233
G1 X162.427 Y129.229 E0.01262
G1 X162.553 Y128.739 E0.01586
G1 X162.736 Y128.380 E0.01262
G1 X162.977 Y128.070 E0.01233
G1 X163.272 Y127.809 E0.01233
G1 X163.610 Y127.609 E0.01233
G1 X163.980 Y127.476 E0.01234
G1 X164.369 Y127.414 E0.01233
G1 X164.771 Y127.427 E0.01262
G1 X165.261 Y127.553 E0.01586
G1 X165.620 Y127.736 E0.01262
G1 X165.930 Y127.977 E0.01233
G1 X166.191 Y128.272 E0.01233
G1 X166.391 Y128.610 E0.01233
G1 X166.524 Y128.980 E0.01234
G1 X166.586 Y129.369 E0.01233
G1 X166.573 Y129.771 E0.01262
G1 X166.447 Y130.261 E0.01586
G1 X166.264 Y130.620 E0.01262
G1 X166.023 Y130.930 E0.01233
G1 X165.728 Y131.191 E0.01233
G1 X165.390 Y131.391 E0.01233
G1 X165.020 Y131.524 E0.01234
G1 X164.631 Y131.586 E0.01233
