; generated by PrusaSlicer 2.0.0+win64 on 2019-09-06 at 09:56:40

; 

; external perimeters extrusion width = 0.45mm
; perimeters extrusion width = 0.45mm
; infill extrusion width = 0.45mm
; solid infill extrusion width = 0.45mm
; top infill extrusion width = 0.40mm
; first layer extrusion width = 0.42mm

M73 P0 R13
M73 Q0 S13
M201 X1000 Y1000 Z1000 E5000 ; sets maximum accelerations, mm/sec^2
M203 X200 Y200 Z12 E120 ; sets maximum feedrates, mm/sec
M204 P1250 R1250 T1250 ; sets acceleration (P, T) and retract acceleration (R), mm/sec^2
M205 X8.00 Y8.00 Z0.40 E1.50 ; sets the jerk limits, mm/sec
M205 S0 T0 ; sets the minimum extruding and travel feed rate, mm/sec
M107
M115 U3.7.2 ; tell printer latest fw version
G90 ; use absolute coordinates
M83 ; extruder relative mode
M104 S240 ; set extruder temp
M140 S85 ; set bed temp
Tx
M190 S85 ; wait for bed temp
M109 S240 ; wait for extruder temp
G28 W ; home all without mesh bed level
G80 ; mesh bed leveling

G21 ; set units to millimeters

;go outside print area
G1 Y-3.0 F1000.0
G1 Z0.4 F1000.0
; select extruder
Tc
; purge line
G1 X55.0 F2000.0
G1 Z0.3 F1000.0
G92 E0.0
G1 X240.0 E25.0 F2200.0
M73 Q0 S13
M73 P0 R13
G1 Y-2.0 F1000.0
G1 X55.0 E25 F1400.0
G1 Z0.20 F1000.0
G1 X5.0 E4.0 F1000.0

M221 S95
G92 E0.0
M900 K45 ; Filament gcode
G21 ; set units to millimeters
G90 ; use absolute coordinates
M83 ; use relative distances for extrusion
;BEFORE_LAYER_CHANGE
G92 E0.0
;0.2


G1 E-0.80000 F2100.00000
G1 Z0.600 F10800.000
;AFTER_LAYER_CHANGE
;0.2
G1 X115.736 Y131.224
G1 Z0.200
G1 E0.80000 F2100.00000
M204 S1000
G1 F1200
G1 X114.867 Y130.968 E0.02839
G1 X114.141 Y130.427 E0.02839
G1 X113.648 Y129.668 E0.02839
G1 X113.450 Y128.784 E0.02839
G1 X113.448 Y121.094 E0.24112
G1 X113.762 Y85.555 E1.11433
G1 X114.075 Y84.115 E0.04621
G1 X114.619 Y82.834 E0.04362
G1 X115.220 Y81.884 E0.03526
G1 X116.183 Y80.809 E0.04526
G1 X117.285 Y79.960 E0.04362
G1 X118.578 Y79.302 E0.04547
G1 X119.959 Y78.900 E0.04510
G1 X121.410 Y78.761 E0.04572
G1 X122.435 Y78.830 E0.03220
G1 X123.708 Y79.112 E0.04090
G1 X124.670 Y79.483 E0.03232
G1 X125.540 Y79.959 E0.03108
G1 X126.368 Y80.566 E0.03220
G1 X127.295 Y81.490 E0.04102
G1 X127.909 Y82.322 E0.03244
G1 X128.398 Y83.212 E0.03182
G1 X134.983 Y100.512 E0.58041
G1 X135.839 Y103.151 E0.08697
G1 X136.178 Y104.692 E0.04949
G1 X136.515 Y107.475 E0.08789
G1 X136.551 Y109.002 E0.04788
G1 X136.358 Y111.735 E0.08591
G1 X136.095 Y113.299 E0.04973
G1 X135.386 Y115.938 E0.08567
G1 X134.855 Y117.369 E0.04787
G1 X134.229 Y118.753 E0.04763
G1 X132.875 Y121.126 E0.08566
G1 X132.000 Y122.373 E0.04775
G1 X131.044 Y123.553 E0.04762
G1 X129.122 Y125.517 E0.08616
G1 X127.972 Y126.490 E0.04725
G1 X126.745 Y127.393 E0.04775
G1 X124.406 Y128.796 E0.08554
G1 X123.011 Y129.464 E0.04849
G1 X121.615 Y130.017 E0.04707
G1 X118.964 Y130.791 E0.08659
G1 X117.444 Y131.080 E0.04849
G1 X115.796 Y131.219 E0.05188
G1 X115.775 Y130.849 F10800.000
G1 F1200
G1 X115.032 Y130.629 E0.02428
G1 X114.412 Y130.165 E0.02428
G1 X113.991 Y129.511 E0.02439
G1 X113.826 Y128.754 E0.02428
G1 X113.825 Y121.097 E0.24008
G1 X114.137 Y85.593 E1.11324
G1 X114.435 Y84.228 E0.04382
G1 X114.956 Y83.002 E0.04176
G1 X115.716 Y81.859 E0.04302
G1 X116.436 Y81.089 E0.03308
G1 X117.486 Y80.280 E0.04154
G1 X118.714 Y79.653 E0.04325
G1 X120.032 Y79.270 E0.04302
G1 X121.409 Y79.138 E0.04336
G1 X122.381 Y79.203 E0.03057
G1 X123.604 Y79.474 E0.03925
G1 X124.513 Y79.826 E0.03057
G1 X125.336 Y80.277 E0.02943
G1 X126.123 Y80.853 E0.03057
G1 X127.012 Y81.739 E0.03937
G1 X127.593 Y82.527 E0.03068
G1 X128.058 Y83.375 E0.03034
G1 X134.628 Y100.642 E0.57925
G1 X135.475 Y103.250 E0.08599
G1 X135.806 Y104.751 E0.04818
G1 X136.139 Y107.499 E0.08681
G1 X136.174 Y108.988 E0.04669
G1 X135.982 Y111.699 E0.08520
G1 X135.727 Y113.218 E0.04829
G1 X135.026 Y115.828 E0.08475
G1 X134.507 Y117.224 E0.04669
G1 X133.895 Y118.577 E0.04658
G1 X132.554 Y120.929 E0.08486
G1 X131.700 Y122.144 E0.04658
G1 X130.766 Y123.299 E0.04657
G1 X128.868 Y125.239 E0.08509
G1 X127.740 Y126.194 E0.04635
G1 X126.539 Y127.077 E0.04673
G1 X124.222 Y128.467 E0.08471
G1 X122.866 Y129.116 E0.04715
G1 X121.498 Y129.659 E0.04615
G1 X118.880 Y130.423 E0.08551
G1 X117.403 Y130.705 E0.04715
G1 X115.834 Y130.843 E0.04936
G1 F8640
G1 X115.032 Y130.629 E-0.19176
G1 X114.412 Y130.165 E-0.17881
G1 X113.991 Y129.511 E-0.17964
G1 X113.826 Y128.754 E-0.17881
G1 X113.826 Y128.620 E-0.03099
G1 E-0.04000 F2100.00000
G1 Z0.800 F10800.000
G1 X122.832 Y87.972
G1 Z0.200
G1 E0.80000 F2100.00000
G1 F1200
G1 X122.525 Y88.211 E0.01221
G1 X122.178 Y88.389 E0.01221
G1 X121.804 Y88.498 E0.01221
G1 X121.417 Y88.535 E0.01221
G1 X121.029 Y88.499 E0.01221
G1 X120.655 Y88.391 E0.01221
G1 X120.294 Y88.208 E0.01269
G1 X119.917 Y87.898 E0.01532
G1 X119.669 Y87.578 E0.01269
G1 X119.491 Y87.232 E0.01221
G1 X119.382 Y86.858 E0.01221
G1 X119.345 Y86.471 E0.01221
G1 X119.381 Y86.083 E0.01221
G1 X119.489 Y85.709 E0.01221
G1 X119.665 Y85.362 E0.01221
G1 X119.903 Y85.054 E0.01221
G1 X120.195 Y84.796 E0.01221
G1 X120.529 Y84.597 E0.01221
G1 X120.909 Y84.459 E0.01267
G1 X121.391 Y84.397 E0.01523
G1 X121.797 Y84.434 E0.01277
G1 X122.171 Y84.542 E0.01223
G1 X122.519 Y84.719 E0.01221
G1 X122.827 Y84.957 E0.01221
G1 X123.095 Y85.260 E0.01269
G1 X123.331 Y85.687 E0.01532
G1 X123.444 Y86.076 E0.01269
G1 X123.483 Y86.479 E0.01269
G1 X123.423 Y86.963 E0.01532
G1 X123.286 Y87.344 E0.01269
G1 X123.089 Y87.680 E0.01221
G1 X122.872 Y87.927 E0.01032
G1 X122.572 Y87.697 F10800.000
G1 F1200
G1 X122.321 Y87.892 E0.00997
G1 X122.038 Y88.037 E0.00997
G1 X121.733 Y88.126 E0.00997
G1 X121.416 Y88.157 E0.00997
G1 X121.100 Y88.127 E0.00997
G1 X120.794 Y88.039 E0.00997
G1 X120.502 Y87.891 E0.01026
G1 X120.189 Y87.633 E0.01271
G1 X119.988 Y87.375 E0.01026
G1 X119.843 Y87.092 E0.00997
G1 X119.754 Y86.786 E0.00997
G1 X119.724 Y86.470 E0.00997
G1 X119.753 Y86.153 E0.00997
G1 X119.841 Y85.848 E0.00997
G1 X119.985 Y85.564 E0.00997
G1 X120.180 Y85.312 E0.00997
G1 X120.418 Y85.102 E0.00997
G1 X120.691 Y84.939 E0.00997
G1 X120.999 Y84.828 E0.01026
G1 X121.398 Y84.776 E0.01263
G1 X121.727 Y84.807 E0.01034
G1 X122.033 Y84.895 E0.00998
G1 X122.316 Y85.039 E0.00997
G1 X122.568 Y85.233 E0.00997
G1 X122.785 Y85.478 E0.01026
G1 X122.981 Y85.833 E0.01271
G1 X123.073 Y86.147 E0.01026
G1 X123.104 Y86.473 E0.01026
G1 X123.054 Y86.876 E0.01271
G1 X122.943 Y87.184 E0.01026
G1 X122.782 Y87.458 E0.00997
G1 X122.612 Y87.652 E0.00809
G1 X122.312 Y87.421 F10800.000
G1 F1200
G1 X122.118 Y87.573 E0.00774
G1 X121.898 Y87.685 E0.00774
G1 X121.661 Y87.754 E0.00774
G1 X121.416 Y87.778 E0.00774
G1 X121.170 Y87.755 E0.00774
G1 X120.933 Y87.687 E0.00774
G1 X120.710 Y87.574 E0.00784
G1 X120.461 Y87.369 E0.01010
G1 X120.308 Y87.171 E0.00784
G1 X120.195 Y86.952 E0.00774
G1 X120.126 Y86.715 E0.00774
G1 X120.102 Y86.469 E0.00774
G1 X120.125 Y86.224 E0.00774
G1 X120.194 Y85.986 E0.00774
G1 X120.305 Y85.766 E0.00774
G1 X120.456 Y85.571 E0.00774
G1 X120.641 Y85.408 E0.00774
G1 X120.853 Y85.282 E0.00774
G1 X121.088 Y85.197 E0.00784
G1 X121.405 Y85.156 E0.01002
G1 X121.657 Y85.179 E0.00792
G1 X121.894 Y85.247 E0.00774
G1 X122.114 Y85.359 E0.00774
G1 X122.309 Y85.510 E0.00774
G1 X122.475 Y85.697 E0.00784
G1 X122.630 Y85.979 E0.01010
G1 X122.701 Y86.219 E0.00784
G1 X122.725 Y86.468 E0.00784
G1 X122.685 Y86.788 E0.01010
G1 X122.600 Y87.023 E0.00784
G1 X122.475 Y87.236 E0.00774
G1 X122.352 Y87.376 E0.00585
G1 X122.369 Y87.661 F10800.000
G1 F8640
G1 X122.118 Y87.573 E-0.07063
G1 X121.898 Y87.685 E-0.05697
G1 X121.661 Y87.754 E-0.05697
G1 X121.416 Y87.778 E-0.05697
G1 X121.170 Y87.755 E-0.05697
G1 X120.933 Y87.687 E-0.05697
G1 X120.710 Y87.574 E-0.05774
G1 X120.461 Y87.369 E-0.07437
G1 X120.308 Y87.171 E-0.05774
G1 X120.195 Y86.952 E-0.05697
G1 X120.126 Y86.715 E-0.05697
G1 X120.102 Y86.469 E-0.05697
G1 X120.120 Y86.281 E-0.04373
G1 E-0.04000 F2100.00000
G1 Z0.800 F10800.000
G1 X125.226 Y86.891
G1 Z0.200
G1 E0.80000 F2100.00000
G1 F1200
G1 X125.411 Y86.995 E0.00665
G1 X130.410 Y99.917 E0.43445
G1 X130.829 Y100.803 E0.03071
G1 X131.310 Y101.911 E0.03787
G1 X131.714 Y103.033 E0.03739
G1 X132.045 Y104.178 E0.03739
G1 X132.302 Y105.342 E0.03739
G1 X132.485 Y106.521 E0.03738
G1 X132.592 Y107.708 E0.03739
G1 X132.622 Y108.900 E0.03739
G1 X132.576 Y110.092 E0.03738
G1 X132.454 Y111.278 E0.03739
G1 X132.257 Y112.454 E0.03739
G1 X131.985 Y113.615 E0.03738
G1 X131.639 Y114.756 E0.03739
G1 X131.220 Y115.872 E0.03739
G1 X130.732 Y116.960 E0.03738
G1 X130.174 Y118.014 E0.03739
G1 X129.551 Y119.030 E0.03739
G1 X128.863 Y120.005 E0.03739
G1 X128.115 Y120.933 E0.03738
G1 X127.309 Y121.812 E0.03739
G1 X126.449 Y122.637 E0.03739
G1 X125.537 Y123.405 E0.03739
G1 X124.578 Y124.114 E0.03739
G1 X123.576 Y124.760 E0.03739
G1 X122.534 Y125.341 E0.03739
G1 X121.458 Y125.853 E0.03739
G1 X120.351 Y126.296 E0.03739
G1 X119.217 Y126.667 E0.03739
G1 X118.063 Y126.965 E0.03739
G1 X117.378 Y127.096 E0.02188
G1 X117.378 Y122.217 E0.15296
G1 X117.878 Y122.088 E0.01622
G1 X118.721 Y121.812 E0.02781
G1 X119.545 Y121.483 E0.02782
G1 X120.346 Y121.101 E0.02782
G1 X121.121 Y120.669 E0.02782
G1 X121.867 Y120.189 E0.02781
G1 X122.580 Y119.662 E0.02781
G1 X123.258 Y119.090 E0.02782
G1 X123.899 Y118.476 E0.02781
G1 X124.498 Y117.822 E0.02782
G1 X125.055 Y117.131 E0.02781
G1 X125.471 Y116.541 E0.02264
G1 X126.028 Y115.655 E0.03282
G1 X126.445 Y114.866 E0.02797
G1 X126.809 Y114.057 E0.02782
G1 X127.120 Y113.226 E0.02782
G1 X127.377 Y112.377 E0.02781
G1 X127.580 Y111.513 E0.02782
G1 X127.727 Y110.639 E0.02782
G1 X127.817 Y109.756 E0.02781
G1 X127.851 Y108.870 E0.02781
G1 X127.829 Y107.983 E0.02782
G1 X127.749 Y107.099 E0.02781
G1 X127.614 Y106.223 E0.02782
G1 X127.422 Y105.356 E0.02781
G1 X127.176 Y104.504 E0.02781
G1 X126.875 Y103.669 E0.02782
G1 X126.528 Y102.870 E0.02733
G1 X126.096 Y101.956 E0.03168
G1 X119.284 Y89.891 E0.43444
G1 X119.321 Y89.682 E0.00665
G1 X118.659 Y89.049 E0.02872
G1 X118.517 Y88.889 E0.00671
G1 X118.254 Y88.530 E0.01396
G1 X118.007 Y88.094 E0.01571
G1 X117.826 Y87.639 E0.01534
G1 X117.707 Y87.181 E0.01486
G1 X117.645 Y86.695 E0.01534
G1 X117.638 Y86.489 E0.00649
G1 X117.668 Y86.000 E0.01534
G1 X117.756 Y85.535 E0.01486
G1 X117.905 Y85.074 E0.01517
G1 X118.014 Y84.828 E0.00845
G1 X118.222 Y84.452 E0.01348
G1 X118.501 Y84.066 E0.01492
G1 X118.825 Y83.720 E0.01486
G1 X119.201 Y83.408 E0.01534
G1 X119.372 Y83.291 E0.00649
G1 X119.801 Y83.055 E0.01534
G1 X120.241 Y82.880 E0.01486
G1 X120.700 Y82.761 E0.01486
G1 X121.180 Y82.700 E0.01517
G1 X121.449 Y82.694 E0.00845
G1 X121.893 Y82.723 E0.01396
G1 X122.099 Y82.755 E0.00654
G1 X122.588 Y82.879 E0.01581
G1 X122.783 Y82.949 E0.00649
G1 X123.226 Y83.157 E0.01534
G1 X123.639 Y83.418 E0.01534
G1 X123.803 Y83.545 E0.00649
G1 X124.160 Y83.879 E0.01534
G1 X124.463 Y84.243 E0.01486
G1 X124.717 Y84.643 E0.01486
G1 X124.926 Y85.085 E0.01534
G1 X124.997 Y85.280 E0.00649
G1 X125.123 Y85.768 E0.01581
G1 X125.157 Y85.978 E0.00665
G1 X125.221 Y86.831 E0.02683
G1 F8640
G1 X125.411 Y86.995 E-0.05779
G1 X126.508 Y89.831 E-0.70221
G1 E-0.04000 F2100.00000
G1 Z0.800 F10800.000
G1 X117.000 Y127.552
G1 Z0.200
G1 E0.80000 F2100.00000
G1 F1200
G1 X117.000 Y121.925 E0.17641
G1 X117.773 Y121.726 E0.02500
G1 X118.593 Y121.458 E0.02706
G1 X119.394 Y121.137 E0.02706
G1 X120.173 Y120.766 E0.02706
G1 X120.927 Y120.346 E0.02706
G1 X121.652 Y119.878 E0.02706
G1 X122.346 Y119.366 E0.02706
G1 X123.006 Y118.809 E0.02706
G1 X123.629 Y118.212 E0.02706
G1 X124.212 Y117.576 E0.02706
G1 X124.754 Y116.904 E0.02706
G1 X125.157 Y116.332 E0.02195
G1 X125.701 Y115.466 E0.03207
G1 X126.106 Y114.700 E0.02715
G1 X126.460 Y113.913 E0.02706
G1 X126.762 Y113.105 E0.02706
G1 X127.013 Y112.279 E0.02706
G1 X127.210 Y111.439 E0.02706
G1 X127.353 Y110.588 E0.02706
G1 X127.441 Y109.730 E0.02706
G1 X127.474 Y108.867 E0.02706
G1 X127.452 Y108.004 E0.02706
G1 X127.375 Y107.145 E0.02706
G1 X127.243 Y106.292 E0.02706
G1 X127.057 Y105.450 E0.02706
G1 X126.817 Y104.621 E0.02706
G1 X126.524 Y103.809 E0.02706
G1 X126.185 Y103.026 E0.02676
G1 X125.761 Y102.130 E0.03106
G1 X118.889 Y89.958 E0.43826
G1 X118.915 Y89.815 E0.00457
G1 X118.387 Y89.310 E0.02288
G1 X118.224 Y89.126 E0.00774
G1 X117.940 Y88.740 E0.01501
G1 X117.776 Y88.471 E0.00988
G1 X117.663 Y88.250 E0.00779
G1 X117.467 Y87.757 E0.01664
G1 X117.336 Y87.252 E0.01635
G1 X117.269 Y86.726 E0.01664
G1 X117.261 Y86.483 E0.00760
G1 X117.293 Y85.954 E0.01664
G1 X117.390 Y85.441 E0.01635
G1 X117.552 Y84.940 E0.01653
G1 X117.676 Y84.660 E0.00959
G1 X117.903 Y84.249 E0.01472
G1 X118.210 Y83.826 E0.01638
G1 X118.566 Y83.445 E0.01635
G1 X118.974 Y83.106 E0.01664
G1 X119.175 Y82.970 E0.00760
G1 X119.639 Y82.713 E0.01664
G1 X120.123 Y82.521 E0.01635
G1 X120.628 Y82.390 E0.01635
G1 X121.151 Y82.323 E0.01653
G1 X121.457 Y82.316 E0.00959
G1 X121.935 Y82.347 E0.01501
G1 X122.175 Y82.385 E0.00764
G1 X122.698 Y82.518 E0.01693
G1 X122.927 Y82.600 E0.00760
G1 X123.407 Y82.825 E0.01664
G1 X123.856 Y83.109 E0.01664
G1 X124.047 Y83.257 E0.00760
G1 X124.435 Y83.620 E0.01664
G1 X124.768 Y84.021 E0.01635
G1 X125.048 Y84.460 E0.01635
G1 X125.275 Y84.940 E0.01664
G1 X125.357 Y85.168 E0.00760
G1 X125.493 Y85.691 E0.01693
G1 X125.531 Y85.933 E0.00770
G1 X125.587 Y86.661 E0.02288
G1 X125.713 Y86.732 E0.00456
G1 X130.757 Y99.768 E0.43826
G1 X131.172 Y100.647 E0.03047
G1 X131.661 Y101.772 E0.03844
G1 X132.073 Y102.916 E0.03814
G1 X132.411 Y104.085 E0.03814
G1 X132.673 Y105.273 E0.03814
G1 X132.859 Y106.475 E0.03814
G1 X132.968 Y107.686 E0.03814
G1 X132.999 Y108.903 E0.03814
G1 X132.953 Y110.118 E0.03814
G1 X132.828 Y111.328 E0.03814
G1 X132.627 Y112.528 E0.03814
G1 X132.349 Y113.712 E0.03814
G1 X131.996 Y114.877 E0.03814
G1 X131.569 Y116.016 E0.03814
G1 X131.071 Y117.125 E0.03814
G1 X130.502 Y118.201 E0.03814
G1 X129.866 Y119.238 E0.03814
G1 X129.165 Y120.232 E0.03814
G1 X128.550 Y120.994 E0.03071
G1 X128.401 Y121.179 E0.00743
G1 X127.579 Y122.075 E0.03814
G1 X126.701 Y122.917 E0.03814
G1 X125.771 Y123.702 E0.03814
G1 X124.792 Y124.425 E0.03814
G1 X123.770 Y125.084 E0.03814
G1 X122.707 Y125.676 E0.03814
G1 X121.609 Y126.199 E0.03814
G1 X120.479 Y126.651 E0.03814
G1 X119.323 Y127.029 E0.03814
G1 X118.145 Y127.333 E0.03814
G1 X117.059 Y127.540 E0.03466
G1 X116.623 Y127.982 F10800.000
G1 F1200
G1 X116.623 Y121.618 E0.19955
G1 X117.667 Y121.364 E0.03367
G1 X118.464 Y121.103 E0.02630
G1 X119.243 Y120.792 E0.02630
G1 X120.000 Y120.431 E0.02630
G1 X120.733 Y120.022 E0.02630
G1 X121.438 Y119.568 E0.02630
G1 X122.112 Y119.069 E0.02630
G1 X122.754 Y118.529 E0.02630
G1 X123.359 Y117.948 E0.02630
G1 X123.926 Y117.330 E0.02630
G1 X124.453 Y116.677 E0.02630
G1 X124.843 Y116.123 E0.02125
G1 X125.374 Y115.277 E0.03131
G1 X125.767 Y114.535 E0.02633
G1 X126.111 Y113.770 E0.02630
G1 X126.405 Y112.984 E0.02630
G1 X126.648 Y112.181 E0.02630
G1 X126.840 Y111.365 E0.02630
G1 X126.979 Y110.537 E0.02630
G1 X127.065 Y109.703 E0.02630
G1 X127.097 Y108.865 E0.02630
G1 X127.075 Y108.026 E0.02630
G1 X127.000 Y107.191 E0.02630
G1 X126.872 Y106.362 E0.02630
G1 X126.691 Y105.543 E0.02630
G1 X126.458 Y104.737 E0.02630
G1 X126.174 Y103.948 E0.02630
G1 X125.841 Y103.181 E0.02620
G1 X125.426 Y102.303 E0.03044
G1 X118.494 Y90.026 E0.44207
G1 X118.508 Y89.948 E0.00248
G1 X118.115 Y89.572 E0.01705
G1 X117.930 Y89.363 E0.00876
G1 X117.627 Y88.950 E0.01606
G1 X117.447 Y88.655 E0.01083
G1 X117.319 Y88.406 E0.00878
G1 X117.108 Y87.874 E0.01794
G1 X116.965 Y87.323 E0.01784
G1 X116.893 Y86.756 E0.01794
G1 X116.884 Y86.478 E0.00872
G1 X116.918 Y85.907 E0.01794
G1 X117.024 Y85.348 E0.01784
G1 X117.200 Y84.805 E0.01790
G1 X117.338 Y84.492 E0.01072
G1 X117.584 Y84.047 E0.01595
G1 X117.918 Y83.586 E0.01785
G1 X118.307 Y83.170 E0.01784
G1 X118.747 Y82.805 E0.01794
G1 X118.977 Y82.648 E0.00872
G1 X119.478 Y82.372 E0.01794
G1 X120.006 Y82.162 E0.01784
G1 X120.557 Y82.019 E0.01784
G1 X121.123 Y81.947 E0.01790
G1 X121.465 Y81.939 E0.01072
G1 X121.976 Y81.972 E0.01606
G1 X122.251 Y82.015 E0.00873
G1 X122.809 Y82.157 E0.01804
G1 X123.070 Y82.251 E0.00872
G1 X123.589 Y82.494 E0.01794
G1 X124.072 Y82.800 E0.01794
G1 X124.292 Y82.970 E0.00872
